( pcb2gcode 2.4.0 )
( Software-independent Gcode )

G94 ( Millimeters per minute feed rate. )
G21 ( Units == Millimeters. )

G90 ( Absolute coordinates. )
G00 S2 ( RPM spindle speed. )
G01 F100.00000 ( Feedrate. )


G00 Z2.00000 (Retract to tool change height)
T0
M5      (Spindle stop.)
G04 P1.00000 (Wait for spindle to stop)
(MSG, Change tool bit to mill diameter 0.00000mm)
M0      (Temporary machine stop.)
M3 ( Spindle on clockwise. )
G04 P1.00000 (Wait for spindle to get up to speed)
G04 P0 ( dwell for no time -- G64 should not smooth over this point )
G00 Z2.00000 ( retract )

G00 X-9.29899 Y-7.81728 ( rapid move to begin. )
G01 F254.00000
( Mill infeed pass 1/1 )
G01 Z-0.12000
G04 P0 ( dwell for no time -- G64 should not smooth over this point )
G01 F100.00000
G01 X-9.29899 Y-7.81728
G01 X-9.24420 Y-7.64687
G01 X-9.17796 Y-7.48068
G01 X-9.14875 Y-7.41449
G01 X-9.02119 Y-7.16194
G01 X-8.96920 Y-7.02076
G01 X-8.95642 Y-6.97461
G01 X-8.92221 Y-6.77923
G01 X-8.92221 Y-6.58071
G01 X-8.95642 Y-6.38531
G01 X-8.96920 Y-6.33918
G01 X-9.02119 Y-6.19801
G01 X-9.09645 Y-6.05262
G01 X-9.11489 Y-6.02333
G01 X-9.24024 Y-5.86036
G01 X-9.29734 Y-5.80575
G01 X-9.43511 Y-5.64708
G01 X-9.52477 Y-5.53182
G01 X-9.61009 Y-5.40997
G01 X-11.36988 Y-5.40997
G01 X-11.46200 Y-5.54149
G01 X-11.53475 Y-5.63527
G01 X-11.61600 Y-5.73113
G01 X-11.74443 Y-5.86572
G01 X-11.86505 Y-6.02333
G01 X-11.88352 Y-6.05262
G01 X-11.95875 Y-6.19798
G01 X-12.01075 Y-6.33915
G01 X-12.02352 Y-6.38531
G01 X-12.04968 Y-6.52325
G01 X-12.05776 Y-6.58589
G01 X-12.05774 Y-6.77923
G01 X-12.02352 Y-6.97461
G01 X-11.99081 Y-7.08048
G01 X-11.95875 Y-7.16196
G01 X-11.91425 Y-7.25236
G01 X-11.86505 Y-7.33661
G01 X-11.77270 Y-7.45940
G01 X-11.73970 Y-7.49955
G01 X-11.68263 Y-7.55419
G01 X-11.54486 Y-7.71289
G01 X-11.45512 Y-7.82823
G01 X-11.36988 Y-7.94997
G01 X-10.11999 Y-7.94997
G01 X-9.89302 Y-7.93910
G01 X-9.81255 Y-7.93062
G01 X-9.62439 Y-7.90080
G01 X-9.53483 Y-7.88172
G01 X-9.29899 Y-7.81728
G01 X-9.17517 Y-7.89864
G01 X-9.05086 Y-7.97161
G01 X-8.93762 Y-8.03166
G01 X-8.65299 Y-8.15967
G01 X-8.49414 Y-8.26148
G01 X-8.33194 Y-8.40831
G01 X-6.30710 Y-10.43544
G01 X-6.26593 Y-10.47295
G01 X-6.16270 Y-10.55812
G01 X-5.92036 Y-10.62507
G01 X-5.85092 Y-10.65152
G01 X-5.73880 Y-10.70455
G01 X-5.57850 Y-10.80696
G01 X-5.42549 Y-10.94575
G01 X-5.30489 Y-11.10333
G01 X-5.25569 Y-11.18758
G01 X-5.21119 Y-11.27801
G01 X-5.17914 Y-11.35946
G01 X-5.14642 Y-11.46533
G01 X-5.11221 Y-11.66071
G01 X-5.11221 Y-11.85923
G01 X-5.14642 Y-12.05461
G01 X-5.17914 Y-12.16048
G01 X-5.21119 Y-12.24194
G01 X-5.28645 Y-12.38733
G01 X-5.30489 Y-12.41661
G01 X-5.42549 Y-12.57419
G01 X-5.57850 Y-12.71295
G01 X-5.73883 Y-12.81537
G01 X-5.79336 Y-12.84300
G01 X-5.92036 Y-12.89487
G01 X-6.02988 Y-12.92647
G01 X-6.11231 Y-12.94453
G01 X-6.26039 Y-12.95845
G01 X-6.62592 Y-12.96185
G01 X-7.09955 Y-12.95845
G01 X-7.24764 Y-12.94453
G01 X-7.33011 Y-12.92647
G01 X-7.43958 Y-12.89487
G01 X-7.56658 Y-12.84300
G01 X-7.62112 Y-12.81537
G01 X-7.78149 Y-12.71295
G01 X-7.93445 Y-12.57419
G01 X-8.05505 Y-12.41661
G01 X-8.14545 Y-12.27765
G01 X-8.22010 Y-12.17826
G01 X-8.29325 Y-12.08494
G01 X-8.38949 Y-11.97303
G01 X-8.51934 Y-11.90683
G01 X-8.66203 Y-11.84671
G04 P0 ( dwell for no time -- G64 should not smooth over this point )
G00 Z2.00000 ( retract )

G00 X-9.61009 Y-13.02997 ( rapid move to begin. )
G01 F254.00000
( Mill infeed pass 1/1 )
G01 Z-0.12000
G04 P0 ( dwell for no time -- G64 should not smooth over this point )
G01 F100.00000
G01 X-9.61009 Y-13.02997
G01 X-9.51789 Y-12.89837
G01 X-9.42358 Y-12.77811
G01 X-9.20725 Y-12.53940
G01 X-9.11492 Y-12.41664
G01 X-9.04184 Y-12.30315
G01 X-8.97834 Y-12.21384
G01 X-8.90067 Y-12.11532
G01 X-8.79914 Y-11.99441
G01 X-8.66203 Y-11.84671
G01 X-8.73694 Y-11.66589
G01 X-8.78175 Y-11.57171
G01 X-8.87539 Y-11.39927
G01 X-8.91888 Y-11.32817
G01 X-9.02726 Y-11.17049
G01 X-9.07064 Y-11.11387
G01 X-9.19323 Y-10.97036
G01 X-9.23902 Y-10.92210
G01 X-9.37555 Y-10.79256
G01 X-9.42729 Y-10.74839
G01 X-9.57786 Y-10.63285
G01 X-9.75764 Y-10.51804
G01 X-9.89307 Y-10.50087
G01 X-10.11999 Y-10.48997
G01 X-11.36988 Y-10.48997
G01 X-11.46200 Y-10.62149
G01 X-11.53475 Y-10.71527
G01 X-11.61600 Y-10.81113
G01 X-11.74443 Y-10.94572
G01 X-11.86505 Y-11.10333
G01 X-11.91425 Y-11.18758
G01 X-11.95875 Y-11.27798
G01 X-11.99081 Y-11.35946
G01 X-12.02352 Y-11.46533
G01 X-12.05774 Y-11.66071
G01 X-12.05774 Y-11.85923
G01 X-12.02352 Y-12.05461
G01 X-11.99081 Y-12.16048
G01 X-11.95875 Y-12.24196
G01 X-11.91425 Y-12.33236
G01 X-11.86505 Y-12.41661
G01 X-11.73973 Y-12.57953
G01 X-11.68268 Y-12.63414
G01 X-11.54483 Y-12.79291
G01 X-11.45512 Y-12.90820
G01 X-11.36988 Y-13.02997
G01 X-9.61009 Y-13.02997
G01 X-9.52480 Y-13.15179
G01 X-9.43513 Y-13.26703
G01 X-9.29734 Y-13.42575
G01 X-9.24024 Y-13.48036
G01 X-9.11489 Y-13.64333
G01 X-9.09645 Y-13.67262
G01 X-9.02119 Y-13.81801
G01 X-8.98914 Y-13.89946
G01 X-8.95642 Y-14.00533
G01 X-8.93026 Y-14.14328
G01 X-8.92221 Y-14.20071
G01 X-8.92221 Y-14.39923
G01 X-8.95632 Y-14.59403
G01 X-8.98939 Y-14.70038
G01 X-9.11418 Y-15.02286
G01 X-9.17105 Y-15.21325
G01 X-9.21588 Y-15.40723
G04 P0 ( dwell for no time -- G64 should not smooth over this point )
G00 Z2.00000 ( retract )

G00 X-12.10597 Y-15.26169 ( rapid move to begin. )
G01 F254.00000
( Mill infeed pass 1/1 )
G01 Z-0.12000
G04 P0 ( dwell for no time -- G64 should not smooth over this point )
G01 F100.00000
G01 X-12.10597 Y-15.26169
G01 X-12.07966 Y-15.06982
G01 X-12.05967 Y-14.88250
G01 X-12.05126 Y-14.72740
G01 X-12.04831 Y-14.60363
G01 X-12.05057 Y-14.49974
G01 X-12.05817 Y-14.39403
G01 X-12.05779 Y-14.20124
G01 X-12.02352 Y-14.00533
G01 X-12.01075 Y-13.95915
G01 X-11.95875 Y-13.81798
G01 X-11.91425 Y-13.72758
G01 X-11.86505 Y-13.64333
G01 X-11.74443 Y-13.48572
G01 X-11.61598 Y-13.35108
G01 X-11.53472 Y-13.25524
G01 X-11.46200 Y-13.16144
G01 X-11.36988 Y-13.02997
G04 P0 ( dwell for no time -- G64 should not smooth over this point )
G00 Z2.00000 ( retract )

G00 X-11.36988 Y-10.48997 ( rapid move to begin. )
G01 F254.00000
( Mill infeed pass 1/1 )
G01 Z-0.12000
G04 P0 ( dwell for no time -- G64 should not smooth over this point )
G01 F100.00000
G01 X-11.36988 Y-10.48997
G01 X-11.45512 Y-10.36823
G01 X-11.54486 Y-10.25289
G01 X-11.68263 Y-10.09419
G01 X-11.73970 Y-10.03955
G01 X-11.86505 Y-9.87661
G01 X-11.88352 Y-9.84733
G01 X-11.95875 Y-9.70196
G01 X-12.01075 Y-9.56079
G01 X-12.02352 Y-9.51461
G01 X-12.04968 Y-9.37669
G01 X-12.05776 Y-9.31405
G01 X-12.05774 Y-9.12071
G01 X-12.02352 Y-8.92533
G01 X-11.99081 Y-8.81946
G01 X-11.95875 Y-8.73798
G01 X-11.91425 Y-8.64758
G01 X-11.86505 Y-8.56333
G01 X-11.77270 Y-8.44055
G01 X-11.55642 Y-8.20189
G01 X-11.46200 Y-8.08149
G01 X-11.36988 Y-7.94997
G04 P0 ( dwell for no time -- G64 should not smooth over this point )
G00 Z2.00000 ( retract )

G00 X-24.85009 Y4.74998 ( rapid move to begin. )
G01 F254.00000
( Mill infeed pass 1/1 )
G01 Z-0.12000
G04 P0 ( dwell for no time -- G64 should not smooth over this point )
G01 F100.00000
G01 X-24.85009 Y4.74998
G01 X-24.75789 Y4.88158
G01 X-24.68514 Y4.97533
G01 X-24.60396 Y5.07111
G01 X-24.47549 Y5.20576
G01 X-24.35489 Y5.36334
G01 X-24.30569 Y5.44759
G01 X-24.26119 Y5.53801
G01 X-24.22914 Y5.61947
G01 X-24.19642 Y5.72534
G01 X-24.16221 Y5.92071
G01 X-24.16221 Y6.11924
G01 X-24.19642 Y6.31459
G01 X-24.22914 Y6.42049
G01 X-24.26119 Y6.50194
G01 X-24.30569 Y6.59237
G01 X-24.35489 Y6.67662
G01 X-24.48024 Y6.83958
G01 X-24.53734 Y6.89420
G01 X-24.67511 Y7.05287
G01 X-24.76477 Y7.16813
G01 X-24.85009 Y7.28998
G01 X-26.60988 Y7.28998
G01 X-26.69512 Y7.41172
G01 X-26.78486 Y7.52706
G01 X-26.92263 Y7.68576
G01 X-26.97970 Y7.74040
G01 X-27.10505 Y7.90334
G01 X-27.15425 Y7.98759
G01 X-27.19875 Y8.07799
G01 X-27.23081 Y8.15947
G01 X-27.26352 Y8.26534
G01 X-27.28968 Y8.40326
G01 X-27.29774 Y8.46071
G01 X-27.29774 Y8.65924
G01 X-27.26352 Y8.85462
G01 X-27.23081 Y8.96049
G01 X-27.19875 Y9.04197
G01 X-27.15425 Y9.13237
G01 X-27.10505 Y9.21662
G01 X-26.98443 Y9.37423
G01 X-26.85600 Y9.50882
G01 X-26.77475 Y9.60468
G01 X-26.70200 Y9.69846
G01 X-26.60988 Y9.82998
G01 X-24.85009 Y9.82998
G01 X-24.76477 Y9.70813
G01 X-24.67511 Y9.59287
G01 X-24.53734 Y9.43419
G01 X-24.48024 Y9.37959
G01 X-24.35489 Y9.21662
G01 X-24.30569 Y9.13237
G01 X-24.26119 Y9.04194
G01 X-24.22914 Y8.96049
G01 X-24.19642 Y8.85462
G01 X-24.17026 Y8.71667
G01 X-24.16221 Y8.65924
G01 X-24.16221 Y8.46071
G01 X-24.19642 Y8.26534
G01 X-24.22914 Y8.15947
G01 X-24.26119 Y8.07801
G01 X-24.30569 Y7.98759
G01 X-24.35489 Y7.90334
G01 X-24.47549 Y7.74576
G01 X-24.60396 Y7.61111
G01 X-24.68514 Y7.51533
G01 X-24.75789 Y7.42158
G01 X-24.85009 Y7.28998
G04 P0 ( dwell for no time -- G64 should not smooth over this point )
G00 Z2.00000 ( retract )

G00 X-24.85009 Y9.82998 ( rapid move to begin. )
G01 F254.00000
( Mill infeed pass 1/1 )
G01 Z-0.12000
G04 P0 ( dwell for no time -- G64 should not smooth over this point )
G01 F100.00000
G01 X-24.85009 Y9.82998
G01 X-24.75789 Y9.96158
G01 X-24.68514 Y10.05533
G01 X-24.60396 Y10.15111
G01 X-24.47549 Y10.28576
G01 X-24.35489 Y10.44334
G01 X-24.30569 Y10.52759
G01 X-24.26119 Y10.61801
G01 X-24.22914 Y10.69947
G01 X-24.19642 Y10.80534
G01 X-24.16221 Y11.00071
G01 X-24.16221 Y11.19924
G01 X-24.19642 Y11.39462
G01 X-24.22914 Y11.50048
G01 X-24.26119 Y11.58194
G01 X-24.30569 Y11.67237
G01 X-24.35489 Y11.75662
G01 X-24.47549 Y11.91420
G01 X-24.62207 Y12.04803
G01 X-24.68044 Y12.08877
G01 X-24.78880 Y12.15540
G01 X-24.90092 Y12.20843
G01 X-24.97036 Y12.23488
G01 X-25.07988 Y12.26650
G01 X-25.16231 Y12.28453
G01 X-25.35999 Y12.30023
G01 X-26.14953 Y12.29845
G01 X-26.31867 Y12.28077
G01 X-26.48956 Y12.23488
G01 X-26.55903 Y12.20843
G01 X-26.67114 Y12.15540
G01 X-26.77950 Y12.08880
G01 X-26.83787 Y12.04803
G01 X-26.98445 Y11.91420
G01 X-27.10505 Y11.75662
G01 X-27.15425 Y11.67237
G01 X-27.19875 Y11.58197
G01 X-27.25075 Y11.44079
G01 X-27.26352 Y11.39462
G01 X-27.29774 Y11.19924
G01 X-27.29774 Y11.00071
G01 X-27.26352 Y10.80534
G01 X-27.25075 Y10.75916
G01 X-27.19875 Y10.61799
G01 X-27.15425 Y10.52759
G01 X-27.10505 Y10.44334
G01 X-26.97970 Y10.28040
G01 X-26.92263 Y10.22576
G01 X-26.78486 Y10.06706
G01 X-26.69512 Y9.95172
G01 X-26.60988 Y9.82998
G04 P0 ( dwell for no time -- G64 should not smooth over this point )
G00 Z2.00000 ( retract )

G00 X-26.60988 Y7.28998 ( rapid move to begin. )
G01 F254.00000
( Mill infeed pass 1/1 )
G01 Z-0.12000
G04 P0 ( dwell for no time -- G64 should not smooth over this point )
G01 F100.00000
G01 X-26.60988 Y7.28998
G01 X-26.70200 Y7.15846
G01 X-26.77475 Y7.06468
G01 X-26.85600 Y6.96882
G01 X-26.98443 Y6.83423
G01 X-27.10505 Y6.67662
G01 X-27.12352 Y6.64733
G01 X-27.19875 Y6.50197
G01 X-27.25075 Y6.36079
G01 X-27.26352 Y6.31462
G01 X-27.28968 Y6.17670
G01 X-27.29776 Y6.11403
G01 X-27.29774 Y5.92071
G01 X-27.26352 Y5.72534
G01 X-27.23081 Y5.61947
G01 X-27.19875 Y5.53799
G01 X-27.15425 Y5.44759
G01 X-27.10505 Y5.36334
G01 X-27.01270 Y5.24055
G01 X-26.97970 Y5.20040
G01 X-26.92263 Y5.14576
G01 X-26.78486 Y4.98706
G01 X-26.69512 Y4.87172
G01 X-26.60988 Y4.74998
G04 P0 ( dwell for no time -- G64 should not smooth over this point )
G00 Z2.00000 ( retract )

G00 X-24.85009 Y2.20998 ( rapid move to begin. )
G01 F254.00000
( Mill infeed pass 1/1 )
G01 Z-0.12000
G04 P0 ( dwell for no time -- G64 should not smooth over this point )
G01 F100.00000
G01 X-24.85009 Y2.20998
G01 X-24.75789 Y2.34158
G01 X-24.68514 Y2.43533
G01 X-24.60396 Y2.53111
G01 X-24.47549 Y2.66576
G01 X-24.35489 Y2.82334
G01 X-24.30569 Y2.90759
G01 X-24.26119 Y2.99801
G01 X-24.22914 Y3.07947
G01 X-24.19642 Y3.18531
G01 X-24.16221 Y3.38071
G01 X-24.16221 Y3.57924
G01 X-24.17026 Y3.63667
G01 X-24.19642 Y3.77462
G01 X-24.22914 Y3.88048
G01 X-24.26119 Y3.96194
G01 X-24.30569 Y4.05237
G01 X-24.35489 Y4.13662
G01 X-24.48024 Y4.29958
G01 X-24.53734 Y4.35419
G01 X-24.67511 Y4.51287
G01 X-24.76477 Y4.62813
G01 X-24.85009 Y4.74998
G01 X-26.60988 Y4.74998
G01 X-26.70200 Y4.61846
G01 X-26.77475 Y4.52468
G01 X-26.85600 Y4.42882
G01 X-26.98443 Y4.29423
G01 X-27.10505 Y4.13662
G01 X-27.15425 Y4.05237
G01 X-27.19875 Y3.96197
G01 X-27.23081 Y3.88048
G01 X-27.26352 Y3.77462
G01 X-27.29774 Y3.57924
G01 X-27.29774 Y3.38071
G01 X-27.28968 Y3.32326
G01 X-27.26352 Y3.18531
G01 X-27.23081 Y3.07947
G01 X-27.19875 Y2.99799
G01 X-27.15425 Y2.90759
G01 X-27.10505 Y2.82334
G01 X-26.97970 Y2.66040
G01 X-26.92263 Y2.60576
G01 X-26.78486 Y2.44706
G01 X-26.69512 Y2.33172
G01 X-26.60988 Y2.20998
G01 X-24.85009 Y2.20998
G01 X-24.76477 Y2.08813
G01 X-24.67511 Y1.97287
G01 X-24.53734 Y1.81420
G01 X-24.48024 Y1.75958
G01 X-24.35489 Y1.59662
G01 X-24.30569 Y1.51237
G01 X-24.26119 Y1.42194
G01 X-24.22914 Y1.34048
G01 X-24.19642 Y1.23462
G01 X-24.16221 Y1.03924
G01 X-24.16221 Y0.84071
G01 X-24.19642 Y0.64534
G01 X-24.22914 Y0.53947
G01 X-24.26119 Y0.45801
G01 X-24.30569 Y0.36759
G01 X-24.35489 Y0.28334
G01 X-24.47547 Y0.12578
G01 X-24.60396 Y-0.00886
G01 X-24.68514 Y-0.10462
G01 X-24.75789 Y-0.19837
G01 X-24.85009 Y-0.32997
G04 P0 ( dwell for no time -- G64 should not smooth over this point )
G00 Z2.00000 ( retract )

G00 X-26.60988 Y2.20998 ( rapid move to begin. )
G01 F254.00000
( Mill infeed pass 1/1 )
G01 Z-0.12000
G04 P0 ( dwell for no time -- G64 should not smooth over this point )
G01 F100.00000
G01 X-26.60988 Y2.20998
G01 X-26.70200 Y2.07846
G01 X-26.77475 Y1.98468
G01 X-26.85600 Y1.88882
G01 X-26.98443 Y1.75423
G01 X-27.10505 Y1.59662
G01 X-27.12352 Y1.56733
G01 X-27.19875 Y1.42197
G01 X-27.23081 Y1.34048
G01 X-27.26352 Y1.23462
G01 X-27.28968 Y1.09670
G01 X-27.29774 Y1.03924
G01 X-27.29774 Y0.84071
G01 X-27.26375 Y0.64651
G01 X-27.23030 Y0.53970
G01 X-27.10139 Y0.20396
G01 X-27.02616 Y-0.06213
G01 X-27.00084 Y-0.16850
G04 P0 ( dwell for no time -- G64 should not smooth over this point )
G00 Z2.00000 ( retract )

G00 X-24.85009 Y-2.86997 ( rapid move to begin. )
G01 F254.00000
( Mill infeed pass 1/1 )
G01 Z-0.12000
G04 P0 ( dwell for no time -- G64 should not smooth over this point )
G01 F100.00000
G01 X-24.85009 Y-2.86997
G01 X-24.75789 Y-2.73837
G01 X-24.68514 Y-2.64462
G01 X-24.60396 Y-2.54884
G01 X-24.47549 Y-2.41419
G01 X-24.35489 Y-2.25661
G01 X-24.33645 Y-2.22733
G01 X-24.26119 Y-2.08194
G01 X-24.20920 Y-1.94076
G01 X-24.19642 Y-1.89461
G01 X-24.16221 Y-1.69923
G01 X-24.16221 Y-1.50071
G01 X-24.19642 Y-1.30533
G01 X-24.22914 Y-1.19946
G01 X-24.26119 Y-1.11801
G01 X-24.30569 Y-1.02758
G01 X-24.35489 Y-0.94333
G01 X-24.44725 Y-0.82055
G01 X-24.48024 Y-0.78036
G01 X-24.53734 Y-0.72575
G01 X-24.67511 Y-0.56708
G01 X-24.76477 Y-0.45182
G01 X-24.85009 Y-0.32997
G01 X-26.09997 Y-0.33000
G01 X-26.32695 Y-0.31910
G01 X-26.40744 Y-0.31062
G01 X-26.59558 Y-0.28082
G01 X-26.68509 Y-0.26175
G01 X-26.87325 Y-0.21133
G01 X-27.00084 Y-0.16850
G01 X-27.09626 Y-0.22195
G01 X-27.20614 Y-0.27663
G01 X-27.35090 Y-0.33325
G01 X-27.46078 Y-0.36452
G01 X-27.57983 Y-0.38697
G01 X-27.74536 Y-0.39972
G01 X-28.65763 Y-0.39969
G01 X-28.72026 Y-0.39642
G01 X-28.77261 Y-0.39096
G01 X-29.03055 Y-0.32194
G01 X-29.06738 Y-0.31549
G01 X-29.26999 Y-0.29975
G01 X-29.86100 Y-0.30160
G01 X-30.04939 Y-0.32205
G01 X-30.30731 Y-0.39101
G01 X-30.42935 Y-0.39972
G01 X-31.34853 Y-0.39954
G01 X-31.41810 Y-0.39550
G01 X-31.57299 Y-0.37595
G01 X-31.63227 Y-0.33223
G01 X-31.75836 Y-0.22418
G01 X-33.25391 Y1.27152
G01 X-33.30034 Y1.32367
G01 X-33.39592 Y1.44696
G01 X-33.40697 Y1.51983
G01 X-33.41713 Y1.62966
G01 X-33.41860 Y1.91831
G01 X-33.41139 Y2.00868
G01 X-33.39437 Y2.11856
G01 X-33.36260 Y2.24391
G01 X-33.34225 Y2.30172
G01 X-33.29516 Y2.33070
G01 X-33.17880 Y2.38859
G01 X-33.07497 Y2.42849
G01 X-32.95226 Y2.46924
G01 X-32.64731 Y2.59075
G01 X-32.23750 Y2.77459
G01 X-31.99750 Y2.89476
G01 X-31.84289 Y2.98971
G01 X-31.47494 Y3.24762
G01 X-31.09631 Y3.53924
G01 X-31.05000 Y3.58226
G01 X-30.80067 Y3.83946
G01 X-30.50200 Y4.17497
G01 X-30.35117 Y4.35961
G01 X-30.23253 Y4.53459
G01 X-30.00243 Y4.92046
G01 X-29.78871 Y5.31609
G01 X-29.76476 Y5.37289
G01 X-29.63235 Y5.73773
G01 X-29.49717 Y6.16610
G01 X-29.42976 Y6.42894
G01 X-29.40159 Y6.60517
G01 X-29.34957 Y7.05140
G01 X-29.31734 Y7.49998
G01 X-29.34957 Y7.94855
G01 X-29.40159 Y8.39475
G01 X-29.44294 Y8.63257
G01 X-29.49717 Y8.83384
G01 X-29.63235 Y9.26221
G01 X-29.76476 Y9.62706
G01 X-29.78871 Y9.68385
G01 X-30.00243 Y10.07951
G01 X-30.23255 Y10.46536
G01 X-30.35117 Y10.64034
G01 X-30.50200 Y10.82497
G01 X-30.80067 Y11.16048
G01 X-31.05000 Y11.41768
G01 X-31.09631 Y11.46071
G01 X-31.47492 Y11.75235
G01 X-31.84289 Y12.01026
G01 X-31.99750 Y12.10518
G01 X-32.23750 Y12.22535
G01 X-32.64802 Y12.40950
G01 X-32.95193 Y12.53150
G01 X-33.14672 Y12.59789
G01 X-33.24916 Y12.64463
G01 X-33.34408 Y12.69675
G01 X-33.38449 Y12.83642
G01 X-33.40697 Y12.95555
G01 X-33.41972 Y13.12111
G01 X-33.41972 Y15.43459
G01 X-33.41644 Y15.49725
G01 X-33.39595 Y15.67297
G01 X-33.35221 Y15.73228
G01 X-33.24421 Y15.85834
G01 X-30.21465 Y18.88663
G01 X-30.11150 Y19.00461
G01 X-30.04937 Y19.09364
G01 X-29.98790 Y19.20296
G01 X-29.92615 Y19.35201
G01 X-29.87987 Y19.53069
G01 X-29.86321 Y19.73598
G01 X-29.86372 Y23.19058
G01 X-29.86044 Y23.25324
G01 X-29.83995 Y23.42896
G01 X-29.79623 Y23.48827
G01 X-29.68821 Y23.61433
G01 X-23.51232 Y29.79021
G01 X-23.46571 Y29.83217
G01 X-23.32698 Y29.94193
G01 X-23.25413 Y29.95295
G01 X-23.08857 Y29.96570
G01 X-0.73152 Y29.96555
G01 X-0.66185 Y29.96151
G01 X-0.50696 Y29.94193
G01 X-0.44767 Y29.89821
G01 X-0.32161 Y29.79021
G01 X2.43421 Y27.03434
G01 X2.47620 Y26.98770
G01 X2.58595 Y26.84894
G01 X2.59697 Y26.77612
G01 X2.60972 Y26.61059
G01 X2.60972 Y22.18398
G01 X2.62542 Y21.98632
G01 X2.64345 Y21.90387
G01 X2.67508 Y21.79437
G01 X2.72697 Y21.66732
G01 X2.75455 Y21.61278
G01 X2.85697 Y21.45248
G01 X2.99573 Y21.29950
G01 X3.15333 Y21.17888
G01 X3.18262 Y21.16044
G01 X3.32798 Y21.08520
G01 X3.46921 Y21.03318
G01 X3.51533 Y21.02040
G01 X3.71071 Y20.98622
G01 X3.90924 Y20.98622
G01 X4.10461 Y21.02043
G01 X4.15074 Y21.03318
G01 X4.29196 Y21.08520
G01 X4.38236 Y21.12970
G01 X4.46662 Y21.17888
G01 X4.62420 Y21.29950
G01 X4.75803 Y21.44608
G01 X4.79877 Y21.50443
G01 X4.86540 Y21.61281
G01 X4.91843 Y21.72490
G01 X4.94487 Y21.79437
G01 X4.97649 Y21.90387
G01 X4.99453 Y21.98632
G01 X5.01023 Y22.18398
G01 X5.01185 Y27.30198
G01 X5.00941 Y27.38547
G01 X4.99633 Y27.54752
G01 X4.95879 Y27.70459
G01 X4.90792 Y27.84277
G01 X4.86885 Y27.92179
G01 X4.82458 Y27.99829
G01 X4.76341 Y28.08610
G01 X4.65905 Y28.20502
G01 X0.88801 Y31.97763
G01 X0.70391 Y32.14116
G01 X0.53378 Y32.24362
G01 X0.38453 Y32.30542
G01 X0.34910 Y32.31655
G01 X0.16457 Y32.35696
G01 X-0.05398 Y32.36785
G01 X-23.77996 Y32.36785
G01 X-23.99190 Y32.35643
G01 X-24.09721 Y32.33760
G01 X-24.18260 Y32.31479
G01 X-24.26609 Y32.28655
G01 X-24.39980 Y32.22483
G01 X-24.53739 Y32.14030
G01 X-24.66122 Y32.03496
G01 X-24.72202 Y31.97761
G01 X-31.87565 Y24.82403
G01 X-32.03913 Y24.63998
G01 X-32.14164 Y24.46978
G01 X-32.20347 Y24.32050
G01 X-32.25129 Y24.12774
G01 X-32.26285 Y23.98558
G01 X-32.26592 Y23.88352
G01 X-32.26422 Y20.48137
G01 X-32.26750 Y20.41870
G01 X-32.28802 Y20.24296
G01 X-32.33171 Y20.18368
G01 X-32.43974 Y20.05762
G01 X-35.43163 Y17.06801
G01 X-35.48893 Y17.00723
G01 X-35.59429 Y16.88338
G01 X-35.67885 Y16.74579
G01 X-35.74054 Y16.61208
G01 X-35.76881 Y16.52857
G01 X-35.79160 Y16.44320
G01 X-35.81044 Y16.33786
G01 X-35.81941 Y16.20947
G01 X-35.82050 Y13.10269
G01 X-35.82855 Y12.99129
G01 X-35.84557 Y12.88141
G01 X-35.87735 Y12.75603
G01 X-35.89769 Y12.69822
G01 X-35.94478 Y12.66924
G01 X-36.06114 Y12.61135
G01 X-36.16498 Y12.57145
G01 X-36.28771 Y12.53071
G01 X-36.59266 Y12.40920
G01 X-37.00244 Y12.22535
G01 X-37.24245 Y12.10518
G01 X-37.39706 Y12.01026
G01 X-37.76502 Y11.75235
G01 X-38.14364 Y11.46071
G01 X-38.18997 Y11.41768
G01 X-38.43927 Y11.16048
G01 X-38.73795 Y10.82500
G01 X-38.88877 Y10.64034
G01 X-39.00739 Y10.46536
G01 X-39.23751 Y10.07951
G01 X-39.45123 Y9.68385
G01 X-39.47518 Y9.62706
G01 X-39.60759 Y9.26221
G01 X-39.74277 Y8.83384
G01 X-39.79702 Y8.63257
G01 X-39.81018 Y8.57103
G01 X-39.83835 Y8.39475
G01 X-39.89037 Y7.94855
G01 X-39.92263 Y7.49998
G01 X-39.89037 Y7.05140
G01 X-39.83835 Y6.60517
G01 X-39.79702 Y6.36740
G01 X-39.74277 Y6.16610
G01 X-39.60759 Y5.73773
G01 X-39.47518 Y5.37289
G01 X-39.45044 Y5.31459
G01 X-39.23751 Y4.92046
G01 X-39.00741 Y4.53459
G01 X-38.92598 Y4.41041
G01 X-38.88877 Y4.35961
G01 X-38.73792 Y4.17495
G01 X-38.43927 Y3.83946
G01 X-38.18997 Y3.58226
G01 X-38.12187 Y3.52102
G01 X-37.76500 Y3.24762
G01 X-37.39706 Y2.98971
G01 X-37.29723 Y2.92588
G01 X-37.24247 Y2.89476
G01 X-37.00244 Y2.77459
G01 X-36.59195 Y2.59044
G01 X-36.28807 Y2.46845
G01 X-36.09322 Y2.40205
G01 X-35.99081 Y2.35532
G01 X-35.89586 Y2.30320
G01 X-35.85545 Y2.16352
G01 X-35.83297 Y2.04440
G01 X-35.82281 Y1.93454
G01 X-35.82185 Y0.99398
G01 X-35.81171 Y0.78196
G01 X-35.80729 Y0.74823
G01 X-35.77057 Y0.59088
G01 X-35.75947 Y0.55545
G01 X-35.69767 Y0.40620
G01 X-35.59515 Y0.23599
G01 X-35.46927 Y0.09060
G01 X-34.18599 Y-1.19174
G01 X-34.07562 Y-1.32639
G01 X-34.00821 Y-1.43081
G01 X-33.92338 Y-1.60000
G01 X-34.01080 Y-1.77305
G01 X-34.07849 Y-1.87681
G01 X-34.14738 Y-1.96329
G01 X-34.30847 Y-2.14412
G01 X-34.41045 Y-2.30327
G01 X-34.42764 Y-2.33619
G01 X-34.48944 Y-2.48542
G01 X-34.53729 Y-2.67823
G01 X-34.55185 Y-2.92397
G01 X-34.55022 Y-5.54601
G01 X-34.56084 Y-5.69709
G01 X-34.57057 Y-5.76626
G01 X-34.72924 Y-6.00326
G01 X-34.76153 Y-6.05729
G01 X-34.84679 Y-6.24820
G01 X-34.86628 Y-6.30822
G01 X-34.90438 Y-6.47654
G01 X-34.91537 Y-6.57545
G01 X-34.91949 Y-6.67997
G01 X-34.91537 Y-6.78452
G01 X-34.90438 Y-6.88340
G01 X-34.85850 Y-7.08241
G01 X-34.77865 Y-7.27034
G01 X-34.72942 Y-7.35686
G01 X-34.67130 Y-7.44380
G01 X-34.60653 Y-7.52597
G01 X-34.53950 Y-7.59948
G01 X-34.38540 Y-7.73354
G01 X-34.21035 Y-7.83864
G01 X-34.11967 Y-7.87969
G01 X-34.02155 Y-7.91588
G01 X-33.92086 Y-7.94428
G01 X-33.82340 Y-7.96437
G01 X-33.61997 Y-7.98022
G01 X-33.07999 Y-7.98022
G01 X-32.87654 Y-7.96437
G01 X-32.84050 Y-7.95818
G01 X-32.67840 Y-7.91588
G01 X-32.58028 Y-7.87969
G01 X-32.48957 Y-7.83864
G01 X-32.31454 Y-7.73354
G01 X-32.16044 Y-7.59950
G01 X-32.09341 Y-7.52597
G01 X-32.02864 Y-7.44380
G01 X-31.93832 Y-7.30268
G01 X-31.92122 Y-7.27017
G01 X-31.84147 Y-7.08241
G01 X-31.79557 Y-6.88340
G01 X-31.78457 Y-6.78452
G01 X-31.78045 Y-6.67997
G01 X-31.78457 Y-6.57545
G01 X-31.79557 Y-6.47654
G01 X-31.83369 Y-6.30817
G01 X-31.85317 Y-6.24822
G01 X-31.93814 Y-6.05721
G01 X-31.97024 Y-6.00293
G01 X-32.12948 Y-5.76628
G01 X-32.13697 Y-5.71152
G01 X-32.14972 Y-5.54594
G01 X-32.14954 Y-3.60149
G01 X-32.14553 Y-3.53190
G01 X-32.12595 Y-3.37698
G01 X-32.08223 Y-3.31767
G01 X-31.97400 Y-3.19141
G01 X-31.74825 Y-2.96588
G01 X-31.69633 Y-2.91968
G01 X-31.57296 Y-2.82402
G01 X-31.50011 Y-2.81297
G01 X-31.33456 Y-2.80022
G01 X-30.42229 Y-2.80027
G01 X-30.30733 Y-2.80899
G01 X-30.11073 Y-2.86395
G01 X-30.01254 Y-2.88445
G01 X-29.86098 Y-2.89837
G01 X-29.26999 Y-2.90022
G01 X-29.06796 Y-2.88450
G01 X-28.96928 Y-2.86372
G01 X-28.77264 Y-2.80894
G01 X-28.70639 Y-2.80281
G01 X-27.71242 Y-2.80114
G01 X-27.64714 Y-2.80469
G01 X-27.55613 Y-2.81650
G01 X-27.44625 Y-2.83898
G01 X-27.31458 Y-2.87927
G01 X-27.20467 Y-2.92397
G01 X-27.03294 Y-3.01414
G01 X-27.00406 Y-3.03271
G01 X-26.87333 Y-2.98867
G01 X-26.68514 Y-2.93825
G01 X-26.59558 Y-2.91915
G01 X-26.40744 Y-2.88935
G01 X-26.32690 Y-2.88087
G01 X-26.09997 Y-2.87000
G01 X-24.85009 Y-2.86997
G01 X-24.76477 Y-2.99182
G01 X-24.67511 Y-3.10708
G01 X-24.53734 Y-3.26575
G01 X-24.48024 Y-3.32039
G01 X-24.35489 Y-3.48331
G01 X-24.33645 Y-3.51262
G01 X-24.26119 Y-3.65801
G01 X-24.20920 Y-3.79918
G01 X-24.19642 Y-3.84533
G01 X-24.16221 Y-4.04071
G01 X-24.16221 Y-4.23923
G01 X-24.19642 Y-4.43461
G01 X-24.22914 Y-4.54048
G01 X-24.26119 Y-4.62194
G01 X-24.30569 Y-4.71236
G01 X-24.35489 Y-4.79661
G01 X-24.44725 Y-4.91940
G01 X-24.66358 Y-5.15810
G01 X-24.75789 Y-5.27837
G01 X-24.85009 Y-5.40997
G04 P0 ( dwell for no time -- G64 should not smooth over this point )
G00 Z2.00000 ( retract )

G00 X-27.00406 Y-3.03271 ( rapid move to begin. )
G01 F254.00000
( Mill infeed pass 1/1 )
G01 Z-0.12000
G04 P0 ( dwell for no time -- G64 should not smooth over this point )
G01 F100.00000
G01 X-27.00406 Y-3.03271
G01 X-27.04889 Y-3.22669
G01 X-27.10576 Y-3.41709
G01 X-27.23055 Y-3.73957
G01 X-27.26362 Y-3.84589
G01 X-27.29774 Y-4.04071
G01 X-27.29774 Y-4.23923
G01 X-27.28968 Y-4.29669
G01 X-27.26352 Y-4.43461
G01 X-27.23081 Y-4.54048
G01 X-27.19875 Y-4.62196
G01 X-27.12352 Y-4.76733
G01 X-27.10505 Y-4.79661
G01 X-26.97970 Y-4.95955
G01 X-26.92263 Y-5.01419
G01 X-26.78486 Y-5.17289
G01 X-26.69512 Y-5.28823
G01 X-26.60988 Y-5.40997
G04 P0 ( dwell for no time -- G64 should not smooth over this point )
G00 Z2.00000 ( retract )

G00 X-26.60988 Y-7.94997 ( rapid move to begin. )
G01 F254.00000
( Mill infeed pass 1/1 )
G01 Z-0.12000
G04 P0 ( dwell for no time -- G64 should not smooth over this point )
G01 F100.00000
G01 X-26.60988 Y-7.94997
G01 X-26.70200 Y-8.08149
G01 X-26.77475 Y-8.17527
G01 X-26.85600 Y-8.27113
G01 X-26.98443 Y-8.40572
G01 X-27.10505 Y-8.56333
G01 X-27.12352 Y-8.59262
G01 X-27.19875 Y-8.73798
G01 X-27.23081 Y-8.81946
G01 X-27.26352 Y-8.92533
G01 X-27.28968 Y-9.06325
G01 X-27.29774 Y-9.12071
G01 X-27.29774 Y-9.31923
G01 X-27.26375 Y-9.51344
G01 X-27.23030 Y-9.62025
G01 X-27.10139 Y-9.95599
G01 X-27.02616 Y-10.22210
G01 X-27.00084 Y-10.32848
G04 P0 ( dwell for no time -- G64 should not smooth over this point )
G00 Z2.00000 ( retract )

G00 X-24.85009 Y-7.94997 ( rapid move to begin. )
G01 F254.00000
( Mill infeed pass 1/1 )
G01 Z-0.12000
G04 P0 ( dwell for no time -- G64 should not smooth over this point )
G01 F100.00000
G01 X-24.85009 Y-7.94997
G01 X-24.75789 Y-7.81837
G01 X-24.68514 Y-7.72462
G01 X-24.60396 Y-7.62884
G01 X-24.47549 Y-7.49419
G01 X-24.35489 Y-7.33661
G01 X-24.30569 Y-7.25236
G01 X-24.26119 Y-7.16194
G01 X-24.22914 Y-7.08048
G01 X-24.19642 Y-6.97461
G01 X-24.16221 Y-6.77923
G01 X-24.16221 Y-6.58071
G01 X-24.17026 Y-6.52328
G01 X-24.19642 Y-6.38531
G01 X-24.22914 Y-6.27946
G01 X-24.26119 Y-6.19801
G01 X-24.30569 Y-6.10758
G01 X-24.35489 Y-6.02333
G01 X-24.48024 Y-5.86036
G01 X-24.53734 Y-5.80575
G01 X-24.67511 Y-5.64708
G01 X-24.76477 Y-5.53182
G01 X-24.85009 Y-5.40997
G01 X-26.60988 Y-5.40997
G01 X-26.70200 Y-5.54149
G01 X-26.77475 Y-5.63527
G01 X-26.85600 Y-5.73113
G01 X-26.98443 Y-5.86572
G01 X-27.10505 Y-6.02333
G01 X-27.15425 Y-6.10758
G01 X-27.19875 Y-6.19798
G01 X-27.23081 Y-6.27946
G01 X-27.26352 Y-6.38531
G01 X-27.29774 Y-6.58071
G01 X-27.29774 Y-6.77923
G01 X-27.28968 Y-6.83669
G01 X-27.26352 Y-6.97461
G01 X-27.23081 Y-7.08048
G01 X-27.19875 Y-7.16196
G01 X-27.15425 Y-7.25236
G01 X-27.10505 Y-7.33661
G01 X-26.97970 Y-7.49955
G01 X-26.92263 Y-7.55419
G01 X-26.78486 Y-7.71289
G01 X-26.69512 Y-7.82823
G01 X-26.60988 Y-7.94997
G01 X-24.85009 Y-7.94997
G01 X-24.76477 Y-8.07182
G01 X-24.67511 Y-8.18708
G01 X-24.53734 Y-8.34575
G01 X-24.48024 Y-8.40036
G01 X-24.35489 Y-8.56333
G01 X-24.30569 Y-8.64758
G01 X-24.26119 Y-8.73801
G01 X-24.22914 Y-8.81946
G01 X-24.19642 Y-8.92533
G01 X-24.16221 Y-9.12071
G01 X-24.16221 Y-9.31923
G01 X-24.19642 Y-9.51461
G01 X-24.22914 Y-9.62048
G01 X-24.26119 Y-9.70194
G01 X-24.30569 Y-9.79236
G01 X-24.35489 Y-9.87661
G01 X-24.47549 Y-10.03419
G01 X-24.60396 Y-10.16884
G01 X-24.68514 Y-10.26462
G01 X-24.75789 Y-10.35837
G01 X-24.85009 Y-10.48997
G04 P0 ( dwell for no time -- G64 should not smooth over this point )
G00 Z2.00000 ( retract )

G00 X-24.85009 Y-13.02997 ( rapid move to begin. )
G01 F254.00000
( Mill infeed pass 1/1 )
G01 Z-0.12000
G04 P0 ( dwell for no time -- G64 should not smooth over this point )
G01 F100.00000
G01 X-24.85009 Y-13.02997
G01 X-24.76480 Y-13.15179
G01 X-24.67513 Y-13.26703
G01 X-24.53734 Y-13.42575
G01 X-24.48024 Y-13.48036
G01 X-24.35489 Y-13.64333
G01 X-24.33645 Y-13.67262
G01 X-24.26119 Y-13.81801
G01 X-24.22914 Y-13.89946
G01 X-24.19642 Y-14.00533
G01 X-24.17026 Y-14.14328
G01 X-24.16221 Y-14.20071
G01 X-24.16221 Y-14.39923
G01 X-24.19642 Y-14.59461
G01 X-24.20920 Y-14.64076
G01 X-24.26119 Y-14.78194
G01 X-24.33645 Y-14.92733
G01 X-24.35489 Y-14.95661
G01 X-24.47549 Y-15.11419
G01 X-24.62850 Y-15.25298
G01 X-24.78880 Y-15.35539
G01 X-24.90092 Y-15.40843
G01 X-24.97036 Y-15.43487
G01 X-25.07988 Y-15.46649
G01 X-25.16231 Y-15.48453
G01 X-25.35999 Y-15.50022
G01 X-27.10002 Y-15.50022
G01 X-27.26555 Y-15.51297
G01 X-27.33838 Y-15.52400
G01 X-27.46177 Y-15.61970
G01 X-27.51384 Y-15.66606
G01 X-29.09837 Y-17.25402
G01 X-29.18353 Y-17.35724
G01 X-29.25051 Y-17.59958
G01 X-29.27698 Y-17.66908
G01 X-29.32996 Y-17.78112
G01 X-29.39656 Y-17.88947
G01 X-29.43733 Y-17.94787
G01 X-29.57119 Y-18.09445
G01 X-29.72877 Y-18.21505
G01 X-29.75806 Y-18.23352
G01 X-29.90342 Y-18.30875
G01 X-30.04459 Y-18.36075
G01 X-30.09077 Y-18.37352
G01 X-30.28615 Y-18.40774
G01 X-30.48465 Y-18.40774
G01 X-30.54213 Y-18.39968
G01 X-30.67949 Y-18.37362
G01 X-30.72620 Y-18.36059
G01 X-31.10809 Y-18.21584
G01 X-31.29869 Y-18.15887
G01 X-31.49267 Y-18.11406
G01 X-31.53672 Y-17.98330
G01 X-31.58714 Y-17.79514
G01 X-31.60624 Y-17.70558
G01 X-31.63603 Y-17.51744
G01 X-31.64451 Y-17.43690
G01 X-31.65538 Y-17.20997
G01 X-31.65541 Y-15.96009
G01 X-31.53357 Y-15.87477
G01 X-31.41830 Y-15.78511
G01 X-31.25963 Y-15.64734
G01 X-31.20502 Y-15.59024
G01 X-31.04205 Y-15.46489
G01 X-30.95780 Y-15.41569
G01 X-30.86791 Y-15.37144
G01 X-30.72613 Y-15.31953
G01 X-30.52768 Y-15.26271
G01 X-30.46598 Y-15.21483
G01 X-30.38236 Y-15.13952
G01 X-29.28851 Y-14.04206
G01 X-29.21803 Y-13.95715
G01 X-29.14967 Y-13.85702
G01 X-29.09407 Y-13.75722
G01 X-29.03179 Y-13.61486
G01 X-28.99278 Y-13.49847
G01 X-28.94604 Y-13.30688
G01 X-28.73776 Y-13.18910
G01 X-28.56873 Y-13.13378
G01 X-28.39230 Y-13.08956
G01 X-28.30977 Y-13.07313
G01 X-28.13332 Y-13.04696
G01 X-28.05819 Y-13.03955
G01 X-27.88176 Y-13.03086
G01 X-24.85009 Y-13.02997
G01 X-24.75789 Y-12.89837
G01 X-24.68514 Y-12.80462
G01 X-24.60396 Y-12.70884
G01 X-24.47549 Y-12.57419
G01 X-24.35489 Y-12.41661
G01 X-24.30569 Y-12.33236
G01 X-24.26119 Y-12.24194
G01 X-24.22914 Y-12.16048
G01 X-24.19642 Y-12.05461
G01 X-24.16221 Y-11.85923
G01 X-24.16221 Y-11.66071
G01 X-24.17026 Y-11.60328
G01 X-24.19642 Y-11.46533
G01 X-24.22914 Y-11.35946
G01 X-24.26119 Y-11.27801
G01 X-24.33645 Y-11.13262
G01 X-24.35489 Y-11.10333
G01 X-24.48024 Y-10.94036
G01 X-24.53734 Y-10.88575
G01 X-24.67511 Y-10.72708
G01 X-24.76477 Y-10.61182
G01 X-24.85009 Y-10.48997
G01 X-26.09997 Y-10.48997
G01 X-26.32695 Y-10.47910
G01 X-26.40744 Y-10.47062
G01 X-26.59558 Y-10.44080
G01 X-26.68509 Y-10.42172
G01 X-26.87325 Y-10.37133
G01 X-27.00084 Y-10.32848
G01 X-27.09619 Y-10.38189
G01 X-27.20609 Y-10.43661
G01 X-27.35090 Y-10.49325
G01 X-27.46078 Y-10.52452
G01 X-27.57983 Y-10.54697
G01 X-27.74536 Y-10.55972
G01 X-28.65763 Y-10.55969
G01 X-28.72026 Y-10.55642
G01 X-28.77261 Y-10.55096
G01 X-29.03055 Y-10.48194
G01 X-29.06740 Y-10.47549
G01 X-29.26999 Y-10.45975
G01 X-29.86098 Y-10.46157
G01 X-30.04939 Y-10.48205
G01 X-30.30731 Y-10.55101
G01 X-30.42925 Y-10.55972
G01 X-32.27451 Y-10.55967
G01 X-32.42737 Y-10.54699
G01 X-32.58022 Y-10.48029
G01 X-32.67840 Y-10.44407
G01 X-32.77906 Y-10.41568
G01 X-32.87654 Y-10.39558
G01 X-33.07999 Y-10.37974
G01 X-33.61997 Y-10.37974
G01 X-33.82340 Y-10.39556
G01 X-33.92089 Y-10.41568
G01 X-34.02155 Y-10.44407
G01 X-34.11972 Y-10.48027
G01 X-34.21035 Y-10.52129
G01 X-34.38540 Y-10.62642
G01 X-34.53950 Y-10.76046
G01 X-34.60653 Y-10.83399
G01 X-34.67130 Y-10.91613
G01 X-34.72942 Y-11.00313
G01 X-34.77865 Y-11.08961
G01 X-34.85850 Y-11.27755
G01 X-34.90438 Y-11.47656
G01 X-34.90961 Y-11.51273
G01 X-34.91949 Y-11.67999
G01 X-34.91537 Y-11.78448
G01 X-34.90438 Y-11.88342
G01 X-34.85850 Y-12.08240
G01 X-34.77865 Y-12.27033
G01 X-34.72942 Y-12.35682
G01 X-34.67130 Y-12.44382
G01 X-34.60653 Y-12.52596
G01 X-34.53950 Y-12.59949
G01 X-34.40974 Y-12.71328
G01 X-34.35868 Y-12.75039
G01 X-34.21037 Y-12.83861
G01 X-34.11972 Y-12.87965
G01 X-34.02152 Y-12.91587
G01 X-33.92089 Y-12.94427
G01 X-33.82338 Y-12.96439
G01 X-33.61997 Y-12.98021
G01 X-33.07999 Y-12.98021
G01 X-32.87375 Y-12.96383
G01 X-32.77255 Y-12.96020
G01 X-30.42232 Y-12.96027
G01 X-30.35973 Y-12.96353
G01 X-30.30733 Y-12.96899
G01 X-30.11073 Y-13.02395
G01 X-30.01254 Y-13.04445
G01 X-29.84152 Y-13.05964
G01 X-29.70319 Y-13.06167
G01 X-29.61000 Y-13.06970
G01 X-29.50014 Y-13.08760
G01 X-29.37386 Y-13.12073
G01 X-29.22648 Y-13.17358
G01 X-29.09410 Y-13.23137
G01 X-28.94604 Y-13.30688
G04 P0 ( dwell for no time -- G64 should not smooth over this point )
G00 Z2.00000 ( retract )

G00 X-31.65541 Y-15.96009 ( rapid move to begin. )
G01 F254.00000
( Mill infeed pass 1/1 )
G01 Z-0.12000
G04 P0 ( dwell for no time -- G64 should not smooth over this point )
G01 F100.00000
G01 X-31.65541 Y-15.96009
G01 X-31.78696 Y-15.86791
G01 X-31.90728 Y-15.77358
G01 X-32.14599 Y-15.55722
G01 X-32.26874 Y-15.46489
G01 X-32.35302 Y-15.41569
G01 X-32.44345 Y-15.37119
G01 X-32.52490 Y-15.33914
G01 X-32.63077 Y-15.30642
G01 X-32.82615 Y-15.27221
G01 X-33.02465 Y-15.27221
G01 X-33.22005 Y-15.30642
G01 X-33.32592 Y-15.33914
G01 X-33.40738 Y-15.37119
G01 X-33.49780 Y-15.41569
G01 X-33.58205 Y-15.46489
G01 X-33.73963 Y-15.58549
G01 X-33.87344 Y-15.73207
G01 X-33.91421 Y-15.79044
G01 X-33.98083 Y-15.89883
G01 X-34.03387 Y-16.01092
G01 X-34.06031 Y-16.08036
G01 X-34.10621 Y-16.25130
G01 X-34.12388 Y-16.42047
G01 X-34.12566 Y-16.46997
G01 X-34.12658 Y-20.42041
G01 X-34.13321 Y-20.50979
G01 X-34.14309 Y-20.57621
G01 X-34.29739 Y-20.86892
G01 X-34.36468 Y-21.07626
G01 X-34.39363 Y-21.26437
G01 X-34.39828 Y-21.34619
G01 X-34.39571 Y-21.46833
G01 X-34.37679 Y-21.61703
G01 X-34.36752 Y-21.67049
G01 X-34.30532 Y-21.86503
G01 X-34.27319 Y-21.93488
G01 X-34.21294 Y-22.04700
G01 X-34.16861 Y-22.11591
G01 X-34.09500 Y-22.21342
G01 X-33.74791 Y-22.62708
G01 X-33.60600 Y-22.77387
G01 X-33.44134 Y-22.89470
G01 X-33.37428 Y-22.93231
G01 X-33.25965 Y-22.98761
G01 X-33.18327 Y-23.01730
G01 X-33.06633 Y-23.05261
G01 X-32.86531 Y-23.08827
G01 X-32.66110 Y-23.08923
G01 X-32.58475 Y-23.08024
G01 X-32.45950 Y-23.05761
G01 X-32.38025 Y-23.03673
G01 X-32.26491 Y-22.99655
G01 X-32.08132 Y-22.90727
G01 X-31.91553 Y-22.78799
G01 X-31.85904 Y-22.73587
G01 X-31.77103 Y-22.64392
G01 X-31.68195 Y-22.52970
G01 X-31.64944 Y-22.48014
G01 X-31.55340 Y-22.30001
G01 X-31.48940 Y-22.10608
G01 X-31.47436 Y-22.03069
G01 X-31.45719 Y-21.90458
G01 X-31.45254 Y-21.82279
G01 X-31.45511 Y-21.70064
G01 X-31.48330 Y-21.49841
G01 X-31.54538 Y-21.30420
G01 X-31.57771 Y-21.23410
G01 X-31.70951 Y-20.99061
G01 X-31.71238 Y-20.96521
G01 X-31.72513 Y-20.79978
G01 X-31.72513 Y-18.85533
G01 X-31.72066 Y-18.75711
G01 X-31.70885 Y-18.66608
G01 X-31.68637 Y-18.55620
G01 X-31.64606 Y-18.42440
G01 X-31.60131 Y-18.31449
G01 X-31.51119 Y-18.14289
G01 X-31.49267 Y-18.11406
G04 P0 ( dwell for no time -- G64 should not smooth over this point )
G00 Z2.00000 ( retract )

G00 X-26.60988 Y-20.64997 ( rapid move to begin. )
G01 F254.00000
( Mill infeed pass 1/1 )
G01 Z-0.12000
G04 P0 ( dwell for no time -- G64 should not smooth over this point )
G01 F100.00000
G01 X-26.60988 Y-20.64997
G01 X-26.70200 Y-20.78149
G01 X-26.77475 Y-20.87527
G01 X-26.85600 Y-20.97113
G01 X-26.98443 Y-21.10572
G01 X-27.10505 Y-21.26333
G01 X-27.12352 Y-21.29262
G01 X-27.19875 Y-21.43798
G01 X-27.25075 Y-21.57915
G01 X-27.26352 Y-21.62533
G01 X-27.28968 Y-21.76325
G01 X-27.29776 Y-21.82589
G01 X-27.29774 Y-22.01923
G01 X-27.26352 Y-22.21461
G01 X-27.23081 Y-22.32048
G01 X-27.19875 Y-22.40196
G01 X-27.15425 Y-22.49236
G01 X-27.10505 Y-22.57661
G01 X-27.01270 Y-22.69940
G01 X-26.97970 Y-22.73955
G01 X-26.92263 Y-22.79419
G01 X-26.78486 Y-22.95289
G01 X-26.69512 Y-23.06823
G01 X-26.60988 Y-23.18997
G04 P0 ( dwell for no time -- G64 should not smooth over this point )
G00 Z2.00000 ( retract )

G00 X-24.85009 Y-23.18997 ( rapid move to begin. )
G01 F254.00000
( Mill infeed pass 1/1 )
G01 Z-0.12000
G04 P0 ( dwell for no time -- G64 should not smooth over this point )
G01 F100.00000
G01 X-24.85009 Y-23.18997
G01 X-24.76477 Y-23.31182
G01 X-24.67511 Y-23.42708
G01 X-24.53734 Y-23.58575
G01 X-24.48024 Y-23.64036
G01 X-24.35489 Y-23.80333
G01 X-24.33645 Y-23.83262
G01 X-24.26144 Y-23.97747
G01 X-24.22934 Y-24.05957
G01 X-24.15271 Y-24.31768
G01 X-24.10478 Y-24.37945
G01 X-24.02952 Y-24.46299
G01 X-21.70562 Y-26.78565
G01 X-21.60250 Y-26.90360
G01 X-21.54037 Y-26.99266
G01 X-21.49610 Y-27.06916
G01 X-21.45706 Y-27.14815
G01 X-21.40615 Y-27.28636
G01 X-21.36864 Y-27.44338
G01 X-21.35553 Y-27.60548
G01 X-21.35309 Y-27.68897
G01 X-21.35475 Y-31.41000
G01 X-21.37042 Y-31.60763
G01 X-21.38845 Y-31.69008
G01 X-21.42007 Y-31.79958
G01 X-21.44652 Y-31.86905
G01 X-21.49955 Y-31.98114
G01 X-21.56617 Y-32.08952
G01 X-21.60692 Y-32.14787
G01 X-21.74075 Y-32.29445
G01 X-21.89833 Y-32.41507
G01 X-21.98258 Y-32.46425
G01 X-22.07298 Y-32.50875
G01 X-22.21420 Y-32.56077
G01 X-22.26033 Y-32.57352
G01 X-22.45571 Y-32.60773
G01 X-22.65423 Y-32.60773
G01 X-22.84961 Y-32.57352
G01 X-22.89574 Y-32.56077
G01 X-23.03696 Y-32.50875
G01 X-23.12736 Y-32.46425
G01 X-23.21161 Y-32.41507
G01 X-23.36922 Y-32.29445
G01 X-23.50303 Y-32.14789
G01 X-23.54382 Y-32.08947
G01 X-23.61039 Y-31.98117
G01 X-23.66343 Y-31.86905
G01 X-23.68987 Y-31.79958
G01 X-23.72149 Y-31.69008
G01 X-23.73953 Y-31.60763
G01 X-23.75522 Y-31.40997
G01 X-23.75522 Y-28.38036
G01 X-23.76797 Y-28.21483
G01 X-23.77902 Y-28.14198
G01 X-23.88870 Y-28.00327
G01 X-23.93071 Y-27.95664
G01 X-26.14402 Y-25.74696
G01 X-26.24722 Y-25.66182
G01 X-26.48951 Y-25.59489
G01 X-26.55903 Y-25.56838
G01 X-26.67114 Y-25.51537
G01 X-26.83149 Y-25.41295
G01 X-26.98445 Y-25.27419
G01 X-27.10505 Y-25.11661
G01 X-27.15425 Y-25.03236
G01 X-27.19875 Y-24.94196
G01 X-27.23081 Y-24.86048
G01 X-27.26352 Y-24.75461
G01 X-27.29774 Y-24.55923
G01 X-27.29774 Y-24.36071
G01 X-27.26352 Y-24.16533
G01 X-27.23081 Y-24.05946
G01 X-27.19875 Y-23.97798
G01 X-27.15425 Y-23.88758
G01 X-27.10505 Y-23.80333
G01 X-26.98443 Y-23.64572
G01 X-26.85600 Y-23.51113
G01 X-26.77475 Y-23.41527
G01 X-26.70200 Y-23.32149
G01 X-26.60988 Y-23.18997
G01 X-24.85009 Y-23.18997
G01 X-24.75789 Y-23.05837
G01 X-24.68514 Y-22.96462
G01 X-24.60396 Y-22.86884
G01 X-24.47549 Y-22.73419
G01 X-24.35489 Y-22.57661
G01 X-24.33645 Y-22.54733
G01 X-24.26119 Y-22.40194
G01 X-24.20920 Y-22.26076
G01 X-24.19642 Y-22.21461
G01 X-24.16221 Y-22.01923
G01 X-24.16221 Y-21.82071
G01 X-24.19642 Y-21.62533
G01 X-24.22914 Y-21.51946
G01 X-24.26119 Y-21.43801
G01 X-24.30569 Y-21.34758
G01 X-24.35489 Y-21.26333
G01 X-24.44725 Y-21.14055
G01 X-24.48024 Y-21.10036
G01 X-24.53734 Y-21.04575
G01 X-24.67511 Y-20.88708
G01 X-24.76477 Y-20.77182
G01 X-24.85009 Y-20.64997
G01 X-26.60988 Y-20.64997
G01 X-26.69512 Y-20.52823
G01 X-26.78486 Y-20.41289
G01 X-26.92263 Y-20.25419
G01 X-26.97970 Y-20.19955
G01 X-27.01270 Y-20.15940
G01 X-27.10505 Y-20.03661
G01 X-27.15425 Y-19.95236
G01 X-27.19875 Y-19.86196
G01 X-27.25075 Y-19.72079
G01 X-27.26352 Y-19.67461
G01 X-27.29774 Y-19.47926
G01 X-27.29774 Y-19.28071
G01 X-27.26352 Y-19.08533
G01 X-27.23081 Y-18.97946
G01 X-27.19875 Y-18.89798
G01 X-27.15425 Y-18.80758
G01 X-27.10505 Y-18.72333
G01 X-26.98445 Y-18.56575
G01 X-26.83147 Y-18.42699
G01 X-26.67114 Y-18.32455
G01 X-26.55903 Y-18.27152
G01 X-26.48956 Y-18.24507
G01 X-26.31867 Y-18.19918
G01 X-26.14953 Y-18.18150
G01 X-26.09997 Y-18.17975
G01 X-25.32852 Y-18.18056
G01 X-25.16231 Y-18.19542
G01 X-25.07988 Y-18.21345
G01 X-24.97036 Y-18.24507
G01 X-24.90092 Y-18.27152
G01 X-24.78880 Y-18.32455
G01 X-24.62850 Y-18.42696
G01 X-24.47549 Y-18.56575
G01 X-24.35489 Y-18.72333
G01 X-24.33645 Y-18.75262
G01 X-24.26119 Y-18.89801
G01 X-24.20920 Y-19.03918
G01 X-24.19642 Y-19.08533
G01 X-24.16221 Y-19.28071
G01 X-24.16221 Y-19.47923
G01 X-24.17026 Y-19.53666
G01 X-24.19642 Y-19.67461
G01 X-24.22914 Y-19.78048
G01 X-24.26119 Y-19.86194
G01 X-24.33645 Y-20.00733
G01 X-24.35489 Y-20.03661
G01 X-24.47549 Y-20.19419
G01 X-24.60396 Y-20.32884
G01 X-24.68514 Y-20.42462
G01 X-24.75789 Y-20.51837
G01 X-24.85009 Y-20.64997
G04 P0 ( dwell for no time -- G64 should not smooth over this point )
G00 Z2.00000 ( retract )

G00 X-14.77188 Y-20.90400 ( rapid move to begin. )
G01 F254.00000
( Mill infeed pass 1/1 )
G01 Z-0.12000
G04 P0 ( dwell for no time -- G64 should not smooth over this point )
G01 F100.00000
G01 X-14.77188 Y-20.90400
G01 X-14.85039 Y-21.65083
G01 X-15.08244 Y-22.36503
G01 X-15.45791 Y-23.01537
G01 X-15.96039 Y-23.57344
G01 X-16.56794 Y-24.01484
G01 X-17.25397 Y-24.32027
G01 X-17.98851 Y-24.47641
G01 X-18.73946 Y-24.47641
G01 X-19.47400 Y-24.32027
G01 X-20.16003 Y-24.01484
G01 X-20.76757 Y-23.57344
G01 X-21.27006 Y-23.01537
G01 X-21.64552 Y-22.36503
G01 X-21.87760 Y-21.65083
G01 X-21.95609 Y-20.90400
G01 X-21.87760 Y-20.15714
G01 X-21.64552 Y-19.44294
G01 X-21.27006 Y-18.79260
G01 X-20.76757 Y-18.23453
G01 X-20.16003 Y-17.79313
G01 X-19.47400 Y-17.48770
G01 X-18.73946 Y-17.33156
G01 X-17.98851 Y-17.33156
G01 X-17.25397 Y-17.48770
G01 X-16.56794 Y-17.79313
G01 X-15.96039 Y-18.23453
G01 X-15.45791 Y-18.79260
G01 X-15.08244 Y-19.44294
G01 X-14.85039 Y-20.15714
G01 X-14.77188 Y-20.90400
G01 X-14.76647 Y-20.90400
G01 X-14.78615 Y-20.52792
G01 X-14.84506 Y-20.15602
G01 X-14.94254 Y-19.79229
G01 X-15.07747 Y-19.44075
G01 X-15.24843 Y-19.10522
G01 X-15.45351 Y-18.78942
G01 X-15.69049 Y-18.49676
G01 X-15.82224 Y-18.36224
G01 X-15.95676 Y-18.23049
G01 X-16.24940 Y-17.99354
G01 X-16.56522 Y-17.78843
G01 X-16.90075 Y-17.61747
G01 X-17.25229 Y-17.48254
G01 X-17.61602 Y-17.38506
G01 X-17.98792 Y-17.32615
G01 X-18.36397 Y-17.30647
G01 X-18.74004 Y-17.32615
G01 X-19.11195 Y-17.38508
G01 X-19.47568 Y-17.48254
G01 X-19.82724 Y-17.61747
G01 X-20.16275 Y-17.78843
G01 X-20.47855 Y-17.99351
G01 X-20.77121 Y-18.23049
G01 X-20.90572 Y-18.36224
G01 X-21.03747 Y-18.49676
G01 X-21.27446 Y-18.78942
G01 X-21.47954 Y-19.10522
G01 X-21.65050 Y-19.44073
G01 X-21.78545 Y-19.79229
G01 X-21.88291 Y-20.15602
G01 X-21.94182 Y-20.52795
G01 X-21.96153 Y-20.90400
G01 X-21.94182 Y-21.28002
G01 X-21.88291 Y-21.65195
G01 X-21.78545 Y-22.01568
G01 X-21.65050 Y-22.36724
G01 X-21.47954 Y-22.70275
G01 X-21.27446 Y-23.01857
G01 X-21.03747 Y-23.31121
G01 X-20.90572 Y-23.44572
G01 X-20.77121 Y-23.57747
G01 X-20.47857 Y-23.81446
G01 X-20.16275 Y-24.01954
G01 X-19.82724 Y-24.19050
G01 X-19.47568 Y-24.32545
G01 X-19.11195 Y-24.42291
G01 X-18.74002 Y-24.48182
G01 X-18.36397 Y-24.50153
G01 X-17.98795 Y-24.48182
G01 X-17.61602 Y-24.42291
G01 X-17.25229 Y-24.32545
G01 X-16.90073 Y-24.19050
G01 X-16.56522 Y-24.01954
G01 X-16.24942 Y-23.81446
G01 X-15.95676 Y-23.57747
G01 X-15.82224 Y-23.44572
G01 X-15.69049 Y-23.31121
G01 X-15.45351 Y-23.01855
G01 X-15.24843 Y-22.70275
G01 X-15.07747 Y-22.36724
G01 X-14.94254 Y-22.01570
G01 X-14.84508 Y-21.65195
G01 X-14.78615 Y-21.28002
G01 X-14.76647 Y-20.90400
G04 P0 ( dwell for no time -- G64 should not smooth over this point )
G00 Z2.00000 ( retract )

G00 X-11.76406 Y-18.27271 ( rapid move to begin. )
G01 F254.00000
( Mill infeed pass 1/1 )
G01 Z-0.12000
G04 P0 ( dwell for no time -- G64 should not smooth over this point )
G01 F100.00000
G01 X-11.76406 Y-18.27271
G01 X-11.80889 Y-18.46669
G01 X-11.86576 Y-18.65709
G01 X-12.01059 Y-19.03918
G01 X-12.02362 Y-19.08589
G01 X-12.05774 Y-19.28071
G01 X-12.05774 Y-19.47923
G01 X-12.02352 Y-19.67461
G01 X-11.99081 Y-19.78048
G01 X-11.95875 Y-19.86196
G01 X-11.91425 Y-19.95236
G01 X-11.86505 Y-20.03661
G01 X-11.74445 Y-20.19419
G01 X-11.59787 Y-20.32803
G01 X-11.53947 Y-20.36882
G01 X-11.43114 Y-20.43539
G01 X-11.31905 Y-20.48843
G01 X-11.24958 Y-20.51487
G01 X-11.07872 Y-20.56077
G01 X-10.90955 Y-20.57844
G01 X-10.11999 Y-20.58022
G01 X-9.92231 Y-20.56453
G01 X-9.83988 Y-20.54649
G01 X-9.73036 Y-20.51487
G01 X-9.66092 Y-20.48843
G01 X-9.54880 Y-20.43539
G01 X-9.38850 Y-20.33298
G01 X-9.23549 Y-20.19419
G01 X-9.11489 Y-20.03661
G01 X-9.06569 Y-19.95236
G01 X-9.02119 Y-19.86194
G01 X-8.98914 Y-19.78048
G01 X-8.95642 Y-19.67461
G01 X-8.92221 Y-19.47923
G01 X-8.92221 Y-19.28071
G01 X-8.93026 Y-19.22328
G01 X-8.95619 Y-19.08653
G01 X-8.96948 Y-19.03926
G01 X-9.11857 Y-18.64396
G01 X-9.19381 Y-18.37771
G01 X-9.21913 Y-18.27149
G04 P0 ( dwell for no time -- G64 should not smooth over this point )
G00 Z2.00000 ( retract )

G00 X-3.47447 Y-25.40546 ( rapid move to begin. )
G01 F254.00000
( Mill infeed pass 1/1 )
G01 Z-0.12000
G04 P0 ( dwell for no time -- G64 should not smooth over this point )
G01 F100.00000
G01 X-3.47447 Y-25.40546
G01 X-3.64625 Y-25.37808
G01 X-3.76141 Y-25.34966
G01 X-3.98846 Y-25.27181
G01 X-4.21343 Y-25.17704
G01 X-4.43410 Y-25.11933
G01 X-4.58061 Y-25.09373
G01 X-4.67711 Y-25.08382
G01 X-4.92282 Y-25.08382
G01 X-5.01934 Y-25.09375
G01 X-5.16583 Y-25.11933
G01 X-5.38655 Y-25.17706
G01 X-5.62800 Y-25.28194
G01 X-5.72686 Y-25.33747
G01 X-5.83702 Y-25.41077
G01 X-5.98084 Y-25.52141
G01 X-6.02966 Y-25.56330
G01 X-6.19575 Y-25.74440
G01 X-6.23745 Y-25.79660
G01 X-6.33664 Y-25.94554
G01 X-6.43158 Y-26.11900
G01 X-6.45803 Y-26.17635
G01 X-6.53224 Y-26.39459
G01 X-6.55361 Y-26.47503
G01 X-6.58193 Y-26.63505
G01 X-6.59940 Y-26.84851
G01 X-6.60022 Y-28.87995
G01 X-6.58193 Y-29.12488
G01 X-6.56654 Y-29.22331
G01 X-6.53227 Y-29.36535
G01 X-6.45292 Y-29.59796
G01 X-6.43158 Y-29.64094
G01 X-6.33661 Y-29.81444
G01 X-6.23745 Y-29.96331
G01 X-6.19575 Y-30.01556
G01 X-6.02968 Y-30.19664
G01 X-5.98084 Y-30.23855
G01 X-5.83702 Y-30.34914
G01 X-5.72686 Y-30.42249
G01 X-5.62803 Y-30.47799
G01 X-5.40306 Y-30.57693
G01 X-5.32613 Y-30.60116
G01 X-5.16583 Y-30.64060
G01 X-5.01937 Y-30.66621
G01 X-4.92282 Y-30.67611
G01 X-4.67711 Y-30.67611
G01 X-4.58059 Y-30.66621
G01 X-4.43410 Y-30.64060
G01 X-4.21343 Y-30.58290
G01 X-3.97192 Y-30.47799
G01 X-3.87307 Y-30.42249
G01 X-3.76291 Y-30.34916
G01 X-3.61909 Y-30.23855
G01 X-3.57027 Y-30.19664
G01 X-3.40418 Y-30.01554
G01 X-3.32583 Y-29.91213
G01 X-3.26332 Y-29.81444
G01 X-3.14701 Y-29.59796
G01 X-3.06768 Y-29.36535
G01 X-3.04635 Y-29.28490
G01 X-3.01803 Y-29.12488
G01 X-3.00055 Y-28.91142
G01 X-2.99941 Y-27.58712
G01 X-2.99471 Y-27.51196
G01 X-2.98094 Y-27.40208
G01 X-2.95379 Y-27.28003
G01 X-2.91869 Y-27.17013
G01 X-2.85359 Y-27.01844
G01 X-2.79283 Y-26.90571
G04 P0 ( dwell for no time -- G64 should not smooth over this point )
G00 Z2.00000 ( retract )

G00 X-2.36047 Y-23.44118 ( rapid move to begin. )
G01 F254.00000
( Mill infeed pass 1/1 )
G01 Z-0.12000
G04 P0 ( dwell for no time -- G64 should not smooth over this point )
G01 F100.00000
G01 X-2.36047 Y-23.44118
G01 X-2.56339 Y-23.31189
G01 X-2.72854 Y-23.23003
G01 X-2.83840 Y-23.18824
G01 X-2.96690 Y-23.15220
G01 X-3.07675 Y-23.13234
G01 X-3.15981 Y-23.12302
G01 X-3.23743 Y-23.12022
G01 X-5.98051 Y-23.12022
G01 X-6.14601 Y-23.13297
G01 X-6.21883 Y-23.14400
G01 X-6.35762 Y-23.25375
G01 X-6.40420 Y-23.29574
G01 X-8.37786 Y-25.27168
G01 X-8.53572 Y-25.41341
G01 X-8.62353 Y-25.47457
G01 X-8.70003 Y-25.51882
G01 X-8.77903 Y-25.55789
G01 X-8.91728 Y-25.60881
G01 X-9.00260 Y-25.63160
G01 X-9.10798 Y-25.65044
G01 X-9.31977 Y-25.66182
G01 X-10.85997 Y-25.66022
G01 X-11.05766 Y-25.64453
G01 X-11.14011 Y-25.62649
G01 X-11.24958 Y-25.59484
G01 X-11.37656 Y-25.54300
G01 X-11.43114 Y-25.51537
G01 X-11.53947 Y-25.44882
G01 X-11.59789 Y-25.40803
G01 X-11.74445 Y-25.27419
G01 X-11.77270 Y-25.23940
G01 X-11.88352 Y-25.08733
G01 X-11.95875 Y-24.94196
G01 X-11.99081 Y-24.86048
G01 X-12.02352 Y-24.75461
G01 X-12.05774 Y-24.55923
G01 X-12.05774 Y-24.36071
G01 X-12.04968 Y-24.30325
G01 X-12.02352 Y-24.16533
G01 X-12.01075 Y-24.11915
G01 X-11.95875 Y-23.97798
G01 X-11.88352 Y-23.83262
G01 X-11.77270 Y-23.68055
G01 X-11.74445 Y-23.64575
G01 X-11.59147 Y-23.50699
G01 X-11.43114 Y-23.40455
G01 X-11.31905 Y-23.35152
G01 X-11.24958 Y-23.32507
G01 X-11.14011 Y-23.29345
G01 X-11.05764 Y-23.27542
G01 X-10.86000 Y-23.25975
G01 X-10.01126 Y-23.25972
G01 X-9.84570 Y-23.24697
G01 X-9.77285 Y-23.23592
G01 X-9.64954 Y-23.14031
G01 X-9.59223 Y-23.08888
G01 X-7.55312 Y-21.05101
G01 X-7.41802 Y-20.93755
G01 X-7.25889 Y-20.84390
G01 X-7.10984 Y-20.78218
G01 X-6.98909 Y-20.74835
G01 X-6.91749 Y-20.73364
G01 X-6.75536 Y-20.72053
G01 X-6.67187 Y-20.71809
G01 X8.92998 Y-20.71975
G01 X8.97956 Y-20.72150
G01 X9.14865 Y-20.73918
G01 X9.31959 Y-20.78507
G01 X9.38903 Y-20.81152
G01 X9.50115 Y-20.86455
G01 X9.66145 Y-20.96696
G01 X9.81446 Y-21.10575
G01 X9.93506 Y-21.26333
G01 X9.95350 Y-21.29262
G01 X10.02876 Y-21.43801
G01 X10.06081 Y-21.51946
G01 X10.09353 Y-21.62533
G01 X10.12774 Y-21.82071
G01 X10.12774 Y-22.01923
G01 X10.09353 Y-22.21461
G01 X10.06081 Y-22.32048
G01 X10.02876 Y-22.40194
G01 X9.98426 Y-22.49236
G01 X9.93506 Y-22.57664
G01 X9.78177 Y-22.79048
G01 X9.76818 Y-22.88225
G01 X9.76020 Y-23.01314
G01 X9.76279 Y-23.42246
G01 X9.78096 Y-23.58982
G01 X9.95350 Y-23.83262
G01 X10.02876 Y-23.97801
G01 X10.08075 Y-24.11918
G01 X10.09353 Y-24.16533
G01 X10.12774 Y-24.36071
G01 X10.12774 Y-24.55923
G01 X10.09353 Y-24.75461
G01 X10.06081 Y-24.86048
G01 X10.02876 Y-24.94194
G01 X9.95350 Y-25.08733
G01 X9.84270 Y-25.23940
G01 X9.81446 Y-25.27419
G01 X9.66787 Y-25.40803
G01 X9.60946 Y-25.44882
G01 X9.50115 Y-25.51537
G01 X9.44659 Y-25.54298
G01 X9.31959 Y-25.59484
G01 X9.14870 Y-25.64077
G01 X8.96148 Y-25.65938
G01 X8.18998 Y-25.66022
G01 X7.99229 Y-25.64453
G01 X7.90984 Y-25.62649
G01 X7.80037 Y-25.59484
G01 X7.73090 Y-25.56843
G01 X7.61881 Y-25.51537
G01 X7.51048 Y-25.44882
G01 X7.45206 Y-25.40803
G01 X7.30550 Y-25.27419
G01 X7.18490 Y-25.11661
G01 X7.13570 Y-25.03236
G01 X7.09120 Y-24.94196
G01 X7.03920 Y-24.80079
G01 X7.02643 Y-24.75461
G01 X6.99221 Y-24.55923
G01 X6.99221 Y-24.36071
G01 X7.02633 Y-24.16589
G01 X7.05940 Y-24.05957
G01 X7.18419 Y-23.73709
G01 X7.24118 Y-23.54633
G01 X7.22790 Y-23.46820
G01 X7.18729 Y-23.29264
G01 X7.08528 Y-23.24397
G01 X6.97537 Y-23.19927
G01 X6.84367 Y-23.15898
G01 X6.73377 Y-23.13650
G01 X6.64279 Y-23.12469
G01 X6.54461 Y-23.12022
G01 X4.05569 Y-23.12022
G01 X3.89016 Y-23.13297
G01 X3.77104 Y-23.15545
G01 X3.66116 Y-23.18672
G01 X3.51640 Y-23.24336
G01 X3.40652 Y-23.29807
G01 X3.20944 Y-23.42157
G01 X3.09956 Y-23.50452
G01 X2.98341 Y-23.59998
G01 X2.91808 Y-23.59995
G01 X2.74244 Y-23.54156
G01 X2.42885 Y-23.45754
G01 X2.29855 Y-23.42975
G01 X1.98496 Y-23.38006
G01 X1.86908 Y-23.36787
G01 X1.55552 Y-23.35144
G01 X-1.50000 Y-23.34999
G01 X-1.86908 Y-23.36787
G01 X-1.98496 Y-23.38006
G01 X-2.36047 Y-23.44118
G01 X-2.42387 Y-23.57895
G01 X-2.48336 Y-23.69566
G01 X-2.63896 Y-23.93897
G01 X-2.71277 Y-24.03767
G01 X-2.85826 Y-24.19932
G01 X-2.96941 Y-24.34333
G01 X-3.07459 Y-24.50729
G01 X-3.09799 Y-24.55194
G01 X-3.19692 Y-24.77689
G01 X-3.25209 Y-24.95888
G01 X-3.28717 Y-25.04816
G01 X-3.37129 Y-25.22319
G01 X-3.47447 Y-25.40546
G01 X-3.38529 Y-25.62042
G01 X-3.31658 Y-25.75527
G01 X-3.22377 Y-25.97579
G01 X-3.15478 Y-26.11117
G01 X-3.09354 Y-26.26109
G01 X-2.99672 Y-26.45893
G01 X-2.89621 Y-26.69637
G01 X-2.79283 Y-26.90571
G01 X-2.67622 Y-26.92067
G01 X-2.48564 Y-26.95270
G01 X-2.35786 Y-26.98471
G01 X-1.98534 Y-27.11226
G01 X-1.90490 Y-27.13360
G01 X-1.74488 Y-27.16192
G01 X-1.50000 Y-27.18024
G01 X1.53144 Y-27.17940
G01 X1.74488 Y-27.16192
G01 X1.84330 Y-27.14655
G01 X1.98534 Y-27.11226
G01 X2.21798 Y-27.03294
G01 X2.46172 Y-26.90424
G01 X2.73017 Y-26.79347
G01 X2.87500 Y-26.87223
G01 X2.97513 Y-26.94059
G01 X3.10119 Y-27.04861
G01 X6.45787 Y-30.40543
G01 X6.58599 Y-30.51515
G01 X6.75620 Y-30.61767
G01 X6.90065 Y-30.67754
G01 X7.01180 Y-30.71277
G01 X7.07514 Y-30.73725
G01 X7.27768 Y-30.82204
G01 X7.32447 Y-30.98035
G01 X7.34695 Y-31.09948
G01 X7.35714 Y-31.20934
G01 X7.35973 Y-32.20674
G01 X7.35061 Y-32.32864
G01 X7.29600 Y-32.52521
G01 X7.27550 Y-32.62340
G01 X7.26158 Y-32.77497
G01 X7.26158 Y-33.41698
G01 X7.28177 Y-33.60544
G01 X7.32406 Y-33.76755
G01 X7.36026 Y-33.86567
G01 X7.40131 Y-33.95635
G01 X7.50641 Y-34.13140
G01 X7.64047 Y-34.28550
G01 X7.66666 Y-34.31103
G01 X7.79615 Y-34.41730
G01 X7.88309 Y-34.47542
G01 X7.96961 Y-34.52465
G01 X8.15754 Y-34.60450
G01 X8.35655 Y-34.65038
G01 X8.45543 Y-34.66137
G01 X8.55998 Y-34.66549
G01 X8.66452 Y-34.66137
G01 X8.76341 Y-34.65038
G01 X8.96239 Y-34.60450
G01 X9.15035 Y-34.52465
G01 X9.18268 Y-34.50763
G01 X9.32381 Y-34.41730
G01 X9.40595 Y-34.35253
G01 X9.47948 Y-34.28550
G01 X9.61354 Y-34.13140
G01 X9.71865 Y-33.95635
G01 X9.75970 Y-33.86567
G01 X9.79589 Y-33.76757
G01 X9.82429 Y-33.66684
G01 X9.84438 Y-33.56940
G01 X9.86023 Y-33.36597
G01 X9.85837 Y-32.77497
G01 X9.83790 Y-32.58657
G01 X9.76892 Y-32.32854
G01 X9.76020 Y-32.20674
G01 X9.76020 Y-30.44132
G01 X9.76904 Y-30.32222
G01 X9.82929 Y-30.11084
G01 X9.84319 Y-30.04942
G01 X9.86338 Y-29.86098
G01 X9.86523 Y-29.26999
G01 X9.84938 Y-29.06654
G01 X9.82929 Y-28.96911
G01 X9.80089 Y-28.86840
G01 X9.76470 Y-28.77028
G01 X9.72365 Y-28.67957
G01 X9.61852 Y-28.50454
G01 X9.48451 Y-28.35046
G01 X9.41095 Y-28.28341
G01 X9.32881 Y-28.21864
G01 X9.18766 Y-28.12832
G01 X9.15535 Y-28.11130
G01 X8.96739 Y-28.03147
G01 X8.76841 Y-27.98557
G01 X8.66953 Y-27.97457
G01 X8.56498 Y-27.97045
G01 X8.39770 Y-27.98034
G01 X8.36155 Y-27.98557
G01 X8.16191 Y-28.03164
G01 X8.02820 Y-28.08788
G01 X7.85017 Y-28.15026
G01 X7.73359 Y-28.18615
G01 X7.62063 Y-28.12341
G01 X7.52051 Y-28.05506
G01 X7.39445 Y-27.94704
G01 X4.41173 Y-24.96424
G01 X4.33934 Y-24.88014
G01 X4.22653 Y-24.68270
G01 X4.18193 Y-24.61461
G01 X4.05082 Y-24.45913
G01 X3.89468 Y-24.32746
G01 X3.59725 Y-24.14077
G01 X3.48755 Y-24.06376
G01 X3.36758 Y-23.96759
G01 X3.23378 Y-23.85093
G01 X2.98341 Y-23.59998
G04 P0 ( dwell for no time -- G64 should not smooth over this point )
G00 Z2.00000 ( retract )

G00 X2.20998 Y-12.63985 ( rapid move to begin. )
G01 F254.00000
( Mill infeed pass 1/1 )
G01 Z-0.12000
G04 P0 ( dwell for no time -- G64 should not smooth over this point )
G01 F100.00000
G01 X2.20998 Y-12.63985
G01 X2.08824 Y-12.72510
G01 X1.97282 Y-12.81488
G01 X1.81420 Y-12.95263
G01 X1.75956 Y-13.00970
G01 X1.59662 Y-13.13505
G01 X1.56733 Y-13.15349
G01 X1.42197 Y-13.22875
G01 X1.28079 Y-13.28075
G01 X1.23462 Y-13.29352
G01 X1.03924 Y-13.32774
G01 X0.84071 Y-13.32774
G01 X0.64534 Y-13.29352
G01 X0.59916 Y-13.28075
G01 X0.45799 Y-13.22875
G01 X0.31262 Y-13.15349
G01 X0.06952 Y-12.98169
G01 X-0.01643 Y-12.96850
G01 X-0.23244 Y-12.95187
G01 X-0.28735 Y-12.94303
G01 X-0.46055 Y-12.89942
G01 X-0.60978 Y-12.83762
G01 X-0.64295 Y-12.82027
G01 X-0.80178 Y-12.71847
G01 X-0.96406 Y-12.57158
G01 X-2.88519 Y-10.64819
G01 X-2.92631 Y-10.61070
G01 X-3.03355 Y-10.52248
G01 X-3.28752 Y-10.45588
G01 X-3.38567 Y-10.41969
G01 X-3.47635 Y-10.37864
G01 X-3.65140 Y-10.27354
G01 X-3.80550 Y-10.13948
G01 X-3.87253 Y-10.06597
G01 X-3.93730 Y-9.98380
G01 X-3.99542 Y-9.89686
G01 X-4.04465 Y-9.81034
G01 X-4.12450 Y-9.62241
G01 X-4.17038 Y-9.42340
G01 X-4.18137 Y-9.32449
G01 X-4.18549 Y-9.21997
G01 X-4.18137 Y-9.11545
G01 X-4.17038 Y-9.01654
G01 X-4.12450 Y-8.81756
G01 X-4.04465 Y-8.62960
G01 X-3.99542 Y-8.54314
G01 X-3.93730 Y-8.45614
G01 X-3.83101 Y-8.32663
G01 X-3.80550 Y-8.30047
G01 X-3.65140 Y-8.16640
G01 X-3.47637 Y-8.06130
G01 X-3.38567 Y-8.02025
G01 X-3.28752 Y-7.98406
G01 X-3.12542 Y-7.94177
G01 X-3.08940 Y-7.93557
G01 X-2.88600 Y-7.91975
G01 X-2.29497 Y-7.92157
G01 X-2.10652 Y-7.94177
G01 X-1.94440 Y-7.98406
G01 X-1.78834 Y-8.04515
G01 X-1.60724 Y-8.14959
G01 X-1.55623 Y-8.18665
G01 X-1.40096 Y-8.32663
G01 X-1.29464 Y-8.45617
G01 X-1.23652 Y-8.54314
G01 X-1.18730 Y-8.62957
G01 X-1.10747 Y-8.81756
G01 X-1.07945 Y-8.93760
G01 X-1.03701 Y-9.07839
G01 X-0.97277 Y-9.16148
G01 X-0.91778 Y-9.22076
G01 X-0.03736 Y-10.10117
G01 X0.08867 Y-10.20920
G01 X0.18872 Y-10.27750
G01 X0.27089 Y-10.32327
G01 X0.41676 Y-10.29297
G01 X0.64531 Y-10.22642
G01 X0.84071 Y-10.19221
G01 X1.03924 Y-10.19221
G01 X1.23462 Y-10.22642
G01 X1.34048 Y-10.25914
G01 X1.42194 Y-10.29119
G01 X1.56733 Y-10.36645
G01 X1.59662 Y-10.38489
G01 X1.84546 Y-10.57239
G01 X1.92799 Y-10.62700
G01 X2.05938 Y-10.70826
G01 X2.20998 Y-10.78956
G04 P0 ( dwell for no time -- G64 should not smooth over this point )
G00 Z2.00000 ( retract )

G00 X6.01998 Y-6.89371 ( rapid move to begin. )
G01 F254.00000
( Mill infeed pass 1/1 )
G01 Z-0.12000
G04 P0 ( dwell for no time -- G64 should not smooth over this point )
G01 F100.00000
G01 X6.01998 Y-6.89371
G01 X5.87187 Y-6.95968
G01 X5.72239 Y-7.01723
G01 X5.54469 Y-7.07497
G01 X5.41685 Y-7.10931
G01 X5.23913 Y-7.14710
G01 X5.12458 Y-7.16529
G01 X4.94690 Y-7.18396
G01 X4.83880 Y-7.18965
G01 X4.66113 Y-7.18965
G01 X4.55303 Y-7.18396
G01 X4.37535 Y-7.16529
G01 X4.26077 Y-7.14708
G01 X4.08308 Y-7.10931
G01 X3.85747 Y-7.04774
G01 X3.62605 Y-6.99038
G01 X3.47998 Y-6.80509
G01 X3.20274 Y-6.82180
G01 X2.98379 Y-6.84289
G01 X2.72804 Y-6.88543
G01 X2.49555 Y-6.94449
G01 X2.36141 Y-6.96991
G01 X2.30510 Y-6.97786
G01 X2.11483 Y-6.97786
G01 X1.92758 Y-6.94510
G01 X1.82489 Y-6.91324
G01 X1.74808 Y-6.88302
G01 X1.66258 Y-6.84093
G01 X1.58067 Y-6.79320
G01 X1.42966 Y-6.67761
G01 X1.29746 Y-6.53202
G01 X1.19850 Y-6.37736
G01 X1.14719 Y-6.26872
G01 X1.12232 Y-6.20337
G01 X1.07808 Y-6.03827
G01 X1.05971 Y-5.82996
G01 X1.05971 Y-4.98998
G01 X1.07808 Y-4.78170
G01 X1.12232 Y-4.61658
G01 X1.14719 Y-4.55125
G01 X1.19850 Y-4.44259
G01 X1.30137 Y-4.28280
G01 X1.42966 Y-4.14233
G01 X1.58067 Y-4.02674
G01 X1.66258 Y-3.97901
G01 X1.74805 Y-3.93692
G01 X1.82491 Y-3.90670
G01 X1.92758 Y-3.87487
G01 X2.05852 Y-3.85003
G01 X2.12113 Y-3.84205
G01 X2.30508 Y-3.84208
G01 X2.49238 Y-3.87487
G01 X2.59502 Y-3.90670
G01 X2.67188 Y-3.93692
G01 X2.75735 Y-3.97901
G01 X2.83929 Y-4.02674
G01 X2.99027 Y-4.14231
G01 X3.07721 Y-4.23352
G01 X3.25262 Y-4.39618
G01 X3.47998 Y-4.57449
G04 P0 ( dwell for no time -- G64 should not smooth over this point )
G00 Z2.00000 ( retract )

G00 X6.01998 Y-4.57449 ( rapid move to begin. )
G01 F254.00000
( Mill infeed pass 1/1 )
G01 Z-0.12000
G04 P0 ( dwell for no time -- G64 should not smooth over this point )
G01 F100.00000
G01 X6.01998 Y-4.57449
G01 X6.26021 Y-4.38516
G01 X6.40723 Y-4.25013
G01 X6.50966 Y-4.14233
G01 X6.68762 Y-4.00975
G01 X6.82805 Y-3.93692
G01 X6.96465 Y-3.88673
G01 X7.00758 Y-3.87487
G01 X7.13852 Y-3.85003
G01 X7.20113 Y-3.84205
G01 X7.38508 Y-3.84208
G01 X7.57237 Y-3.87487
G01 X7.67502 Y-3.90670
G01 X7.75188 Y-3.93692
G01 X7.83735 Y-3.97901
G01 X7.91929 Y-4.02674
G01 X8.07029 Y-4.14233
G01 X8.15721 Y-4.23349
G01 X8.33262 Y-4.39618
G01 X8.55998 Y-4.57449
G04 P0 ( dwell for no time -- G64 should not smooth over this point )
G00 Z2.00000 ( retract )

G00 X8.55998 Y-6.89371 ( rapid move to begin. )
G01 F254.00000
( Mill infeed pass 1/1 )
G01 Z-0.12000
G04 P0 ( dwell for no time -- G64 should not smooth over this point )
G01 F100.00000
G01 X8.55998 Y-6.89371
G01 X8.41187 Y-6.95968
G01 X8.26239 Y-7.01723
G01 X8.08469 Y-7.07497
G01 X7.95685 Y-7.10931
G01 X7.77913 Y-7.14710
G01 X7.66458 Y-7.16529
G01 X7.48690 Y-7.18396
G01 X7.37883 Y-7.18965
G01 X7.20113 Y-7.18965
G01 X7.09303 Y-7.18396
G01 X6.91535 Y-7.16529
G01 X6.80077 Y-7.14708
G01 X6.62308 Y-7.10931
G01 X6.49524 Y-7.07497
G01 X6.31756 Y-7.01723
G01 X6.16809 Y-6.95968
G01 X6.01998 Y-6.89371
G01 X6.01998 Y-4.57449
G01 X5.79262 Y-4.39618
G01 X5.61721 Y-4.23349
G01 X5.53029 Y-4.14233
G01 X5.49590 Y-4.11444
G01 X5.35234 Y-4.00975
G01 X5.21188 Y-3.93692
G01 X5.13502 Y-3.90670
G01 X5.03238 Y-3.87487
G01 X4.84508 Y-3.84208
G01 X4.65485 Y-3.84208
G01 X4.46758 Y-3.87487
G01 X4.36491 Y-3.90670
G01 X4.28805 Y-3.93692
G01 X4.14762 Y-4.00975
G01 X4.00406 Y-4.11444
G01 X3.96966 Y-4.14233
G01 X3.86723 Y-4.25013
G01 X3.72021 Y-4.38516
G01 X3.47998 Y-4.57449
G01 X3.47998 Y-6.80509
G01 X3.62605 Y-6.99038
G01 X3.53670 Y-7.21716
G01 X3.42006 Y-7.47860
G01 X3.38432 Y-7.55757
G01 X3.30200 Y-7.70842
G01 X3.23372 Y-7.80842
G01 X3.16324 Y-7.89333
G01 X2.89380 Y-8.16440
G01 X2.83060 Y-8.24245
G01 X2.77828 Y-8.32475
G01 X2.73360 Y-8.41705
G01 X2.70030 Y-8.52670
G01 X2.68524 Y-8.60786
G01 X2.67960 Y-8.71197
G01 X2.67967 Y-10.00115
G01 X2.66568 Y-10.17166
G01 X2.64221 Y-10.29129
G01 X2.59098 Y-10.45837
G01 X2.53073 Y-10.51911
G01 X2.38646 Y-10.65004
G01 X2.20998 Y-10.78956
G01 X2.20998 Y-12.63985
G01 X2.34158 Y-12.73205
G01 X2.43533 Y-12.80478
G01 X2.53114 Y-12.88598
G01 X2.66573 Y-13.01443
G01 X2.82334 Y-13.13505
G01 X2.85262 Y-13.15349
G01 X2.99799 Y-13.22875
G01 X3.13916 Y-13.28075
G01 X3.18531 Y-13.29352
G01 X3.38071 Y-13.32774
G01 X3.57924 Y-13.32774
G01 X3.63670 Y-13.31968
G01 X3.77462 Y-13.29352
G01 X3.82079 Y-13.28075
G01 X3.96197 Y-13.22875
G01 X4.05237 Y-13.18425
G01 X4.13662 Y-13.13505
G01 X4.29420 Y-13.01443
G01 X4.42803 Y-12.86787
G01 X4.46877 Y-12.80947
G01 X4.53540 Y-12.70109
G01 X4.58843 Y-12.58905
G01 X4.61488 Y-12.51958
G01 X4.64650 Y-12.41011
G01 X4.66453 Y-12.32764
G01 X4.68020 Y-12.12997
G01 X4.68020 Y-11.38997
G01 X4.67845 Y-11.34039
G01 X4.66077 Y-11.17130
G01 X4.61488 Y-11.00036
G01 X4.58843 Y-10.93092
G01 X4.53601 Y-10.82004
G01 X4.46819 Y-10.71080
G01 X4.30273 Y-10.48548
G01 X4.29298 Y-10.41883
G01 X4.28023 Y-10.25271
G01 X4.28087 Y-9.57532
G01 X4.28671 Y-9.49193
G01 X4.30205 Y-9.38205
G01 X4.33139 Y-9.25840
G01 X4.38325 Y-9.10727
G01 X4.48493 Y-9.07072
G01 X4.59481 Y-9.03945
G01 X4.71394 Y-9.01697
G01 X4.87949 Y-9.00422
G01 X10.24100 Y-9.00565
G01 X10.34090 Y-8.99513
G01 X10.43597 Y-8.97395
G01 X10.53292 Y-8.94024
G01 X10.63396 Y-8.88629
G01 X10.70201 Y-8.83958
G01 X10.75802 Y-8.79000
G01 X12.49317 Y-7.05698
G01 X12.55492 Y-7.00306
G01 X12.60483 Y-6.96509
G01 X12.83183 Y-6.88302
G01 X12.91735 Y-6.84093
G01 X12.99929 Y-6.79320
G01 X13.15032 Y-6.67758
G01 X13.25265 Y-6.56989
G01 X13.39974 Y-6.43479
G01 X13.63998 Y-6.24548
G04 P0 ( dwell for no time -- G64 should not smooth over this point )
G00 Z2.00000 ( retract )

G00 X13.63998 Y-4.19298 ( rapid move to begin. )
G01 F254.00000
( Mill infeed pass 1/1 )
G01 Z-0.12000
G04 P0 ( dwell for no time -- G64 should not smooth over this point )
G01 F100.00000
G01 X13.63998 Y-4.19298
G01 X13.63998 Y-6.24548
G01 X13.86728 Y-6.42371
G01 X14.04280 Y-6.58650
G01 X14.12966 Y-6.67761
G01 X14.16403 Y-6.70550
G01 X14.28067 Y-6.79320
G01 X14.36258 Y-6.84093
G01 X14.44808 Y-6.88302
G01 X14.52489 Y-6.91324
G01 X14.62758 Y-6.94510
G01 X14.75852 Y-6.96991
G01 X14.82113 Y-6.97789
G01 X15.00510 Y-6.97786
G01 X15.19238 Y-6.94510
G01 X15.29502 Y-6.91327
G01 X15.37188 Y-6.88302
G01 X15.45735 Y-6.84093
G01 X15.53929 Y-6.79320
G01 X15.69032 Y-6.67758
G01 X15.79265 Y-6.56989
G01 X15.93974 Y-6.43479
G01 X16.17998 Y-6.24548
G04 P0 ( dwell for no time -- G64 should not smooth over this point )
G00 Z2.00000 ( retract )

G00 X16.17998 Y-4.19298 ( rapid move to begin. )
G01 F254.00000
( Mill infeed pass 1/1 )
G01 Z-0.12000
G04 P0 ( dwell for no time -- G64 should not smooth over this point )
G01 F100.00000
G01 X16.17998 Y-4.19298
G01 X16.17998 Y-6.24548
G01 X16.40728 Y-6.42371
G01 X16.58280 Y-6.58650
G01 X16.66966 Y-6.67761
G01 X16.70403 Y-6.70550
G01 X16.82067 Y-6.79320
G01 X16.90258 Y-6.84093
G01 X16.98808 Y-6.88302
G01 X17.06489 Y-6.91324
G01 X17.16758 Y-6.94510
G01 X17.29852 Y-6.96991
G01 X17.36110 Y-6.97789
G01 X17.54510 Y-6.97786
G01 X17.73237 Y-6.94510
G01 X17.83502 Y-6.91327
G01 X17.91188 Y-6.88302
G01 X17.99735 Y-6.84093
G01 X18.07929 Y-6.79320
G01 X18.23032 Y-6.67758
G01 X18.33265 Y-6.56989
G01 X18.47974 Y-6.43479
G01 X18.71998 Y-6.24548
G04 P0 ( dwell for no time -- G64 should not smooth over this point )
G00 Z2.00000 ( retract )

G00 X18.71998 Y-4.19298 ( rapid move to begin. )
G01 F254.00000
( Mill infeed pass 1/1 )
G01 Z-0.12000
G04 P0 ( dwell for no time -- G64 should not smooth over this point )
G01 F100.00000
G01 X18.71998 Y-4.19298
G01 X18.71998 Y-6.24548
G01 X18.94728 Y-6.42371
G01 X19.12280 Y-6.58650
G01 X19.20966 Y-6.67761
G01 X19.36067 Y-6.79320
G01 X19.44258 Y-6.84093
G01 X19.52808 Y-6.88302
G01 X19.60489 Y-6.91324
G01 X19.70758 Y-6.94510
G01 X19.83852 Y-6.96991
G01 X19.90113 Y-6.97789
G01 X20.08510 Y-6.97786
G01 X20.27237 Y-6.94510
G01 X20.37502 Y-6.91327
G01 X20.45188 Y-6.88302
G01 X20.53735 Y-6.84093
G01 X20.61929 Y-6.79320
G01 X20.77029 Y-6.67761
G01 X20.90250 Y-6.53202
G01 X21.00148 Y-6.37733
G01 X21.05276 Y-6.26872
G01 X21.07763 Y-6.20337
G01 X21.12188 Y-6.03827
G01 X21.14024 Y-5.82996
G01 X21.14024 Y-4.98998
G01 X21.12523 Y-4.80055
G01 X21.10758 Y-4.72029
G01 X21.02841 Y-4.43756
G01 X20.97893 Y-4.18991
G01 X20.95579 Y-4.04480
G01 X20.82462 Y-3.99232
G01 X20.64692 Y-3.93459
G01 X20.56674 Y-3.91305
G01 X20.38901 Y-3.87528
G01 X20.32003 Y-3.86431
G01 X20.07883 Y-3.84231
G01 X19.83758 Y-3.84564
G01 X19.65990 Y-3.86431
G01 X19.59092 Y-3.87528
G01 X19.41322 Y-3.91305
G01 X19.33303 Y-3.93459
G01 X19.15533 Y-3.99232
G01 X19.05686 Y-4.03024
G01 X18.87916 Y-4.10936
G01 X18.71998 Y-4.19298
G01 X18.56080 Y-4.10936
G01 X18.38310 Y-4.03024
G01 X18.28462 Y-3.99232
G01 X18.10692 Y-3.93459
G01 X18.02674 Y-3.91305
G01 X17.84901 Y-3.87528
G01 X17.78003 Y-3.86431
G01 X17.60235 Y-3.84564
G01 X17.36110 Y-3.84231
G01 X17.11990 Y-3.86431
G01 X17.05092 Y-3.87528
G01 X16.87322 Y-3.91305
G01 X16.79303 Y-3.93459
G01 X16.61533 Y-3.99232
G01 X16.51686 Y-4.03024
G01 X16.33916 Y-4.10936
G01 X16.17998 Y-4.19298
G01 X16.02080 Y-4.10936
G01 X15.84310 Y-4.03024
G01 X15.74462 Y-3.99232
G01 X15.56692 Y-3.93459
G01 X15.48674 Y-3.91305
G01 X15.30901 Y-3.87528
G01 X15.24003 Y-3.86431
G01 X15.06235 Y-3.84564
G01 X14.82113 Y-3.84231
G01 X14.57990 Y-3.86431
G01 X14.51092 Y-3.87528
G01 X14.33322 Y-3.91305
G01 X14.25303 Y-3.93459
G01 X14.07533 Y-3.99232
G01 X13.97686 Y-4.03024
G01 X13.79916 Y-4.10936
G01 X13.63998 Y-4.19298
G01 X13.48080 Y-4.10936
G01 X13.30310 Y-4.03024
G01 X13.20460 Y-3.99232
G01 X13.02690 Y-3.93459
G01 X12.94674 Y-3.91305
G01 X12.76899 Y-3.87528
G01 X12.70003 Y-3.86431
G01 X12.52235 Y-3.84564
G01 X12.28110 Y-3.84231
G01 X12.03990 Y-3.86431
G01 X11.91331 Y-3.88752
G01 X11.75898 Y-3.99786
G01 X11.57768 Y-4.15704
G01 X11.41339 Y-4.33509
G01 X11.30427 Y-4.47728
G01 X11.26330 Y-4.53697
G01 X11.16780 Y-4.69280
G01 X11.09998 Y-4.82453
G01 X11.09998 Y-5.99539
G01 X11.03211 Y-6.12717
G01 X10.93663 Y-6.28297
G01 X10.89566 Y-6.34263
G01 X10.78657 Y-6.48485
G01 X10.62228 Y-6.66290
G01 X10.44097 Y-6.82208
G01 X10.38728 Y-6.86323
G01 X10.23833 Y-6.96562
G01 X10.17092 Y-7.00687
G01 X10.00806 Y-7.09529
G01 X9.91883 Y-7.13773
G01 X9.79353 Y-7.18965
G01 X9.63303 Y-7.18396
G01 X9.45535 Y-7.16529
G01 X9.34077 Y-7.14708
G01 X9.16308 Y-7.10931
G01 X9.03526 Y-7.07497
G01 X8.85756 Y-7.01723
G01 X8.70809 Y-6.95968
G01 X8.55998 Y-6.89371
G01 X8.55998 Y-4.57449
G01 X8.80021 Y-4.38516
G01 X8.94723 Y-4.25013
G01 X9.04966 Y-4.14233
G01 X9.20067 Y-4.02674
G01 X9.28258 Y-3.97901
G01 X9.36808 Y-3.93692
G01 X9.59510 Y-3.85486
G01 X9.64499 Y-3.81688
G01 X9.70679 Y-3.76293
G01 X11.01791 Y-2.45394
G01 X11.10943 Y-2.37736
G01 X11.19820 Y-2.32595
G01 X11.28319 Y-2.28879
G01 X11.38819 Y-2.25666
G01 X11.53495 Y-2.23830
G01 X23.60127 Y-2.23972
G01 X23.65695 Y-2.23713
G01 X23.76681 Y-2.22697
G01 X23.83963 Y-2.21595
G01 X23.96302 Y-2.12024
G01 X24.01570 Y-2.07327
G01 X24.48832 Y-1.59934
G01 X24.62418 Y-1.47178
G01 X24.66030 Y-1.44554
G01 X24.77011 Y-1.38283
G01 X24.88776 Y-1.33802
G01 X24.93902 Y-1.32519
G01 X25.01097 Y-1.31285
G01 X25.08915 Y-1.30625
G01 X29.17530 Y-1.30772
G01 X29.23095 Y-1.30513
G01 X29.40748 Y-1.28519
G01 X29.58114 Y-1.15570
G01 X29.74205 Y-1.05194
G01 X29.85290 Y-0.99952
G01 X29.92237 Y-0.97307
G01 X30.09328 Y-0.92718
G01 X30.28051 Y-0.90856
G01 X31.51198 Y-0.90775
G01 X31.70964 Y-0.92342
G01 X31.79206 Y-0.94145
G01 X31.90154 Y-0.97305
G01 X32.07570 Y-1.03444
G01 X32.19610 Y-1.06926
G01 X32.31109 Y-1.09746
G01 X32.49348 Y-1.13414
G01 X32.54438 Y-1.14021
G01 X32.63509 Y-1.40825
G01 X32.65830 Y-1.49461
G01 X32.69828 Y-1.68275
G01 X32.71012 Y-1.75712
G01 X32.72988 Y-1.94528
G01 X32.73349 Y-2.01392
G01 X32.73349 Y-2.20205
G01 X32.72988 Y-2.27066
G01 X32.71012 Y-2.45882
G01 X32.69828 Y-2.53319
G01 X32.65830 Y-2.72133
G01 X32.63509 Y-2.80769
G01 X32.54568 Y-3.07256
G01 X32.41490 Y-3.09509
G01 X32.21667 Y-3.14048
G01 X32.04982 Y-3.19072
G01 X31.90646 Y-3.24147
G01 X31.73070 Y-3.28877
G01 X31.56156 Y-3.30645
G01 X31.51198 Y-3.30822
G01 X30.31198 Y-3.30822
G01 X30.11432 Y-3.29250
G01 X30.03187 Y-3.27449
G01 X29.92237 Y-3.24287
G01 X29.85290 Y-3.21643
G01 X29.74078 Y-3.16339
G01 X29.58048 Y-3.06098
G01 X29.40748 Y-2.93073
G01 X29.23388 Y-2.91094
G01 X29.17675 Y-2.90822
G01 X25.63701 Y-2.91079
G01 X25.52710 Y-2.92097
G01 X25.45428 Y-2.93202
G01 X25.33091 Y-3.02768
G01 X25.27821 Y-3.07467
G01 X24.80561 Y-3.54858
G01 X24.66978 Y-3.67614
G01 X24.63368 Y-3.70238
G01 X24.52380 Y-3.76512
G01 X24.40615 Y-3.80995
G01 X24.35494 Y-3.82275
G01 X24.28296 Y-3.83510
G01 X24.20828 Y-3.84167
G01 X21.65530 Y-3.84023
G01 X21.59963 Y-3.84282
G01 X21.48977 Y-3.85298
G01 X21.37065 Y-3.87546
G01 X21.26077 Y-3.90672
G01 X21.11601 Y-3.96337
G01 X20.95579 Y-4.04480
G04 P0 ( dwell for no time -- G64 should not smooth over this point )
G00 Z2.00000 ( retract )

G00 X16.91559 Y-10.49000 ( rapid move to begin. )
G01 F254.00000
( Mill infeed pass 1/1 )
G01 Z-0.12000
G04 P0 ( dwell for no time -- G64 should not smooth over this point )
G01 F100.00000
G01 X16.91559 Y-10.49000
G01 X16.89519 Y-10.77542
G01 X16.86677 Y-10.91565
G01 X16.83436 Y-11.05502
G01 X16.73436 Y-11.32314
G01 X16.59722 Y-11.57430
G01 X16.42572 Y-11.80338
G01 X16.32600 Y-11.90600
G01 X16.22339 Y-12.00572
G01 X15.99430 Y-12.17722
G01 X15.74315 Y-12.31435
G01 X15.47503 Y-12.41435
G01 X15.33566 Y-12.44679
G01 X15.19542 Y-12.47518
G01 X14.90998 Y-12.49561
G01 X14.62456 Y-12.47518
G01 X14.48432 Y-12.44679
G01 X14.34493 Y-12.41435
G01 X14.07683 Y-12.31435
G01 X13.82568 Y-12.17722
G01 X13.59659 Y-12.00572
G01 X13.49398 Y-11.90600
G01 X13.39426 Y-11.80338
G01 X13.22273 Y-11.57430
G01 X13.08562 Y-11.32314
G01 X12.98560 Y-11.05505
G01 X12.95319 Y-10.91565
G01 X12.92479 Y-10.77542
G01 X12.90437 Y-10.49000
G01 X12.92479 Y-10.20455
G01 X12.95319 Y-10.06432
G01 X12.98560 Y-9.92495
G01 X13.08562 Y-9.65683
G01 X13.22273 Y-9.40567
G01 X13.39426 Y-9.17659
G01 X13.49398 Y-9.07397
G01 X13.59659 Y-8.97425
G01 X13.82568 Y-8.80275
G01 X14.07683 Y-8.66562
G01 X14.34495 Y-8.56562
G01 X14.48432 Y-8.53321
G01 X14.62456 Y-8.50478
G01 X14.90998 Y-8.48439
G01 X15.19542 Y-8.50478
G01 X15.33568 Y-8.53321
G01 X15.47503 Y-8.56562
G01 X15.74315 Y-8.66562
G01 X15.99430 Y-8.80275
G01 X16.22339 Y-8.97425
G01 X16.32600 Y-9.07397
G01 X16.42572 Y-9.17659
G01 X16.59722 Y-9.40567
G01 X16.73436 Y-9.65683
G01 X16.83436 Y-9.92495
G01 X16.86677 Y-10.06432
G01 X16.89519 Y-10.20458
G01 X16.91559 Y-10.49000
G01 X16.91000 Y-10.49000
G01 X16.86629 Y-10.07417
G01 X16.73708 Y-9.67651
G01 X16.52801 Y-9.31441
G01 X16.24825 Y-9.00369
G01 X15.90998 Y-8.75795
G01 X15.52801 Y-8.58787
G01 X15.11905 Y-8.50095
G01 X14.70094 Y-8.50095
G01 X14.29195 Y-8.58787
G01 X13.90998 Y-8.75795
G01 X13.57173 Y-9.00369
G01 X13.29195 Y-9.31441
G01 X13.08288 Y-9.67651
G01 X12.95370 Y-10.07417
G01 X12.90998 Y-10.49000
G01 X12.95370 Y-10.90582
G01 X13.08288 Y-11.30346
G01 X13.29195 Y-11.66556
G01 X13.57173 Y-11.97628
G01 X13.90998 Y-12.22205
G01 X14.29195 Y-12.39210
G01 X14.70094 Y-12.47902
G01 X15.11905 Y-12.47902
G01 X15.52801 Y-12.39210
G01 X15.90998 Y-12.22205
G01 X16.24825 Y-11.97628
G01 X16.52801 Y-11.66556
G01 X16.73708 Y-11.30346
G01 X16.86629 Y-10.90582
G01 X16.91000 Y-10.49000
G04 P0 ( dwell for no time -- G64 should not smooth over this point )
G00 Z2.00000 ( retract )

G00 X29.16509 Y-23.51750 ( rapid move to begin. )
G01 F254.00000
( Mill infeed pass 1/1 )
G01 Z-0.12000
G04 P0 ( dwell for no time -- G64 should not smooth over this point )
G01 F100.00000
G01 X29.16509 Y-23.51750
G01 X29.30776 Y-23.40663
G01 X29.49357 Y-23.24412
G01 X29.59224 Y-23.15200
G01 X29.71241 Y-23.03262
G01 X29.85186 Y-22.87585
G01 X29.94840 Y-22.74882
G01 X30.04002 Y-22.64242
G01 X30.12128 Y-22.56711
G01 X30.18978 Y-22.51258
G01 X30.27352 Y-22.45655
G01 X30.35826 Y-22.40816
G01 X30.54149 Y-22.33201
G01 X30.73535 Y-22.28939
G01 X30.80626 Y-22.28329
G01 X30.93344 Y-22.27979
G01 X31.05701 Y-22.28990
G01 X31.13039 Y-22.30173
G01 X31.24103 Y-22.32909
G01 X31.32145 Y-22.35469
G01 X31.50050 Y-22.43996
G01 X32.56656 Y-23.05637
G01 X32.71939 Y-23.16612
G01 X32.84446 Y-23.29132
G01 X32.92856 Y-23.39983
G01 X32.96194 Y-23.45096
G01 X33.02249 Y-23.56282
G01 X33.05266 Y-23.62728
G01 X33.11268 Y-23.81649
G01 X33.13834 Y-24.01324
G01 X33.13968 Y-24.04783
G01 X33.13214 Y-24.21138
G01 X33.10659 Y-24.35964
G01 X33.09457 Y-24.40600
G01 X33.02650 Y-24.59231
G01 X32.92726 Y-24.76421
G01 X32.89155 Y-24.80996
G01 X32.79993 Y-24.91636
G01 X32.71865 Y-24.99164
G01 X32.65020 Y-25.04615
G01 X32.56643 Y-25.10221
G01 X32.48167 Y-25.15060
G01 X32.29846 Y-25.22677
G01 X32.10461 Y-25.26937
G01 X32.03364 Y-25.27549
G01 X31.90651 Y-25.27899
G01 X31.84550 Y-25.27562
G01 X31.70956 Y-25.25705
G01 X31.38721 Y-25.17028
G01 X31.26857 Y-25.14661
G01 X31.16156 Y-25.20953
G01 X31.07083 Y-25.27394
G01 X30.96179 Y-25.36929
G01 X29.30530 Y-27.02590
G01 X29.19222 Y-27.12258
G01 X29.05857 Y-27.19626
G01 X28.91348 Y-27.24328
G01 X28.76667 Y-27.26167
G01 X26.18969 Y-27.26025
G01 X26.02420 Y-27.27297
G01 X25.95128 Y-27.28402
G01 X25.82791 Y-27.37968
G01 X25.77577 Y-27.42608
G01 X23.90574 Y-29.29590
G01 X23.79772 Y-29.42199
G01 X23.75400 Y-29.48127
G01 X23.74717 Y-29.52628
G01 X23.73038 Y-29.70548
G01 X23.72942 Y-29.94144
G01 X23.71453 Y-30.10764
G01 X23.69650 Y-30.19011
G01 X23.66488 Y-30.29958
G01 X23.61298 Y-30.42661
G01 X23.58540 Y-30.48114
G01 X23.51880 Y-30.58950
G01 X23.47803 Y-30.64787
G01 X23.35680 Y-30.78104
G01 X23.30940 Y-30.82270
G01 X23.15733 Y-30.93352
G01 X23.01197 Y-31.00875
G01 X22.93048 Y-31.04081
G01 X22.82462 Y-31.07352
G01 X22.62924 Y-31.10774
G01 X22.43592 Y-31.10776
G01 X22.37326 Y-31.09968
G01 X22.23534 Y-31.07352
G01 X22.18916 Y-31.06075
G01 X22.04799 Y-31.00875
G01 X21.90262 Y-30.93352
G01 X21.87334 Y-30.91505
G01 X21.71573 Y-30.79443
G01 X21.58114 Y-30.66600
G01 X21.48525 Y-30.58475
G01 X21.39150 Y-30.51200
G01 X21.25998 Y-30.41988
G01 X21.26099 Y-29.13116
G01 X21.27085 Y-28.94302
G01 X21.27933 Y-28.86253
G01 X21.30913 Y-28.67439
G01 X21.32823 Y-28.58480
G01 X21.37862 Y-28.39667
G01 X21.41309 Y-28.29093
G01 X21.48533 Y-28.10276
G01 X21.54357 Y-27.97236
G01 X21.63945 Y-27.78420
G01 X21.73590 Y-27.61778
G01 X21.85807 Y-27.42961
G01 X22.01746 Y-27.21115
G01 X22.16983 Y-27.02301
G01 X22.34872 Y-26.81874
G01 X22.48421 Y-26.81745
G01 X24.94722 Y-25.79723
G01 X25.08735 Y-25.74587
G01 X25.16076 Y-25.72357
G01 X25.32398 Y-25.68603
G01 X25.42200 Y-25.67148
G01 X25.58044 Y-25.66071
G01 X27.70998 Y-25.65997
G01 X27.92959 Y-25.64928
G01 X27.99522 Y-25.64234
G01 X28.18338 Y-25.61252
G01 X28.25763 Y-25.59670
G01 X28.36941 Y-25.56678
G01 X28.43050 Y-25.51991
G01 X28.49113 Y-25.46815
G01 X28.62768 Y-25.33858
G01 X28.68135 Y-25.28199
G01 X28.80393 Y-25.13848
G01 X28.85450 Y-25.07254
G01 X28.96288 Y-24.91483
G01 X29.01290 Y-24.83310
G01 X29.10652 Y-24.66063
G01 X29.15724 Y-24.55405
G01 X29.23517 Y-24.36589
G01 X29.28623 Y-24.22114
G01 X29.33327 Y-24.06231
G01 X29.16509 Y-23.51750
G01 X29.01894 Y-23.41357
G01 X28.92585 Y-23.25713
G01 X28.86845 Y-23.14725
G01 X28.77985 Y-22.93328
G01 X28.76263 Y-22.87697
G01 X28.76613 Y-22.80361
G01 X28.78531 Y-22.62690
G01 X28.80502 Y-22.50971
G01 X28.82837 Y-22.38708
G01 X28.87353 Y-22.21459
G01 X28.90774 Y-22.01923
G01 X28.90774 Y-21.82071
G01 X28.87353 Y-21.62533
G01 X28.84081 Y-21.51946
G01 X28.80876 Y-21.43801
G01 X28.76426 Y-21.34758
G01 X28.71506 Y-21.26333
G01 X28.59446 Y-21.10575
G01 X28.44145 Y-20.96696
G01 X28.28115 Y-20.86455
G01 X28.16903 Y-20.81152
G01 X28.09959 Y-20.78507
G01 X27.92865 Y-20.73918
G01 X27.74142 Y-20.72056
G01 X26.96997 Y-20.71975
G01 X26.92039 Y-20.72150
G01 X26.75131 Y-20.73915
G01 X26.58034 Y-20.78507
G01 X26.45331 Y-20.83697
G01 X26.39880 Y-20.86455
G01 X26.29042 Y-20.93115
G01 X26.23205 Y-20.97192
G01 X26.08550 Y-21.10572
G01 X25.96490 Y-21.26333
G01 X25.91570 Y-21.34758
G01 X25.87117 Y-21.43801
G01 X25.83914 Y-21.51946
G01 X25.80640 Y-21.62531
G01 X25.77221 Y-21.82071
G01 X25.77221 Y-22.01923
G01 X25.80620 Y-22.21344
G01 X25.81948 Y-22.26069
G01 X25.96855 Y-22.65599
G01 X26.01859 Y-22.83473
G01 X26.00787 Y-22.91189
G01 X25.96581 Y-23.08583
G01 X25.86393 Y-23.13656
G01 X25.71900 Y-23.19325
G01 X25.60914 Y-23.22452
G01 X25.49012 Y-23.24697
G01 X25.32459 Y-23.25972
G01 X21.31243 Y-23.25802
G01 X21.21040 Y-23.26132
G01 X21.05469 Y-23.27587
G01 X20.87601 Y-23.32215
G01 X20.72696 Y-23.38390
G01 X20.61764 Y-23.44537
G01 X20.55655 Y-23.48563
G01 X20.43270 Y-23.59099
G01 X20.37189 Y-23.64834
G01 X19.12490 Y-24.89825
G01 X19.01480 Y-25.02598
G01 X18.92965 Y-25.16299
G01 X18.91228 Y-25.19619
G01 X18.85048 Y-25.34542
G01 X18.80263 Y-25.53823
G01 X18.78919 Y-25.72997
G01 X18.78889 Y-27.78216
G01 X18.76788 Y-27.96189
G01 X18.73855 Y-28.08547
G01 X18.68665 Y-28.23667
G01 X18.58493 Y-28.27325
G01 X18.47505 Y-28.30452
G01 X18.35600 Y-28.32697
G01 X18.24614 Y-28.33713
G01 X17.31894 Y-28.33972
G01 X17.16783 Y-28.32910
G01 X17.09870 Y-28.31937
G01 X16.86169 Y-28.16070
G01 X16.80761 Y-28.12839
G01 X16.77487 Y-28.11109
G01 X16.58739 Y-28.03147
G01 X16.38841 Y-27.98557
G01 X16.28953 Y-27.97457
G01 X16.18498 Y-27.97045
G01 X16.01770 Y-27.98034
G01 X15.81318 Y-28.02369
G01 X15.75321 Y-28.04317
G01 X15.56228 Y-28.12832
G01 X15.42115 Y-28.21864
G01 X15.29161 Y-28.32496
G01 X15.15163 Y-28.48023
G01 X15.11455 Y-28.53126
G01 X15.02631 Y-28.67960
G01 X14.98529 Y-28.77022
G01 X14.94907 Y-28.86840
G01 X14.92067 Y-28.96906
G01 X14.90058 Y-29.06654
G01 X14.88554 Y-29.23852
G01 X14.88656 Y-29.86098
G01 X14.90688 Y-30.04939
G01 X14.97099 Y-30.29184
G01 X14.97973 Y-30.41713
G01 X14.97973 Y-32.20674
G01 X14.97061 Y-32.32864
G01 X14.91600 Y-32.52521
G01 X14.89550 Y-32.62340
G01 X14.87973 Y-32.82599
G01 X14.87973 Y-33.36597
G01 X14.89558 Y-33.56940
G01 X14.91567 Y-33.66686
G01 X14.94406 Y-33.76755
G01 X14.98026 Y-33.86567
G01 X15.02131 Y-33.95635
G01 X15.10955 Y-34.10468
G01 X15.14665 Y-34.15576
G01 X15.28666 Y-34.31103
G01 X15.41615 Y-34.41730
G01 X15.50309 Y-34.47542
G01 X15.58961 Y-34.52465
G01 X15.77754 Y-34.60450
G01 X15.97655 Y-34.65038
G01 X16.07546 Y-34.66137
G01 X16.17998 Y-34.66549
G01 X16.28452 Y-34.66137
G01 X16.38341 Y-34.65038
G01 X16.58239 Y-34.60450
G01 X16.77035 Y-34.52465
G01 X16.85681 Y-34.47542
G01 X16.94381 Y-34.41730
G01 X17.02595 Y-34.35253
G01 X17.09948 Y-34.28550
G01 X17.23354 Y-34.13140
G01 X17.33865 Y-33.95635
G01 X17.37970 Y-33.86567
G01 X17.41589 Y-33.76757
G01 X17.45818 Y-33.60542
G01 X17.47837 Y-33.41698
G01 X17.47837 Y-32.77497
G01 X17.45790 Y-32.58657
G01 X17.38892 Y-32.32854
G01 X17.38279 Y-32.26239
G01 X17.38023 Y-31.33949
G01 X17.38671 Y-31.22793
G01 X17.40205 Y-31.11805
G01 X17.43138 Y-30.99440
G01 X17.48325 Y-30.84327
G01 X17.58493 Y-30.80672
G01 X17.69481 Y-30.77545
G01 X17.81393 Y-30.75297
G01 X17.92384 Y-30.74279
G01 X18.89684 Y-30.74022
G01 X19.02767 Y-30.74820
G01 X19.11949 Y-30.76179
G01 X19.36262 Y-30.93352
G01 X19.50799 Y-31.00875
G01 X19.58947 Y-31.04081
G01 X19.69534 Y-31.07352
G01 X19.89071 Y-31.10774
G01 X20.08924 Y-31.10774
G01 X20.28462 Y-31.07352
G01 X20.33080 Y-31.06075
G01 X20.47197 Y-31.00875
G01 X20.61733 Y-30.93352
G01 X20.64662 Y-30.91505
G01 X20.80956 Y-30.78970
G01 X20.86419 Y-30.73263
G01 X21.02287 Y-30.59486
G01 X21.13821 Y-30.50512
G01 X21.25998 Y-30.41988
G04 P0 ( dwell for no time -- G64 should not smooth over this point )
G00 Z2.00000 ( retract )

G00 X17.26535 Y-18.30807 ( rapid move to begin. )
G01 F254.00000
( Mill infeed pass 1/1 )
G01 Z-0.12000
G04 P0 ( dwell for no time -- G64 should not smooth over this point )
G01 F100.00000
G01 X17.26535 Y-18.30807
G01 X17.22229 Y-18.47837
G01 X17.18328 Y-18.59478
G01 X17.12095 Y-18.73722
G01 X17.06537 Y-18.83702
G01 X16.99702 Y-18.93715
G01 X16.88902 Y-19.06321
G01 X11.52980 Y-24.42040
G01 X11.45372 Y-24.51616
G01 X11.41357 Y-24.58037
G01 X11.37018 Y-24.67328
G01 X11.35258 Y-24.72014
G01 X11.32746 Y-24.81969
G01 X11.32048 Y-24.86381
G01 X11.31461 Y-25.05042
G01 X11.31555 Y-35.57803
G01 X11.31151 Y-35.64778
G01 X11.29193 Y-35.80267
G01 X11.24821 Y-35.86196
G01 X11.13996 Y-35.98824
G01 X10.93389 Y-36.19411
G01 X10.88197 Y-36.24031
G01 X10.75863 Y-36.33594
G01 X10.68581 Y-36.34697
G01 X10.52027 Y-36.35972
G01 X-8.08474 Y-36.35972
G01 X-8.25177 Y-36.34654
G01 X-8.31870 Y-36.33655
G01 X-8.52889 Y-36.17887
G01 X-8.64878 Y-36.10450
G01 X-8.73379 Y-36.06320
G01 X-8.83016 Y-36.02449
G01 X-9.02221 Y-35.97486
G01 X-9.21997 Y-35.95972
G01 X-10.39350 Y-35.95954
G01 X-10.46310 Y-35.95550
G01 X-10.61796 Y-35.93595
G01 X-10.67727 Y-35.89223
G01 X-10.80353 Y-35.78400
G01 X-11.02906 Y-35.55825
G01 X-11.07534 Y-35.50628
G01 X-11.17092 Y-35.38296
G01 X-11.18197 Y-35.31011
G01 X-11.19472 Y-35.14461
G01 X-11.19475 Y-30.20997
G01 X-11.21042 Y-30.01231
G01 X-11.22845 Y-29.92989
G01 X-11.26007 Y-29.82036
G01 X-11.28652 Y-29.75092
G01 X-11.33955 Y-29.63880
G01 X-11.44196 Y-29.47850
G01 X-11.58075 Y-29.32549
G01 X-11.73833 Y-29.20489
G01 X-11.82258 Y-29.15569
G01 X-11.91301 Y-29.11119
G01 X-11.99446 Y-29.07914
G01 X-12.10033 Y-29.04642
G01 X-12.29571 Y-29.01221
G01 X-12.49423 Y-29.01221
G01 X-12.55166 Y-29.02026
G01 X-12.68959 Y-29.04642
G01 X-12.73574 Y-29.05920
G01 X-12.87694 Y-29.11119
G01 X-13.02233 Y-29.18645
G01 X-13.17440 Y-29.29725
G01 X-13.20993 Y-29.32615
G01 X-13.31321 Y-29.43847
G01 X-13.44940 Y-29.57375
G01 X-13.57112 Y-29.59697
G01 X-13.73665 Y-29.60972
G01 X-16.53197 Y-29.60809
G01 X-16.74391 Y-29.61952
G01 X-16.84922 Y-29.63835
G01 X-16.93461 Y-29.66115
G01 X-17.01810 Y-29.68940
G01 X-17.11899 Y-29.73390
G01 X-17.27812 Y-29.82755
G01 X-17.41358 Y-29.94061
G01 X-18.97934 Y-31.50634
G01 X-19.06242 Y-31.60260
G01 X-19.12457 Y-31.69166
G01 X-19.18604 Y-31.80095
G01 X-19.24779 Y-31.95003
G01 X-19.28160 Y-32.07073
G01 X-19.29633 Y-32.14240
G01 X-19.31073 Y-32.33400
G01 X-19.31022 Y-34.58497
G01 X-19.30844 Y-34.63455
G01 X-19.29077 Y-34.80371
G01 X-19.24487 Y-34.97458
G01 X-19.19300 Y-35.10161
G01 X-19.16539 Y-35.15617
G01 X-19.06298 Y-35.31646
G01 X-18.92422 Y-35.46945
G01 X-18.76661 Y-35.59007
G01 X-18.73733 Y-35.60851
G01 X-18.59196 Y-35.68375
G01 X-18.45074 Y-35.73577
G01 X-18.40461 Y-35.74852
G01 X-18.20923 Y-35.78273
G01 X-18.01071 Y-35.78273
G01 X-17.81533 Y-35.74852
G01 X-17.76920 Y-35.73577
G01 X-17.62798 Y-35.68375
G01 X-17.48262 Y-35.60851
G01 X-17.45333 Y-35.59007
G01 X-17.29575 Y-35.46945
G01 X-17.15696 Y-35.31646
G01 X-17.05455 Y-35.15614
G01 X-17.02697 Y-35.10163
G01 X-16.97507 Y-34.97458
G01 X-16.94345 Y-34.86508
G01 X-16.92542 Y-34.78263
G01 X-16.90972 Y-34.58500
G01 X-16.90957 Y-33.06549
G01 X-16.90553 Y-32.99590
G01 X-16.88595 Y-32.84098
G01 X-16.84223 Y-32.78167
G01 X-16.73410 Y-32.65551
G01 X-16.25437 Y-32.17601
G01 X-16.20233 Y-32.12968
G01 X-16.07896 Y-32.03402
G01 X-16.00611 Y-32.02297
G01 X-15.84035 Y-32.01022
G01 X-14.16665 Y-32.01088
G01 X-14.08293 Y-32.01673
G01 X-13.97305 Y-32.03207
G01 X-13.84940 Y-32.06140
G01 X-13.69827 Y-32.11327
G01 X-13.66172 Y-32.21495
G01 X-13.63045 Y-32.32483
G01 X-13.60797 Y-32.44395
G01 X-13.59522 Y-32.60949
G01 X-13.59611 Y-35.89000
G01 X-13.57907 Y-36.09525
G01 X-13.54381 Y-36.23856
G01 X-13.49289 Y-36.37679
G01 X-13.45382 Y-36.45581
G01 X-13.37739 Y-36.58212
G01 X-13.24402 Y-36.73904
G01 X-11.95669 Y-38.02502
G01 X-11.82893 Y-38.13515
G01 X-11.65878 Y-38.23764
G01 X-11.50950 Y-38.29947
G01 X-11.33635 Y-38.34303
G01 X-11.28298 Y-38.35171
G01 X-11.07097 Y-38.36185
G01 X-9.22000 Y-38.36022
G01 X-9.02221 Y-38.34508
G01 X-8.83016 Y-38.29545
G01 X-8.73379 Y-38.25674
G01 X-8.65000 Y-38.21605
G01 X-8.52937 Y-38.14049
G01 X-8.31870 Y-37.98339
G01 X-8.24883 Y-37.97297
G01 X-8.08327 Y-37.96022
G01 X11.12728 Y-37.96165
G01 X11.27404 Y-37.94328
G01 X11.41920 Y-37.89624
G01 X11.55281 Y-37.82258
G01 X11.64445 Y-37.74620
G01 X12.70216 Y-36.69154
G01 X12.77821 Y-36.59579
G01 X12.81831 Y-36.53160
G01 X12.84051 Y-36.48657
G01 X12.87930 Y-36.39182
G01 X12.90447 Y-36.29226
G01 X12.91143 Y-36.24821
G01 X12.91730 Y-36.06155
G01 X12.91618 Y-25.54773
G01 X12.91948 Y-25.48494
G01 X12.94000 Y-25.30930
G01 X12.98372 Y-25.24999
G01 X13.09172 Y-25.12393
G01 X19.11993 Y-19.09575
G01 X19.16654 Y-19.05373
G01 X19.30530 Y-18.94401
G01 X19.37814 Y-18.93298
G01 X19.54367 Y-18.92023
G01 X29.82072 Y-18.92165
G01 X29.96748 Y-18.90329
G01 X30.07246 Y-18.87113
G01 X30.15745 Y-18.83397
G01 X30.24622 Y-18.78256
G01 X30.28173 Y-18.75554
G01 X30.41833 Y-18.62831
G01 X34.92195 Y-14.12314
G01 X35.04631 Y-13.96609
G01 X35.17588 Y-13.82956
G01 X35.36079 Y-13.66771
G01 X35.42619 Y-13.61887
G01 X36.54618 Y-12.50097
G01 X36.62223 Y-12.40521
G01 X36.66233 Y-12.34105
G01 X36.70574 Y-12.24806
G01 X36.72335 Y-12.20122
G01 X36.74847 Y-12.10168
G01 X36.75548 Y-12.05758
G01 X36.76132 Y-11.87097
G01 X36.76023 Y-0.59116
G01 X36.73071 Y-0.02830
G01 X36.73071 Y0.02830
G01 X36.76023 Y0.59113
G01 X36.76170 Y4.68150
G01 X36.74773 Y4.80644
G01 X36.73074 Y4.88020
G01 X36.71456 Y4.92780
G01 X36.67498 Y5.02227
G01 X36.62238 Y5.11038
G01 X36.59614 Y5.14652
G01 X36.46833 Y5.28259
G01 X21.34525 Y20.40613
G01 X21.22848 Y20.49694
G01 X21.13150 Y20.54845
G01 X21.04517 Y20.58225
G01 X20.94606 Y20.60870
G01 X20.90006 Y20.61492
G01 X20.79770 Y20.62023
G01 X12.33871 Y20.62201
G01 X12.26121 Y20.62968
G01 X12.15133 Y20.64761
G01 X12.02497 Y20.68073
G01 X11.91509 Y20.72041
G01 X11.75466 Y20.79650
G01 X11.60087 Y20.88807
G04 P0 ( dwell for no time -- G64 should not smooth over this point )
G00 Z2.00000 ( retract )

G00 X11.09998 Y16.61447 ( rapid move to begin. )
G01 F254.00000
( Mill infeed pass 1/1 )
G01 Z-0.12000
G04 P0 ( dwell for no time -- G64 should not smooth over this point )
G01 F100.00000
G01 X11.09998 Y16.61447
G01 X10.85974 Y16.42516
G01 X10.71265 Y16.29006
G01 X10.61032 Y16.18237
G01 X10.43234 Y16.04975
G01 X10.29188 Y15.97693
G01 X10.15528 Y15.92674
G01 X10.11238 Y15.91485
G01 X9.98141 Y15.89004
G01 X9.91883 Y15.88206
G01 X9.73483 Y15.88209
G01 X9.54758 Y15.91485
G01 X9.44489 Y15.94670
G01 X9.36808 Y15.97693
G01 X9.28258 Y16.01902
G01 X9.20067 Y16.06674
G01 X9.04966 Y16.18234
G01 X8.96280 Y16.27345
G01 X8.78728 Y16.43624
G01 X8.55998 Y16.61447
G04 P0 ( dwell for no time -- G64 should not smooth over this point )
G00 Z2.00000 ( retract )

G00 X6.01998 Y16.61447 ( rapid move to begin. )
G01 F254.00000
( Mill infeed pass 1/1 )
G01 Z-0.12000
G04 P0 ( dwell for no time -- G64 should not smooth over this point )
G01 F100.00000
G01 X6.01998 Y16.61447
G01 X5.77974 Y16.42516
G01 X5.63265 Y16.29006
G01 X5.53032 Y16.18237
G01 X5.35234 Y16.04975
G01 X5.21188 Y15.97693
G01 X5.07528 Y15.92674
G01 X5.03238 Y15.91485
G01 X4.90141 Y15.89004
G01 X4.83880 Y15.88206
G01 X4.65483 Y15.88209
G01 X4.46758 Y15.91485
G01 X4.36489 Y15.94670
G01 X4.28808 Y15.97693
G01 X4.20258 Y16.01902
G01 X4.12067 Y16.06674
G01 X3.96966 Y16.18234
G01 X3.88280 Y16.27345
G01 X3.70728 Y16.43624
G01 X3.47998 Y16.61447
G01 X3.47998 Y18.28546
G01 X3.72021 Y18.47479
G01 X3.86723 Y18.60982
G01 X3.96966 Y18.71762
G01 X4.14762 Y18.85020
G01 X4.28805 Y18.92303
G01 X4.36491 Y18.95325
G01 X4.46758 Y18.98508
G01 X4.65485 Y19.01787
G01 X4.84508 Y19.01787
G01 X5.03235 Y18.98508
G01 X5.13502 Y18.95325
G01 X5.21190 Y18.92300
G01 X5.29735 Y18.88094
G01 X5.40403 Y18.82074
G01 X5.57693 Y18.73410
G01 X5.73740 Y18.66636
G01 X5.88350 Y18.61020
G04 P0 ( dwell for no time -- G64 should not smooth over this point )
G00 Z2.00000 ( retract )

G00 X3.47998 Y18.28546 ( rapid move to begin. )
G01 F254.00000
( Mill infeed pass 1/1 )
G01 Z-0.12000
G04 P0 ( dwell for no time -- G64 should not smooth over this point )
G01 F100.00000
G01 X3.47998 Y18.28546
G01 X3.25262 Y18.46377
G01 X3.07721 Y18.62643
G01 X2.99027 Y18.71764
G01 X2.83929 Y18.83321
G01 X2.75735 Y18.88094
G01 X2.67188 Y18.92303
G01 X2.53528 Y18.97322
G01 X2.49238 Y18.98508
G01 X2.36141 Y19.00992
G01 X2.29883 Y19.01789
G01 X2.11485 Y19.01787
G01 X2.05852 Y19.00992
G01 X1.92758 Y18.98508
G01 X1.82491 Y18.95325
G01 X1.74805 Y18.92303
G01 X1.60762 Y18.85020
G01 X1.42966 Y18.71762
G01 X1.30137 Y18.57715
G01 X1.19850 Y18.41736
G01 X1.14719 Y18.30870
G01 X1.12232 Y18.24337
G01 X1.09238 Y18.13966
G01 X1.07472 Y18.05940
G01 X1.05971 Y17.86997
G01 X1.06055 Y16.99852
G01 X1.07808 Y16.82168
G01 X1.12232 Y16.65658
G01 X1.14719 Y16.59123
G01 X1.19850 Y16.48257
G01 X1.30139 Y16.32278
G01 X1.42966 Y16.18234
G01 X1.58067 Y16.06674
G01 X1.66258 Y16.01902
G01 X1.74808 Y15.97693
G01 X1.88465 Y15.92674
G01 X1.92758 Y15.91485
G01 X2.11483 Y15.88209
G01 X2.30510 Y15.88209
G01 X2.49238 Y15.91485
G01 X2.53528 Y15.92674
G01 X2.67188 Y15.97693
G01 X2.75735 Y16.01902
G01 X2.83929 Y16.06674
G01 X2.99029 Y16.18234
G01 X3.09273 Y16.29014
G01 X3.23974 Y16.42516
G01 X3.47998 Y16.61447
G04 P0 ( dwell for no time -- G64 should not smooth over this point )
G00 Z2.00000 ( retract )

G00 X-10.15997 Y24.44387 ( rapid move to begin. )
G01 F254.00000
( Mill infeed pass 1/1 )
G01 Z-0.12000
G04 P0 ( dwell for no time -- G64 should not smooth over this point )
G01 F100.00000
G01 X-10.15997 Y24.44387
G01 X-10.29157 Y24.53607
G01 X-10.38532 Y24.60879
G01 X-10.48111 Y24.68997
G01 X-10.61570 Y24.81842
G01 X-10.77333 Y24.93907
G01 X-10.80262 Y24.95751
G01 X-10.94798 Y25.03277
G01 X-11.02947 Y25.06482
G01 X-11.13533 Y25.09754
G01 X-11.27328 Y25.12370
G01 X-11.33589 Y25.13178
G01 X-11.52921 Y25.13175
G01 X-11.58667 Y25.12370
G01 X-11.72461 Y25.09754
G01 X-11.77074 Y25.08476
G01 X-11.91196 Y25.03277
G01 X-12.00236 Y24.98827
G01 X-12.08662 Y24.93907
G01 X-12.24956 Y24.81372
G01 X-12.30417 Y24.75664
G01 X-12.46287 Y24.61885
G01 X-12.57821 Y24.52911
G01 X-12.69997 Y24.44387
G01 X-12.83155 Y24.53604
G01 X-12.95187 Y24.63041
G01 X-13.19055 Y24.84671
G01 X-13.31333 Y24.93907
G01 X-13.39759 Y24.98827
G01 X-13.48798 Y25.03277
G01 X-13.56947 Y25.06482
G01 X-13.67533 Y25.09754
G01 X-13.87074 Y25.13175
G01 X-14.06921 Y25.13175
G01 X-14.26461 Y25.09754
G01 X-14.37048 Y25.06482
G01 X-14.45196 Y25.03277
G01 X-14.54236 Y24.98827
G01 X-14.62662 Y24.93907
G01 X-14.78420 Y24.81847
G01 X-14.92298 Y24.66546
G01 X-15.02540 Y24.50516
G01 X-15.07843 Y24.39304
G01 X-15.10487 Y24.32360
G01 X-15.13650 Y24.21407
G01 X-15.15453 Y24.13165
G01 X-15.17023 Y23.93399
G01 X-15.17023 Y22.73397
G01 X-15.15468 Y22.53717
G01 X-15.13650 Y22.45388
G01 X-15.10487 Y22.34438
G01 X-15.05298 Y22.21733
G01 X-15.02540 Y22.16282
G01 X-14.95877 Y22.05444
G01 X-14.91800 Y21.99604
G01 X-14.84810 Y21.91926
G01 X-14.73904 Y21.78865
G01 X-14.65999 Y21.68489
G01 X-14.54175 Y21.51398
G01 X-10.45500 Y21.51398
G04 P0 ( dwell for no time -- G64 should not smooth over this point )
G00 Z2.00000 ( retract )

G00 X-14.54175 Y21.51398 ( rapid move to begin. )
G01 F254.00000
( Mill infeed pass 1/1 )
G01 Z-0.12000
G04 P0 ( dwell for no time -- G64 should not smooth over this point )
G01 F100.00000
G01 X-14.54175 Y21.51398
G01 X-14.66393 Y21.33737
G01 X-14.74300 Y21.23463
G01 X-14.92296 Y21.02543
G01 X-15.02540 Y20.86513
G01 X-15.07843 Y20.75304
G01 X-15.10487 Y20.68358
G01 X-15.13650 Y20.57408
G01 X-15.15468 Y20.49079
G01 X-15.17023 Y20.29397
G01 X-15.17023 Y19.09399
G01 X-15.15453 Y18.89630
G01 X-15.13650 Y18.81388
G01 X-15.10487 Y18.70438
G01 X-15.07843 Y18.63491
G01 X-15.02540 Y18.52280
G01 X-14.95877 Y18.41444
G01 X-14.91803 Y18.35607
G01 X-14.78420 Y18.20949
G01 X-14.74940 Y18.18124
G01 X-14.59733 Y18.07045
G01 X-14.45194 Y17.99519
G01 X-14.31077 Y17.94319
G01 X-14.26461 Y17.93042
G01 X-14.12667 Y17.90426
G01 X-14.06924 Y17.89620
G01 X-13.87071 Y17.89620
G01 X-13.67533 Y17.93042
G01 X-13.62918 Y17.94319
G01 X-13.48801 Y17.99519
G01 X-13.34262 Y18.07045
G01 X-13.31333 Y18.08889
G01 X-13.15037 Y18.21424
G01 X-13.09578 Y18.27131
G01 X-12.93703 Y18.40916
G01 X-12.82172 Y18.49885
G01 X-12.69997 Y18.58409
G01 X-12.56838 Y18.49189
G01 X-12.47463 Y18.41917
G01 X-12.37884 Y18.33799
G01 X-12.24420 Y18.20949
G01 X-12.08662 Y18.08889
G01 X-12.00236 Y18.03969
G01 X-11.91611 Y17.99722
G01 X-11.76574 Y17.91297
G01 X-11.64867 Y17.84175
G01 X-11.43097 Y17.69057
G04 P0 ( dwell for no time -- G64 should not smooth over this point )
G00 Z2.00000 ( retract )

G00 X-11.36988 Y9.82998 ( rapid move to begin. )
G01 F254.00000
( Mill infeed pass 1/1 )
G01 Z-0.12000
G04 P0 ( dwell for no time -- G64 should not smooth over this point )
G01 F100.00000
G01 X-11.36988 Y9.82998
G01 X-11.45512 Y9.95172
G01 X-11.54486 Y10.06706
G01 X-11.68263 Y10.22576
G01 X-11.73970 Y10.28040
G01 X-11.86505 Y10.44334
G01 X-11.91425 Y10.52759
G01 X-11.95875 Y10.61799
G01 X-11.99081 Y10.69947
G01 X-12.02352 Y10.80534
G01 X-12.05774 Y11.00071
G01 X-12.05774 Y11.19924
G01 X-12.02352 Y11.39462
G01 X-11.99081 Y11.50048
G01 X-11.95875 Y11.58197
G01 X-11.91425 Y11.67237
G01 X-11.86505 Y11.75662
G01 X-11.74445 Y11.91420
G01 X-11.59787 Y12.04803
G01 X-11.53950 Y12.08880
G01 X-11.43114 Y12.15540
G01 X-11.31905 Y12.20843
G01 X-11.24958 Y12.23488
G01 X-11.14011 Y12.26650
G01 X-11.05764 Y12.28453
G01 X-10.85997 Y12.30023
G01 X-10.07039 Y12.29845
G01 X-9.90130 Y12.28077
G01 X-9.73036 Y12.23488
G01 X-9.66092 Y12.20843
G01 X-9.54880 Y12.15540
G01 X-9.44044 Y12.08877
G01 X-9.38207 Y12.04803
G01 X-9.23549 Y11.91420
G01 X-9.11489 Y11.75662
G01 X-9.06569 Y11.67237
G01 X-9.02119 Y11.58194
G01 X-8.96920 Y11.44077
G01 X-8.95642 Y11.39462
G01 X-8.92221 Y11.19924
G01 X-8.92221 Y11.00071
G01 X-8.95642 Y10.80534
G01 X-8.96920 Y10.75919
G01 X-9.02119 Y10.61801
G01 X-9.06569 Y10.52759
G01 X-9.11489 Y10.44334
G01 X-9.23549 Y10.28576
G01 X-9.36396 Y10.15111
G01 X-9.44514 Y10.05533
G01 X-9.51789 Y9.96158
G01 X-9.61009 Y9.82998
G04 P0 ( dwell for no time -- G64 should not smooth over this point )
G00 Z2.00000 ( retract )

G00 X-11.36988 Y7.28998 ( rapid move to begin. )
G01 F254.00000
( Mill infeed pass 1/1 )
G01 Z-0.12000
G04 P0 ( dwell for no time -- G64 should not smooth over this point )
G01 F100.00000
G01 X-11.36988 Y7.28998
G01 X-11.46200 Y7.15846
G01 X-11.53475 Y7.06468
G01 X-11.61600 Y6.96882
G01 X-11.74443 Y6.83423
G01 X-11.86505 Y6.67662
G01 X-11.88352 Y6.64733
G01 X-11.95875 Y6.50197
G01 X-11.99081 Y6.42049
G01 X-12.02352 Y6.31462
G01 X-12.04968 Y6.17670
G01 X-12.05774 Y6.11924
G01 X-12.05774 Y5.92071
G01 X-12.02375 Y5.72651
G01 X-11.99030 Y5.61970
G01 X-11.86139 Y5.28396
G01 X-11.78616 Y5.01785
G01 X-11.76084 Y4.91147
G04 P0 ( dwell for no time -- G64 should not smooth over this point )
G00 Z2.00000 ( retract )

G00 X-9.61009 Y7.28998 ( rapid move to begin. )
G01 F254.00000
( Mill infeed pass 1/1 )
G01 Z-0.12000
G04 P0 ( dwell for no time -- G64 should not smooth over this point )
G01 F100.00000
G01 X-9.61009 Y7.28998
G01 X-9.51789 Y7.42158
G01 X-9.44514 Y7.51533
G01 X-9.36396 Y7.61111
G01 X-9.23549 Y7.74576
G01 X-9.11489 Y7.90334
G01 X-9.06569 Y7.98759
G01 X-9.02119 Y8.07801
G01 X-8.98914 Y8.15947
G01 X-8.95642 Y8.26534
G01 X-8.92221 Y8.46071
G01 X-8.92221 Y8.65924
G01 X-8.93026 Y8.71667
G01 X-8.95642 Y8.85462
G01 X-8.98914 Y8.96049
G01 X-9.02119 Y9.04194
G01 X-9.06569 Y9.13237
G01 X-9.11489 Y9.21662
G01 X-9.24024 Y9.37959
G01 X-9.29734 Y9.43419
G01 X-9.43511 Y9.59287
G01 X-9.52477 Y9.70813
G01 X-9.61009 Y9.82998
G01 X-11.36988 Y9.82998
G01 X-11.46200 Y9.69846
G01 X-11.53475 Y9.60468
G01 X-11.61600 Y9.50882
G01 X-11.74443 Y9.37423
G01 X-11.86505 Y9.21662
G01 X-11.91425 Y9.13237
G01 X-11.95875 Y9.04197
G01 X-11.99081 Y8.96049
G01 X-12.02352 Y8.85462
G01 X-12.05774 Y8.65924
G01 X-12.05774 Y8.46071
G01 X-12.04968 Y8.40326
G01 X-12.02352 Y8.26534
G01 X-11.99081 Y8.15947
G01 X-11.95875 Y8.07799
G01 X-11.91425 Y7.98759
G01 X-11.86505 Y7.90334
G01 X-11.73970 Y7.74040
G01 X-11.68263 Y7.68576
G01 X-11.54486 Y7.52706
G01 X-11.45512 Y7.41172
G01 X-11.36988 Y7.28998
G01 X-9.61009 Y7.28998
G01 X-9.52477 Y7.16813
G01 X-9.43511 Y7.05287
G01 X-9.29734 Y6.89420
G01 X-9.24024 Y6.83958
G01 X-9.11489 Y6.67662
G01 X-9.06569 Y6.59237
G01 X-9.02119 Y6.50194
G01 X-8.98914 Y6.42049
G01 X-8.95642 Y6.31459
G01 X-8.93026 Y6.17667
G01 X-8.92218 Y6.11403
G01 X-8.92221 Y5.92071
G01 X-8.95642 Y5.72534
G01 X-8.98914 Y5.61947
G01 X-9.02119 Y5.53801
G01 X-9.06569 Y5.44759
G01 X-9.11489 Y5.36334
G01 X-9.23549 Y5.20576
G01 X-9.36396 Y5.07111
G01 X-9.44514 Y4.97533
G01 X-9.51789 Y4.88158
G01 X-9.61009 Y4.74998
G04 P0 ( dwell for no time -- G64 should not smooth over this point )
G00 Z2.00000 ( retract )

G00 X-11.76406 Y2.04724 ( rapid move to begin. )
G01 F254.00000
( Mill infeed pass 1/1 )
G01 Z-0.12000
G04 P0 ( dwell for no time -- G64 should not smooth over this point )
G01 F100.00000
G01 X-11.76406 Y2.04724
G01 X-11.80889 Y1.85326
G01 X-11.86576 Y1.66286
G01 X-11.99055 Y1.34038
G01 X-12.02362 Y1.23406
G01 X-12.05774 Y1.03924
G01 X-12.05774 Y0.84071
G01 X-12.04968 Y0.78326
G01 X-12.02352 Y0.64534
G01 X-11.99081 Y0.53947
G01 X-11.95875 Y0.45799
G01 X-11.88352 Y0.31262
G01 X-11.86508 Y0.28334
G01 X-11.73970 Y0.12042
G01 X-11.68263 Y0.06576
G01 X-11.54486 Y-0.09289
G01 X-11.45512 Y-0.20823
G01 X-11.36988 Y-0.33000
G04 P0 ( dwell for no time -- G64 should not smooth over this point )
G00 Z2.00000 ( retract )

G00 X-9.61009 Y-2.86997 ( rapid move to begin. )
G01 F254.00000
( Mill infeed pass 1/1 )
G01 Z-0.12000
G04 P0 ( dwell for no time -- G64 should not smooth over this point )
G01 F100.00000
G01 X-9.61009 Y-2.86997
G01 X-9.51789 Y-2.73837
G01 X-9.44514 Y-2.64462
G01 X-9.36396 Y-2.54884
G01 X-9.23549 Y-2.41419
G01 X-9.11489 Y-2.25661
G01 X-9.06569 Y-2.17236
G01 X-9.02119 Y-2.08194
G01 X-8.98914 Y-2.00048
G01 X-8.95642 Y-1.89461
G01 X-8.92221 Y-1.69923
G01 X-8.92221 Y-1.50071
G01 X-8.93026 Y-1.44328
G01 X-8.95642 Y-1.30533
G01 X-8.98914 Y-1.19946
G01 X-9.02119 Y-1.11801
G01 X-9.06569 Y-1.02758
G01 X-9.11489 Y-0.94333
G01 X-9.24024 Y-0.78036
G01 X-9.29734 Y-0.72575
G01 X-9.43511 Y-0.56708
G01 X-9.52477 Y-0.45182
G01 X-9.61009 Y-0.32997
G01 X-11.36988 Y-0.33000
G01 X-11.46200 Y-0.46149
G01 X-11.53475 Y-0.55527
G01 X-11.61600 Y-0.65113
G01 X-11.74443 Y-0.78572
G01 X-11.86505 Y-0.94333
G01 X-11.91425 Y-1.02758
G01 X-11.95875 Y-1.11798
G01 X-11.99081 Y-1.19946
G01 X-12.02352 Y-1.30533
G01 X-12.05774 Y-1.50071
G01 X-12.05774 Y-1.69923
G01 X-12.04968 Y-1.75669
G01 X-12.02352 Y-1.89461
G01 X-11.99081 Y-2.00048
G01 X-11.95875 Y-2.08196
G01 X-11.91425 Y-2.17236
G01 X-11.86505 Y-2.25661
G01 X-11.73970 Y-2.41955
G01 X-11.68263 Y-2.47419
G01 X-11.54486 Y-2.63289
G01 X-11.45512 Y-2.74823
G01 X-11.36988 Y-2.86997
G01 X-9.61009 Y-2.86997
G01 X-9.52477 Y-2.99182
G01 X-9.43511 Y-3.10708
G01 X-9.29734 Y-3.26575
G01 X-9.24024 Y-3.32039
G01 X-9.11489 Y-3.48331
G01 X-9.06569 Y-3.56758
G01 X-9.02119 Y-3.65801
G01 X-8.98914 Y-3.73946
G01 X-8.95642 Y-3.84533
G01 X-8.93026 Y-3.98328
G01 X-8.92218 Y-4.04589
G01 X-8.92221 Y-4.23923
G01 X-8.95642 Y-4.43461
G01 X-8.98914 Y-4.54048
G01 X-9.02119 Y-4.62194
G01 X-9.06569 Y-4.71236
G01 X-9.11489 Y-4.79661
G01 X-9.23549 Y-4.95419
G01 X-9.36396 Y-5.08884
G01 X-9.44514 Y-5.18462
G01 X-9.51789 Y-5.27837
G01 X-9.61009 Y-5.40997
G04 P0 ( dwell for no time -- G64 should not smooth over this point )
G00 Z2.00000 ( retract )

G00 X-11.36988 Y-5.40997 ( rapid move to begin. )
G01 F254.00000
( Mill infeed pass 1/1 )
G01 Z-0.12000
G04 P0 ( dwell for no time -- G64 should not smooth over this point )
G01 F100.00000
G01 X-11.36988 Y-5.40997
G01 X-11.45512 Y-5.28823
G01 X-11.54486 Y-5.17289
G01 X-11.68263 Y-5.01419
G01 X-11.73970 Y-4.95955
G01 X-11.86505 Y-4.79661
G01 X-11.88352 Y-4.76733
G01 X-11.95875 Y-4.62196
G01 X-12.01075 Y-4.48079
G01 X-12.02352 Y-4.43461
G01 X-12.04968 Y-4.29669
G01 X-12.05776 Y-4.23403
G01 X-12.05774 Y-4.04071
G01 X-12.02352 Y-3.84533
G01 X-11.99081 Y-3.73946
G01 X-11.95875 Y-3.65798
G01 X-11.91425 Y-3.56758
G01 X-11.86505 Y-3.48331
G01 X-11.77270 Y-3.36055
G01 X-11.55642 Y-3.12189
G01 X-11.46200 Y-3.00149
G01 X-11.36988 Y-2.86997
G04 P0 ( dwell for no time -- G64 should not smooth over this point )
G00 Z2.00000 ( retract )

G00 X-9.61009 Y-0.32997 ( rapid move to begin. )
G01 F254.00000
( Mill infeed pass 1/1 )
G01 Z-0.12000
G04 P0 ( dwell for no time -- G64 should not smooth over this point )
G01 F100.00000
G01 X-9.61009 Y-0.32997
G01 X-9.51789 Y-0.19837
G01 X-9.44514 Y-0.10462
G01 X-9.36396 Y-0.00886
G01 X-9.23547 Y0.12578
G01 X-9.11489 Y0.28334
G01 X-9.09645 Y0.31262
G01 X-9.02119 Y0.45801
G01 X-8.96920 Y0.59919
G01 X-8.95642 Y0.64534
G01 X-8.93026 Y0.78329
G01 X-8.92218 Y0.84592
G01 X-8.92221 Y1.03924
G01 X-8.95642 Y1.23462
G01 X-8.98914 Y1.34048
G01 X-9.02119 Y1.42194
G01 X-9.06569 Y1.51237
G01 X-9.11489 Y1.59662
G01 X-9.20725 Y1.71940
G01 X-9.24024 Y1.75958
G01 X-9.29734 Y1.81420
G01 X-9.43511 Y1.97287
G01 X-9.52477 Y2.08813
G01 X-9.61009 Y2.20998
G01 X-10.86000 Y2.20995
G01 X-11.08690 Y2.19908
G01 X-11.16744 Y2.19060
