( pcb2gcode 2.4.0 )
( Software-independent Gcode )

G94 ( Millimeters per minute feed rate. )
G21 ( Units == Millimeters. )

G90 ( Absolute coordinates. )
G00 S2 ( RPM spindle speed. )
G01 F100.00000 ( Feedrate. )


G00 Z2.00000 (Retract to tool change height)
T0
M5      (Spindle stop.)
G04 P1.00000 (Wait for spindle to stop)
(MSG, Change tool bit to mill diameter 0.00000mm)
M0      (Temporary machine stop.)
M3 ( Spindle on clockwise. )
G04 P1.00000 (Wait for spindle to get up to speed)
G04 P0 ( dwell for no time -- G64 should not smooth over this point )
G00 Z1.20000 ( retract )

G00 X11.87889 Y-3.25874 ( rapid move to begin. )
G01 F254.00000
( Mill infeed pass 1/1 )
G01 Z-0.11000
G04 P0 ( dwell for no time -- G64 should not smooth over this point )
G01 F100.00000
G01 X11.87889 Y-3.25874
G01 X11.82223 Y-3.16337
G01 X11.72337 Y-2.98016
G01 X11.62695 Y-2.75948
G01 X11.56962 Y-2.60264
G01 X11.47117 Y-2.42692
G01 X11.41989 Y-2.35687
G01 X11.34621 Y-2.26919
G01 X11.28702 Y-2.20927
G01 X11.19863 Y-2.13253
G01 X11.07976 Y-2.05014
G01 X11.02578 Y-2.01737
G01 X10.84438 Y-1.93650
G01 X10.65296 Y-1.88714
G01 X10.52698 Y-1.87076
G01 X10.45286 Y-1.86703
G01 X10.32835 Y-1.87081
G01 X10.25190 Y-1.87785
G01 X10.05515 Y-1.92115
G01 X9.86904 Y-1.99804
G01 X9.83005 Y-2.01841
G01 X9.69721 Y-2.10264
G01 X9.57966 Y-2.19738
G01 X8.76579 Y-3.01036
G01 X8.65723 Y-3.13431
G01 X8.56135 Y-3.27536
G01 X8.48401 Y-3.36283
G01 X5.99775 Y-5.84911
G01 X5.95112 Y-5.89110
G01 X5.81236 Y-6.00085
G01 X5.73954 Y-6.01188
G01 X5.57400 Y-6.02463
G01 X4.04180 Y-6.02463
G01 X3.96088 Y-6.02158
G01 X3.85056 Y-6.00710
G01 X3.62174 Y-5.87530
G01 X3.43378 Y-5.79544
G01 X3.23477 Y-5.74957
G01 X3.13588 Y-5.73857
G01 X3.03134 Y-5.73446
G01 X2.92679 Y-5.73857
G01 X2.82791 Y-5.74957
G01 X2.65958 Y-5.78767
G01 X2.59956 Y-5.80715
G01 X2.44097 Y-5.87530
G01 X2.35450 Y-5.92452
G01 X2.26751 Y-5.98264
G01 X2.18537 Y-6.04741
G01 X2.11193 Y-6.11454
G01 X1.73010 Y-6.49638
G01 X1.59596 Y-6.65033
G01 X1.49083 Y-6.82544
G01 X1.44978 Y-6.91612
G01 X1.41359 Y-7.01421
G01 X1.38519 Y-7.11495
G01 X1.36510 Y-7.21238
G01 X1.34932 Y-7.38426
G01 X1.34932 Y-7.44733
G01 X1.36510 Y-7.61921
G01 X1.38519 Y-7.71670
G01 X1.41359 Y-7.81736
G01 X1.44981 Y-7.91550
G01 X1.49083 Y-8.00618
G01 X1.59596 Y-8.18124
G01 X1.72997 Y-8.33531
G01 X1.80353 Y-8.40237
G01 X1.88567 Y-8.46714
G01 X2.02682 Y-8.55746
G01 X2.05913 Y-8.57448
G01 X2.24709 Y-8.65431
G01 X2.44607 Y-8.70021
G01 X2.54498 Y-8.71121
G01 X2.64950 Y-8.71532
G01 X2.75405 Y-8.71121
G01 X2.85293 Y-8.70021
G01 X3.02130 Y-8.66209
G01 X3.08127 Y-8.64260
G01 X3.23987 Y-8.57446
G01 X3.46819 Y-8.44088
G01 X3.60436 Y-8.42772
G01 X5.45348 Y-8.42513
G01 X5.58599 Y-8.43328
G01 X5.69097 Y-8.45005
G01 X5.80085 Y-8.47697
G01 X5.93872 Y-8.52505
G01 X6.04860 Y-8.57479
G01 X6.23237 Y-8.68055
G01 X6.29369 Y-8.72340
G04 P0 ( dwell for no time -- G64 should not smooth over this point )
G00 Z1.20000 ( retract )

G00 X1.76342 Y-14.21699 ( rapid move to begin. )
G01 F254.00000
( Mill infeed pass 1/1 )
G01 Z-0.11000
G04 P0 ( dwell for no time -- G64 should not smooth over this point )
G01 F100.00000
G01 X1.76342 Y-14.21699
G01 X1.54673 Y-14.32557
G01 X1.37810 Y-14.39705
G01 X1.25994 Y-14.43970
G01 X1.15471 Y-14.47315
G01 X1.07490 Y-14.49352
G01 X0.88880 Y-14.57041
G01 X0.79558 Y-14.62281
G01 X0.71694 Y-14.67498
G01 X0.59944 Y-14.76972
G01 X-0.21440 Y-15.58272
G01 X-0.32271 Y-15.70688
G01 X-0.39990 Y-15.82019
G01 X-0.45888 Y-15.92989
G01 X-0.49101 Y-15.99964
G01 X-0.55189 Y-16.19166
G01 X-0.57836 Y-16.39128
G01 X-0.57958 Y-16.49824
G01 X-0.57368 Y-16.59240
G01 X-0.55880 Y-16.69578
G01 X-0.53825 Y-16.79044
G01 X-0.47229 Y-16.98071
G01 X-0.33462 Y-17.23738
G01 X-0.26561 Y-17.39008
G01 X-0.20645 Y-17.54505
G01 X-0.14216 Y-17.73639
G04 P0 ( dwell for no time -- G64 should not smooth over this point )
G00 Z1.20000 ( retract )

G00 X2.93248 Y-17.15740 ( rapid move to begin. )
G01 F254.00000
( Mill infeed pass 1/1 )
G01 Z-0.11000
G04 P0 ( dwell for no time -- G64 should not smooth over this point )
G01 F100.00000
G01 X2.93248 Y-17.15740
G01 X1.82077 Y-17.61792
G01 X1.67025 Y-17.67502
G01 X1.47165 Y-17.73956
G01 X1.35852 Y-17.76997
G01 X1.15992 Y-17.81218
G01 X1.06048 Y-17.82798
G01 X0.86185 Y-17.84886
G01 X0.76891 Y-17.85374
G01 X0.57028 Y-17.85374
G01 X0.47732 Y-17.84886
G01 X0.27871 Y-17.82798
G01 X0.17930 Y-17.81218
G01 X-0.01928 Y-17.76997
G01 X-0.14216 Y-17.73639
G01 X-0.28062 Y-17.81785
G01 X-0.39050 Y-17.87256
G01 X-0.53536 Y-17.92920
G01 X-0.64524 Y-17.96047
G01 X-0.76426 Y-17.98292
G01 X-0.92979 Y-17.99567
G01 X-2.36471 Y-17.99405
G01 X-2.57675 Y-18.00418
G01 X-2.61051 Y-18.00860
G01 X-2.76784 Y-18.04535
G01 X-2.80330 Y-18.05645
G01 X-2.94312 Y-18.11429
G01 X-2.98569 Y-18.13563
G01 X-3.12265 Y-18.22074
G01 X-3.14965 Y-18.24149
G01 X-3.30675 Y-18.38427
G01 X-3.66781 Y-18.74761
G01 X-3.76591 Y-18.83446
G01 X-3.84160 Y-18.89051
G01 X-4.09992 Y-18.93336
G01 X-4.19438 Y-18.95742
G01 X-4.29011 Y-18.98929
G01 X-4.46905 Y-19.07497
G01 X-4.63024 Y-19.19082
G01 X-4.67970 Y-19.23740
G01 X-4.76948 Y-19.33204
G01 X-4.84246 Y-19.42818
G01 X-4.88447 Y-19.49346
G01 X-4.96313 Y-19.64827
G01 X-5.03042 Y-19.86092
G01 X-5.04731 Y-19.98802
G01 X-5.07340 Y-20.12503
G01 X-5.21376 Y-20.29356
G01 X-5.46387 Y-20.54367
G01 X-5.56202 Y-20.63057
G01 X-5.63763 Y-20.68655
G01 X-5.89600 Y-20.72942
G01 X-5.99046 Y-20.75348
G01 X-6.08614 Y-20.78535
G01 X-6.22231 Y-20.84890
G01 X-6.26511 Y-20.87100
G01 X-6.42709 Y-20.98749
G01 X-6.60504 Y-21.13834
G01 X-6.69125 Y-21.15233
G01 X-6.85676 Y-21.16508
G01 X-14.54534 Y-21.16508
G01 X-14.63919 Y-21.16897
G01 X-14.71940 Y-21.17824
G01 X-14.80447 Y-21.19828
G01 X-14.88796 Y-21.22411
G01 X-14.95600 Y-21.25154
G01 X-15.04594 Y-21.29831
G01 X-15.12024 Y-21.34428
G01 X-15.18354 Y-21.39445
G01 X-15.25262 Y-21.45805
G01 X-20.71649 Y-26.92113
G01 X-20.77877 Y-26.97541
G01 X-20.92274 Y-27.08039
G01 X-21.24850 Y-27.07759
G01 X-21.28980 Y-27.08016
G01 X-21.43694 Y-27.10157
G01 X-21.52620 Y-27.12430
G01 X-21.61918 Y-27.15519
G01 X-21.79069 Y-27.23731
G01 X-21.94517 Y-27.34831
G01 X-21.99343 Y-27.39387
G01 X-22.07862 Y-27.48364
G01 X-22.11248 Y-27.52580
G01 X-22.18880 Y-27.63835
G01 X-22.23803 Y-27.73083
G01 X-22.27308 Y-27.80866
G01 X-22.32863 Y-27.99055
G01 X-22.35103 Y-28.17942
G01 X-22.35022 Y-28.25847
G01 X-22.34212 Y-28.36923
G01 X-22.33176 Y-28.43522
G01 X-22.30321 Y-28.55516
G01 X-22.26371 Y-28.66573
G01 X-22.23524 Y-28.73261
G01 X-22.13864 Y-28.89649
G01 X-22.04654 Y-29.00545
G01 X-21.38629 Y-29.66750
G01 X-21.27517 Y-29.75681
G01 X-21.15457 Y-29.83238
G01 X-21.11218 Y-29.85435
G01 X-20.93562 Y-29.92481
G01 X-20.74946 Y-29.96402
G01 X-20.55945 Y-29.97035
G01 X-20.45561 Y-29.96060
G01 X-20.37100 Y-29.94637
G01 X-20.28180 Y-29.92364
G01 X-20.18878 Y-29.89278
G01 X-20.01726 Y-29.81063
G01 X-19.86277 Y-29.69964
G01 X-19.72932 Y-29.56430
G01 X-19.65869 Y-29.47106
G01 X-19.61914 Y-29.40959
G01 X-19.56991 Y-29.31711
G01 X-19.53486 Y-29.23931
G01 X-19.47931 Y-29.05740
G01 X-19.45681 Y-28.86738
G01 X-19.46115 Y-28.65623
G01 X-19.45757 Y-28.54056
G01 X-19.39105 Y-28.44366
G01 X-19.32054 Y-28.35877
G01 X-19.28302 Y-28.31760
G01 X-14.30655 Y-23.34110
G01 X-14.25989 Y-23.29909
G01 X-14.12116 Y-23.18939
G01 X-14.04833 Y-23.17836
G01 X-13.88283 Y-23.16561
G01 X-6.28106 Y-23.16770
G01 X-6.18193 Y-23.17598
G01 X-6.09511 Y-23.18931
G01 X-5.97781 Y-23.27831
G01 X-5.82369 Y-23.40348
G01 X-5.75338 Y-23.44984
G01 X-5.65363 Y-23.50524
G01 X-5.46941 Y-23.57877
G01 X-5.27517 Y-23.61971
G01 X-5.07688 Y-23.62629
G01 X-4.96987 Y-23.61636
G01 X-4.88028 Y-23.60127
G01 X-4.72570 Y-23.55850
G01 X-4.69011 Y-23.54534
G01 X-4.51112 Y-23.45964
G01 X-4.34995 Y-23.34382
G01 X-4.21071 Y-23.20260
G01 X-4.13774 Y-23.10646
G01 X-4.09572 Y-23.04118
G01 X-4.04373 Y-22.94349
G01 X-4.00779 Y-22.86348
G01 X-3.94978 Y-22.67372
G01 X-3.93289 Y-22.54661
G01 X-3.90680 Y-22.40956
G01 X-3.76646 Y-22.24108
G01 X-3.51638 Y-21.99096
G01 X-3.41815 Y-21.90405
G01 X-3.34259 Y-21.84809
G01 X-3.08422 Y-21.80521
G01 X-2.98973 Y-21.78116
G01 X-2.89405 Y-21.74928
G01 X-2.71511 Y-21.66361
G01 X-2.55394 Y-21.54776
G01 X-2.50452 Y-21.50123
G01 X-2.41465 Y-21.40654
G01 X-2.37848 Y-21.36153
G01 X-2.29967 Y-21.24512
G01 X-2.24765 Y-21.14738
G01 X-2.21186 Y-21.06770
G01 X-2.16332 Y-20.91121
G01 X-2.12771 Y-20.75894
G01 X-2.08440 Y-20.62386
G01 X-2.03660 Y-20.56892
G01 X-1.94549 Y-20.48198
G01 X-1.90071 Y-20.44652
G01 X-1.84760 Y-20.43140
G01 X-1.72852 Y-20.40895
G01 X-1.56301 Y-20.39617
G01 X0.23863 Y-20.39798
G01 X0.31610 Y-20.40565
G01 X0.42596 Y-20.42356
G01 X0.55237 Y-20.45668
G01 X0.66225 Y-20.49638
G01 X0.82266 Y-20.57245
G01 X0.97648 Y-20.66402
G04 P0 ( dwell for no time -- G64 should not smooth over this point )
G00 Z1.20000 ( retract )

G00 X3.99435 Y-22.21479 ( rapid move to begin. )
G01 F254.00000
( Mill infeed pass 1/1 )
G01 Z-0.11000
G04 P0 ( dwell for no time -- G64 should not smooth over this point )
G01 F100.00000
G01 X3.99435 Y-22.21479
G01 X3.90649 Y-22.28604
G01 X3.76141 Y-22.41700
G01 X3.59080 Y-22.60036
G01 X3.45331 Y-22.78573
G01 X3.32621 Y-22.93539
G01 X2.32423 Y-23.94207
G01 X2.25372 Y-24.02698
G01 X2.21000 Y-24.08629
G01 X2.18948 Y-24.26198
G01 X2.18623 Y-24.48403
G01 X2.19898 Y-24.64953
G01 X2.22143 Y-24.76861
G01 X2.27025 Y-24.93261
G01 X2.35003 Y-24.96952
G01 X2.45613 Y-25.01135
G01 X2.67137 Y-25.07790
G01 X2.90398 Y-25.15723
G01 X3.12044 Y-25.27353
G01 X3.26931 Y-25.37269
G01 X3.32156 Y-25.41440
G01 X3.50345 Y-25.58131
G01 X3.65516 Y-25.77313
G01 X3.72849 Y-25.88326
G01 X3.78402 Y-25.98217
G01 X3.88889 Y-26.22365
G01 X3.94660 Y-26.44430
G01 X3.97220 Y-26.59080
G01 X3.98211 Y-26.68732
G01 X3.97980 Y-26.96700
G01 X3.94660 Y-27.17607
G01 X3.88889 Y-27.39674
G01 X3.78402 Y-27.63820
G01 X3.72849 Y-27.73708
G01 X3.65514 Y-27.84724
G01 X3.54454 Y-27.99105
G01 X3.50266 Y-28.03987
G01 X3.32153 Y-28.20596
G01 X3.21813 Y-28.28435
G01 X3.12042 Y-28.34683
G01 X2.90398 Y-28.46314
G01 X2.67134 Y-28.54246
G01 X2.59093 Y-28.56382
G01 X2.43091 Y-28.59212
G01 X2.24739 Y-28.60805
G01 X-0.87539 Y-28.60805
G01 X-1.05893 Y-28.59212
G01 X-1.21890 Y-28.56382
G01 X-1.29934 Y-28.54246
G01 X-1.67185 Y-28.41490
G01 X-1.79956 Y-28.38293
G01 X-1.99022 Y-28.35087
G01 X-2.10683 Y-28.33591
G04 P0 ( dwell for no time -- G64 should not smooth over this point )
G00 Z1.20000 ( retract )

G00 X-2.78846 Y-26.83566 ( rapid move to begin. )
G01 F254.00000
( Mill infeed pass 1/1 )
G01 Z-0.11000
G04 P0 ( dwell for no time -- G64 should not smooth over this point )
G01 F100.00000
G01 X-2.78846 Y-26.83566
G01 X-2.96014 Y-26.80830
G01 X-3.07533 Y-26.77988
G01 X-3.30246 Y-26.70203
G01 X-3.52742 Y-26.60726
G01 X-3.74813 Y-26.54955
G01 X-3.89458 Y-26.52392
G01 X-3.99110 Y-26.51404
G01 X-4.27076 Y-26.51636
G01 X-4.47982 Y-26.54955
G01 X-4.64012 Y-26.58897
G01 X-4.71706 Y-26.61323
G01 X-4.94200 Y-26.71214
G01 X-4.98665 Y-26.73556
G01 X-5.15104 Y-26.84099
G01 X-5.34286 Y-26.99273
G01 X-5.50977 Y-27.17462
G01 X-5.58813 Y-27.27803
G01 X-5.65061 Y-27.37571
G01 X-5.76694 Y-27.59217
G01 X-5.84627 Y-27.82481
G01 X-5.86760 Y-27.90525
G01 X-5.89592 Y-28.06527
G01 X-5.91340 Y-28.27873
G01 X-5.91424 Y-30.31020
G01 X-5.89592 Y-30.55511
G01 X-5.86763 Y-30.71510
G01 X-5.84627 Y-30.79554
G01 X-5.76694 Y-31.02816
G01 X-5.65064 Y-31.24464
G01 X-5.58813 Y-31.34233
G01 X-5.50977 Y-31.44576
G01 X-5.34284 Y-31.62765
G01 X-5.15102 Y-31.77936
G01 X-4.98668 Y-31.88480
G01 X-4.94200 Y-31.90822
G01 X-4.71708 Y-32.00715
G01 X-4.64010 Y-32.03138
G01 X-4.47982 Y-32.07083
G01 X-4.33334 Y-32.09641
G01 X-4.23685 Y-32.10631
G01 X-3.99110 Y-32.10631
G01 X-3.89461 Y-32.09641
G01 X-3.74813 Y-32.07083
G01 X-3.58785 Y-32.03138
G01 X-3.51086 Y-32.00715
G01 X-3.28595 Y-31.90822
G01 X-3.18707 Y-31.85269
G01 X-3.07693 Y-31.77936
G01 X-2.88511 Y-31.62765
G01 X-2.71818 Y-31.44576
G01 X-2.67647 Y-31.39354
G01 X-2.57731 Y-31.24464
G01 X-2.48234 Y-31.07116
G01 X-2.45590 Y-31.01378
G01 X-2.38168 Y-30.79554
G01 X-2.36032 Y-30.71510
G01 X-2.33202 Y-30.55511
G01 X-2.31610 Y-30.37154
G01 X-2.31341 Y-29.01734
G01 X-2.30871 Y-28.94221
G01 X-2.29494 Y-28.83230
G01 X-2.26779 Y-28.71018
G01 X-2.23266 Y-28.60030
G01 X-2.16761 Y-28.44876
G01 X-2.10683 Y-28.33591
G01 X-2.21021 Y-28.12656
G01 X-2.31074 Y-27.88912
G01 X-2.40751 Y-27.69131
G01 X-2.46878 Y-27.54140
G01 X-2.53776 Y-27.40604
G01 X-2.63055 Y-27.18552
G01 X-2.69928 Y-27.05064
G01 X-2.78846 Y-26.83566
G01 X-2.68531 Y-26.65341
G01 X-2.60116 Y-26.47833
G01 X-2.56606 Y-26.38905
G01 X-2.51092 Y-26.20706
G01 X-2.41201 Y-25.98217
G01 X-2.38862 Y-25.93749
G01 X-2.28316 Y-25.77313
G01 X-2.13065 Y-25.58049
G01 X-1.94955 Y-25.41440
G01 X-1.89730 Y-25.37269
G01 X-1.74843 Y-25.27353
G01 X-1.57495 Y-25.17859
G01 X-1.51757 Y-25.15212
G01 X-1.29936 Y-25.07790
G01 X-1.13121 Y-25.02657
G01 X-1.01387 Y-24.98484
G01 X-0.89913 Y-24.93188
G01 X-0.85923 Y-24.80699
G01 X-0.83454 Y-24.69713
G01 X-0.82042 Y-24.59932
G01 X-0.81547 Y-24.52268
G01 X-0.81473 Y-23.43132
G01 X-0.79903 Y-23.22543
G01 X-0.74806 Y-23.00671
G01 X-0.66495 Y-22.79810
G01 X-0.64503 Y-22.75794
G01 X-0.54318 Y-22.59134
G01 X-0.41636 Y-22.43602
G01 X0.60013 Y-21.41916
G01 X0.70815 Y-21.29310
G01 X0.77650 Y-21.19297
G01 X0.83208 Y-21.09318
G01 X0.89436 Y-20.95083
G01 X0.93340 Y-20.83443
G01 X0.97648 Y-20.66402
G01 X1.29129 Y-20.54840
G01 X1.37744 Y-20.52218
G01 X1.61267 Y-20.46328
G01 X1.68323 Y-20.44921
G01 X1.91849 Y-20.41431
G01 X2.21554 Y-20.39666
G01 X2.50975 Y-20.40821
G01 X2.80683 Y-20.44921
G01 X2.87739 Y-20.46328
G01 X3.11262 Y-20.52218
G01 X3.31246 Y-20.58909
G01 X3.40263 Y-20.67082
G01 X3.47012 Y-20.73831
G01 X3.62831 Y-20.91281
G01 X3.69125 Y-20.98957
G01 X3.83291 Y-21.18060
G01 X3.89438 Y-21.27265
G01 X4.03024 Y-21.49970
G01 X4.00969 Y-21.78779
G01 X3.99435 Y-22.10438
G01 X3.99435 Y-22.21479
G01 X4.08081 Y-22.29500
G01 X4.25856 Y-22.47674
G01 X4.41719 Y-22.66904
G01 X4.51615 Y-22.80488
G01 X4.58978 Y-22.89251
G01 X4.69555 Y-22.99487
G01 X4.73738 Y-23.02919
G01 X4.85623 Y-23.11159
G01 X4.90433 Y-23.14169
G01 X5.09163 Y-23.22523
G01 X5.28302 Y-23.27458
G01 X5.34642 Y-23.28448
G01 X5.67616 Y-23.31222
G01 X5.80106 Y-23.32802
G01 X5.98739 Y-23.36424
G04 P0 ( dwell for no time -- G64 should not smooth over this point )
G00 Z1.20000 ( retract )

G00 X9.42360 Y-27.10589 ( rapid move to begin. )
G01 F254.00000
( Mill infeed pass 1/1 )
G01 Z-0.11000
G04 P0 ( dwell for no time -- G64 should not smooth over this point )
G01 F100.00000
G01 X9.42360 Y-27.10589
G01 X9.49930 Y-27.03637
G01 X9.68370 Y-26.84775
G01 X9.78614 Y-26.74996
G01 X9.87981 Y-26.65151
G01 X9.95299 Y-26.58443
G01 X10.82172 Y-25.70831
G01 X10.89492 Y-25.64122
G01 X10.98860 Y-25.54275
G01 X11.09109 Y-25.44491
G01 X11.27539 Y-25.25644
G01 X11.33986 Y-25.19771
G04 P0 ( dwell for no time -- G64 should not smooth over this point )
G00 Z1.20000 ( retract )

G00 X11.34143 Y-24.52263 ( rapid move to begin. )
G01 F254.00000
( Mill infeed pass 1/1 )
G01 Z-0.11000
G04 P0 ( dwell for no time -- G64 should not smooth over this point )
G01 F100.00000
G01 X11.34143 Y-24.52263
G01 X11.48009 Y-24.45461
G01 X11.70424 Y-24.36002
G01 X11.93084 Y-24.28710
G01 X12.04684 Y-24.25880
G01 X12.23294 Y-24.18192
G01 X12.32619 Y-24.12949
G01 X12.40478 Y-24.07732
G01 X12.48684 Y-24.01278
G01 X12.55837 Y-23.94742
G01 X13.33619 Y-23.16960
G01 X13.40419 Y-23.09541
G01 X13.48135 Y-22.99447
G01 X13.52169 Y-22.93211
G01 X13.58067 Y-22.82246
G01 X13.61280 Y-22.75268
G01 X13.67366 Y-22.56066
G01 X13.70012 Y-22.36104
G01 X13.70198 Y-22.31705
G01 X13.69548 Y-22.15995
G01 X13.66837 Y-21.99477
G01 X13.59405 Y-21.77161
G01 X13.49563 Y-21.59587
G01 X13.44430 Y-21.52579
G01 X13.37069 Y-21.43818
G01 X13.26490 Y-21.33580
G01 X13.22309 Y-21.30151
G01 X13.05621 Y-21.18909
G01 X12.86891 Y-21.10529
G01 X12.71834 Y-21.04636
G01 X12.55141 Y-20.96643
G01 X12.47983 Y-20.92856
G01 X12.28169 Y-20.81019
G04 P0 ( dwell for no time -- G64 should not smooth over this point )
G00 Z1.20000 ( retract )

G00 X9.99675 Y-22.94753 ( rapid move to begin. )
G01 F254.00000
( Mill infeed pass 1/1 )
G01 Z-0.11000
G04 P0 ( dwell for no time -- G64 should not smooth over this point )
G01 F100.00000
G01 X9.99675 Y-22.94753
G01 X10.46147 Y-22.47786
G01 X10.56396 Y-22.38004
G01 X10.65764 Y-22.28157
G01 X10.73084 Y-22.21448
G01 X11.59954 Y-21.33839
G01 X11.67275 Y-21.27131
G01 X11.76642 Y-21.17283
G01 X11.93292 Y-21.01103
G01 X12.06218 Y-20.92843
G01 X12.28169 Y-20.81019
G01 X12.31293 Y-20.69805
G01 X12.35194 Y-20.58167
G01 X12.41428 Y-20.43920
G01 X12.46985 Y-20.33941
G01 X12.53825 Y-20.23923
G01 X12.64623 Y-20.11322
G01 X12.86833 Y-19.89110
G01 X12.99888 Y-19.77337
G01 X13.59286 Y-19.17941
G01 X13.69123 Y-19.06742
G01 X13.72873 Y-19.01670
G01 X13.81379 Y-18.87169
G01 X13.84226 Y-18.80479
G01 X13.88176 Y-18.69422
G01 X13.91031 Y-18.57428
G01 X13.92067 Y-18.50829
G01 X13.93010 Y-18.33446
G01 X13.90719 Y-18.12961
G01 X13.84325 Y-17.92699
G01 X13.76736 Y-17.77741
G01 X13.72781 Y-17.71594
G01 X13.65717 Y-17.62270
G01 X13.52621 Y-17.48953
G01 X13.36924 Y-17.37637
G01 X13.19771 Y-17.29425
G01 X13.10475 Y-17.26339
G01 X13.01547 Y-17.24063
G01 X12.93094 Y-17.22641
G01 X12.82703 Y-17.21665
G01 X12.62606 Y-17.21681
G01 X12.47922 Y-17.20964
G01 X12.35659 Y-17.19765
G01 X12.17643 Y-17.17340
G01 X11.96823 Y-17.38056
G01 X11.80490 Y-17.50284
G01 X9.97506 Y-19.33268
G01 X9.86752 Y-19.46702
G01 X9.75484 Y-19.58828
G01 X9.01878 Y-20.32432
G01 X8.76790 Y-20.58401
G01 X8.66546 Y-20.68177
G01 X8.56094 Y-20.79074
G01 X8.44240 Y-20.90519
G01 X8.18152 Y-21.16899
G01 X8.08220 Y-21.26214
G01 X8.08220 Y-21.27247
G01 X8.18149 Y-21.36562
G01 X8.44240 Y-21.62945
G01 X8.56094 Y-21.74390
G01 X8.59983 Y-21.78710
G01 X8.76790 Y-21.95063
G01 X8.86160 Y-22.04913
G01 X8.95828 Y-22.14093
G01 X9.00222 Y-22.18974
G01 X9.09889 Y-22.28157
G01 X9.19254 Y-22.38002
G01 X9.29500 Y-22.47783
G01 X9.47936 Y-22.66638
G01 X9.57356 Y-22.75434
G01 X9.65436 Y-22.79820
G01 X9.77897 Y-22.85749
G01 X9.99675 Y-22.94753
G01 X10.07057 Y-23.13214
G01 X10.19091 Y-23.38042
G01 X10.27717 Y-23.46035
G01 X10.46150 Y-23.64890
G01 X10.56396 Y-23.74669
G01 X10.65761 Y-23.84514
G01 X10.75431 Y-23.93701
G01 X10.84641 Y-24.03394
G01 X10.94572 Y-24.12848
G01 X10.98860 Y-24.17610
G01 X11.15665 Y-24.33960
G01 X11.19556 Y-24.38283
G01 X11.34143 Y-24.52263
G01 X11.33185 Y-24.60683
G01 X11.32413 Y-24.76028
G01 X11.32324 Y-24.91143
G01 X11.32820 Y-25.05791
G01 X11.33986 Y-25.19771
G01 X11.62799 Y-25.32878
G01 X11.75913 Y-25.37732
G01 X11.93973 Y-25.43528
G01 X12.09388 Y-25.47635
G01 X12.27831 Y-25.55893
G01 X12.44524 Y-25.67142
G01 X12.48710 Y-25.70574
G01 X12.59284 Y-25.80810
G01 X12.66647 Y-25.89571
G01 X12.71778 Y-25.96579
G01 X12.81595 Y-26.14102
G01 X12.91013 Y-26.41600
G01 X12.92235 Y-26.46639
G01 X12.97452 Y-26.53386
G01 X13.04521 Y-26.61178
G01 X13.13995 Y-26.70653
G01 X13.26596 Y-26.81453
G01 X13.32532 Y-26.85829
G01 X13.50104 Y-26.87879
G01 X13.56368 Y-26.88206
G01 X16.12455 Y-26.88280
G01 X16.26131 Y-26.89428
G01 X16.31942 Y-26.90614
G01 X16.43761 Y-26.94107
G01 X16.50568 Y-26.96853
G01 X16.59562 Y-27.01529
G01 X16.67607 Y-27.06609
G01 X16.78089 Y-27.15466
G01 X16.92717 Y-27.29624
G01 X17.01922 Y-27.37259
G01 X17.16857 Y-27.42405
G01 X17.29491 Y-27.47686
G01 X17.34048 Y-27.50048
G01 X17.46512 Y-27.57868
G01 X17.58109 Y-27.67185
G01 X18.46494 Y-28.55481
G01 X18.56867 Y-28.67292
G01 X18.60611 Y-28.72369
G01 X18.71312 Y-28.90794
G01 X18.75607 Y-28.99390
G01 X18.88112 Y-29.20012
G01 X18.98399 Y-29.34645
G01 X19.02501 Y-29.39712
G01 X18.91381 Y-29.63464
G01 X18.87157 Y-29.71262
G01 X18.77045 Y-29.87759
G01 X18.72927 Y-29.93758
G01 X18.57177 Y-30.13730
G01 X18.39643 Y-30.31726
G01 X18.25292 Y-30.43984
G01 X18.19910 Y-30.48109
G01 X18.04139 Y-30.58947
G01 X17.97347 Y-30.63103
G01 X17.80106 Y-30.72468
G01 X17.71051 Y-30.76773
G01 X17.61381 Y-30.80779
G01 X17.55579 Y-30.98696
G01 X17.49351 Y-31.12930
G01 X17.43794 Y-31.22910
G01 X17.36959 Y-31.32922
G01 X17.29908 Y-31.41411
G01 X15.40726 Y-33.30953
G01 X15.34996 Y-33.36097
G01 X15.22661 Y-33.45660
G01 X15.15379 Y-33.46762
G01 X14.98821 Y-33.48037
G01 X14.57056 Y-33.48035
G01 X14.39890 Y-33.46587
G01 X14.27894 Y-33.44197
G01 X14.19299 Y-33.41657
G01 X14.10863 Y-33.28779
G01 X14.01925 Y-33.10646
G01 X13.90693 Y-32.89216
G01 X13.71808 Y-32.57113
G01 X13.65349 Y-32.47273
G01 X13.49451 Y-32.27316
G01 X13.24480 Y-31.99679
G01 X13.12662 Y-31.87819
G01 X12.96929 Y-31.74611
G01 X12.66901 Y-31.52569
G01 X12.48796 Y-31.40598
G01 X12.35128 Y-31.33123
G01 X12.01273 Y-31.17581
G01 X11.76513 Y-31.07657
G01 X11.66401 Y-31.04444
G01 X11.30099 Y-30.96042
G01 X10.98961 Y-30.90431
G01 X10.93366 Y-30.89689
G01 X10.56096 Y-30.88770
G01 X10.18830 Y-30.89689
G01 X10.13231 Y-30.90431
G01 X9.82096 Y-30.96042
G01 X9.45794 Y-31.04444
G01 X9.35683 Y-31.07657
G01 X9.10923 Y-31.17581
G01 X8.77067 Y-31.33123
G01 X8.63399 Y-31.40598
G01 X8.45292 Y-31.52569
G01 X8.15266 Y-31.74611
G01 X7.99531 Y-31.87819
G01 X7.87712 Y-31.99679
G01 X7.62744 Y-32.27316
G01 X7.50573 Y-32.42198
G01 X7.40387 Y-32.57113
G01 X7.21500 Y-32.89216
G01 X7.10270 Y-33.10646
G01 X7.07641 Y-33.16376
G01 X7.05134 Y-33.22688
G01 X6.93100 Y-33.57949
G01 X6.85048 Y-33.85970
G01 X6.83308 Y-33.93910
G01 X6.78627 Y-34.30885
G01 X6.75843 Y-34.68063
G01 X6.78627 Y-35.05243
G01 X6.83623 Y-35.43999
G01 X6.85048 Y-35.50158
G01 X6.93100 Y-35.78177
G01 X7.05134 Y-36.13440
G01 X7.10270 Y-36.25482
G01 X7.21500 Y-36.46912
G01 X7.40387 Y-36.79015
G01 X7.50573 Y-36.93930
G01 X7.62744 Y-37.08811
G01 X7.87712 Y-37.36449
G01 X7.99531 Y-37.48308
G01 X8.15266 Y-37.61516
G01 X8.45292 Y-37.83559
G01 X8.63399 Y-37.95530
G01 X8.68830 Y-37.98725
G01 X8.77067 Y-38.03005
G01 X9.10923 Y-38.18547
G01 X9.35683 Y-38.28471
G01 X9.45794 Y-38.31684
G01 X9.82096 Y-38.40086
G01 X10.18830 Y-38.46439
G01 X10.56096 Y-38.47358
G01 X10.93366 Y-38.46439
G01 X11.30099 Y-38.40086
G01 X11.66404 Y-38.31684
G01 X11.76515 Y-38.28471
G01 X12.01273 Y-38.18547
G01 X12.35128 Y-38.03005
G01 X12.48796 Y-37.95530
G01 X12.66901 Y-37.83559
G01 X12.96929 Y-37.61516
G01 X13.12662 Y-37.48308
G01 X13.24480 Y-37.36449
G01 X13.49451 Y-37.08811
G01 X13.65349 Y-36.88855
G01 X13.71808 Y-36.79015
G01 X13.90696 Y-36.46909
G01 X14.11488 Y-36.06259
G01 X14.19276 Y-35.94435
G01 X14.29202 Y-35.91611
G01 X14.41110 Y-35.89365
G01 X14.57665 Y-35.88090
G01 X15.67962 Y-35.88253
G01 X15.76314 Y-35.88007
G01 X15.92522 Y-35.86698
G01 X16.08221 Y-35.82947
G01 X16.22044 Y-35.77854
G01 X16.29951 Y-35.73948
G01 X16.37596 Y-35.69525
G01 X16.46372 Y-35.63409
G01 X16.62168 Y-35.49226
G01 X22.66155 Y-29.45084
G01 X22.79490 Y-29.29395
G01 X22.88855 Y-29.13482
G01 X22.95030 Y-28.98569
G01 X22.98413 Y-28.86502
G01 X22.99884 Y-28.79336
G01 X23.01192 Y-28.63129
G01 X23.01436 Y-28.54777
G01 X23.01243 Y-25.90749
G01 X22.99884 Y-25.74547
G01 X22.96132 Y-25.58847
G01 X22.91039 Y-25.45019
G01 X22.87135 Y-25.37122
G01 X22.82708 Y-25.29472
G01 X22.76592 Y-25.20691
G01 X22.62416 Y-25.04900
G01 X18.16870 Y-20.59562
G01 X18.12232 Y-20.54352
G01 X18.02661 Y-20.42013
G01 X18.01558 Y-20.34723
G01 X18.00286 Y-20.18182
G01 X18.00291 Y-16.45328
G01 X17.98993 Y-16.28518
G01 X17.95323 Y-16.12809
G01 X17.93827 Y-16.08300
G01 X17.88025 Y-15.94315
G01 X17.86303 Y-15.91023
G01 X17.76110 Y-15.75115
G01 X17.61424 Y-15.58889
G01 X13.59939 Y-11.57615
G01 X13.48428 Y-11.43729
G01 X13.45733 Y-11.40066
G01 X13.44630 Y-11.32784
G01 X13.43355 Y-11.16231
G01 X13.43518 Y-10.02637
G01 X13.42375 Y-9.81443
G01 X13.40493 Y-9.70910
G01 X13.38212 Y-9.62373
G01 X13.35385 Y-9.54021
G01 X13.30932 Y-9.43927
G01 X13.21567 Y-9.28019
G01 X13.08260 Y-9.12302
G01 X11.79088 Y-7.83140
G01 X11.67867 Y-7.68947
G01 X11.61199 Y-7.58132
G01 X11.54179 Y-7.43773
G01 X11.58786 Y-7.33989
G01 X11.64346 Y-7.24009
G01 X11.71174 Y-7.14007
G01 X11.81979 Y-7.01396
G01 X11.99238 Y-6.84139
G01 X12.05118 Y-6.78782
G01 X12.17635 Y-6.70443
G01 X12.25845 Y-6.63984
G01 X12.32997 Y-6.57451
G01 X13.10780 Y-5.79671
G01 X13.21610 Y-5.67253
G01 X13.31156 Y-5.53098
G01 X13.37815 Y-5.45752
G01 X13.44851 Y-5.39212
G01 X13.57051 Y-5.29740
G01 X13.64501 Y-5.28602
G01 X13.81056 Y-5.27327
G01 X15.16565 Y-5.27243
G01 X15.34142 Y-5.25711
G01 X15.48478 Y-5.22183
G01 X15.56827 Y-5.19356
G01 X15.66921 Y-5.14904
G01 X15.77848 Y-5.08762
G01 X15.86748 Y-5.02549
G01 X15.96377 Y-4.94236
G01 X16.85610 Y-4.04942
G01 X16.96491 Y-3.92021
G01 X17.03603 Y-3.80637
G01 X17.12966 Y-3.70355
G01 X17.22176 Y-3.59458
G01 X17.31836 Y-3.43073
G01 X17.34683 Y-3.36382
G01 X17.38630 Y-3.25326
G01 X17.41487 Y-3.13327
G01 X17.42521 Y-3.06733
G01 X17.43332 Y-2.95653
G01 X17.43413 Y-2.87752
G01 X17.41175 Y-2.68864
G01 X17.35618 Y-2.50675
G01 X17.32115 Y-2.42890
G01 X17.27192 Y-2.33644
G01 X17.19557 Y-2.22390
G01 X17.16171 Y-2.18173
G01 X17.02826 Y-2.04643
G01 X16.87380 Y-1.93540
G01 X16.70228 Y-1.85329
G01 X16.66936 Y-1.84112
G01 X16.52006 Y-1.79967
G01 X16.43548 Y-1.78544
G01 X16.33162 Y-1.77569
G01 X16.19519 Y-1.77851
G01 X16.14155 Y-1.78201
G01 X15.95544 Y-1.82126
G01 X15.77886 Y-1.89172
G01 X15.68216 Y-1.94554
G01 X15.61587 Y-1.98923
G01 X15.50477 Y-2.07853
G01 X15.40286 Y-2.17305
G01 X15.28895 Y-2.24422
G01 X15.13837 Y-2.37335
G01 X14.80449 Y-2.70701
G01 X14.75247 Y-2.75331
G01 X14.62916 Y-2.84897
G01 X14.55621 Y-2.85999
G01 X14.39078 Y-2.87274
G01 X13.11745 Y-2.87111
G01 X13.03386 Y-2.87358
G01 X12.87175 Y-2.88666
G01 X12.71478 Y-2.92415
G01 X12.63122 Y-2.95245
G01 X12.53261 Y-2.99585
G01 X12.26909 Y-3.13068
G01 X12.16182 Y-3.17419
G01 X12.00356 Y-3.22816
G01 X11.87889 Y-3.25874
G01 X11.82881 Y-3.36375
G01 X11.78103 Y-3.45189
G01 X11.67430 Y-3.62605
G01 X11.57783 Y-3.75900
G01 X11.49510 Y-3.84757
G01 X11.37117 Y-3.96545
G01 X10.50249 Y-4.84149
G01 X10.42924 Y-4.90865
G01 X10.30948 Y-5.03464
G01 X10.29419 Y-5.04609
G01 X7.21738 Y-8.12289
G01 X7.06018 Y-8.26658
G01 X7.00179 Y-8.31449
G01 X6.85851 Y-8.42074
G01 X6.78853 Y-8.46747
G01 X6.63252 Y-8.56097
G01 X6.54426 Y-8.60809
G01 X6.29369 Y-8.72340
G01 X6.28129 Y-8.77966
G01 X6.21708 Y-8.98355
G01 X6.17070 Y-9.09259
G01 X6.09788 Y-9.22856
G01 X6.02996 Y-9.33054
G01 X5.68373 Y-9.61479
G01 X5.26562 Y-10.03193
G01 X5.15173 Y-10.16155
G01 X5.11462 Y-10.21263
G01 X5.01020 Y-10.39376
G01 X4.94914 Y-10.54976
G01 X4.92074 Y-10.65042
G01 X4.90063 Y-10.74793
G01 X4.88485 Y-10.91979
G01 X4.88485 Y-10.98286
G01 X4.90063 Y-11.15474
G01 X4.92074 Y-11.25225
G01 X4.94914 Y-11.35291
G01 X5.01020 Y-11.50892
G01 X5.02636 Y-11.54171
G01 X5.13149 Y-11.71677
G01 X5.26552 Y-11.87087
G01 X5.29168 Y-11.89637
G01 X5.42120 Y-12.00267
G01 X5.50819 Y-12.06078
G01 X5.59468 Y-12.11001
G01 X5.78261 Y-12.18987
G01 X5.98162 Y-12.23574
G01 X6.01779 Y-12.24097
G01 X6.18505 Y-12.25085
G01 X6.28955 Y-12.24674
G01 X6.38848 Y-12.23574
G01 X6.58749 Y-12.18984
G01 X6.77540 Y-12.11001
G01 X6.86189 Y-12.06078
G01 X6.94886 Y-12.00267
G01 X7.06785 Y-11.90638
G01 X7.48629 Y-11.48890
G01 X7.60019 Y-11.35929
G01 X7.63707 Y-11.30808
G01 X7.77413 Y-11.07181
G01 X7.85345 Y-10.98032
G01 X9.27491 Y-9.55886
G01 X9.35838 Y-9.48459
G01 X9.44689 Y-9.41774
G01 X9.55505 Y-9.35106
G01 X9.69863 Y-9.28086
G01 X9.79648 Y-9.32693
G01 X9.89627 Y-9.38253
G01 X9.99630 Y-9.45081
G01 X10.08118 Y-9.52129
G01 X10.86724 Y-10.30394
G01 X10.98230 Y-10.44275
G01 X11.00922 Y-10.47935
G01 X11.02027 Y-10.55220
G01 X11.03302 Y-10.71776
G01 X11.03140 Y-11.85360
G01 X11.04227 Y-12.07226
G01 X11.05022 Y-12.11905
G01 X11.09381 Y-12.29220
G01 X11.15563 Y-12.44153
G01 X11.25809 Y-12.61163
G01 X11.42159 Y-12.79571
G01 X15.43152 Y-16.80337
G01 X15.48293 Y-16.86065
G01 X15.57853 Y-16.98396
G01 X15.58958 Y-17.05681
G01 X15.60233 Y-17.22234
G01 X15.60264 Y-20.95670
G01 X15.61625 Y-21.11878
G01 X15.65377 Y-21.27580
G01 X15.70467 Y-21.41395
G01 X15.74373 Y-21.49302
G01 X15.78798 Y-21.56948
G01 X15.84914 Y-21.65726
G01 X15.99093 Y-21.81520
G01 X20.43674 Y-26.25872
G01 X20.49282 Y-26.32072
G01 X20.58843 Y-26.44404
G01 X20.59948 Y-26.51686
G01 X20.61223 Y-26.68245
G01 X20.61223 Y-27.85641
G01 X20.60895 Y-27.91904
G01 X20.58845 Y-28.09476
G01 X20.54474 Y-28.15407
G01 X20.43671 Y-28.28013
G01 X19.62348 Y-29.09092
G01 X19.56379 Y-29.13992
G01 X19.47354 Y-29.20507
G01 X19.36097 Y-29.27109
G01 X19.25533 Y-29.32085
G01 X19.08853 Y-29.38054
G01 X19.02501 Y-29.39712
G04 P0 ( dwell for no time -- G64 should not smooth over this point )
G00 Z1.20000 ( retract )

G00 X17.61381 Y-30.80779 ( rapid move to begin. )
G01 F254.00000
( Mill infeed pass 1/1 )
G01 Z-0.11000
G04 P0 ( dwell for no time -- G64 should not smooth over this point )
G01 F100.00000
G01 X17.61381 Y-30.80779
G01 X17.39694 Y-30.65724
G01 X17.27944 Y-30.58574
G01 X16.98983 Y-30.42620
G01 X16.91818 Y-30.37939
G01 X16.80324 Y-30.28706
G01 X15.88559 Y-29.36740
G01 X15.78945 Y-29.25379
G01 X15.71147 Y-29.12676
G01 X15.57871 Y-28.93588
G01 X15.46182 Y-28.90728
G01 X15.35722 Y-28.89067
G01 X15.22532 Y-28.88257
G01 X12.90114 Y-28.88257
G01 X12.80729 Y-28.87868
G01 X12.72708 Y-28.86941
G01 X12.64204 Y-28.84940
G01 X12.54536 Y-28.81884
G01 X12.47783 Y-28.79011
G01 X12.40056 Y-28.74935
G01 X12.32624 Y-28.70337
G01 X12.10079 Y-28.51460
G01 X12.00079 Y-28.44632
G01 X11.85106 Y-28.36522
G01 X11.66350 Y-28.44302
G01 X11.45512 Y-28.55184
G01 X11.31268 Y-28.61219
G01 X11.26899 Y-28.62872
G01 X11.07227 Y-28.67203
G01 X10.99581 Y-28.67909
G01 X10.87133 Y-28.68285
G01 X10.79721 Y-28.67911
G01 X10.67120 Y-28.66273
G01 X10.54031 Y-28.63131
G01 X10.47636 Y-28.61216
G01 X10.29249 Y-28.52984
G01 X10.12553 Y-28.41734
G01 X10.03719 Y-28.34063
G01 X9.97793 Y-28.28066
G01 X9.90430 Y-28.19303
G01 X9.85299 Y-28.12298
G01 X9.75482 Y-27.94775
G01 X9.66163 Y-27.67564
G01 X9.65035 Y-27.62918
G01 X9.61024 Y-27.51196
G01 X9.49368 Y-27.23987
G01 X9.42360 Y-27.10589
G01 X9.40641 Y-27.10401
G01 X9.22853 Y-27.15169
G01 X9.11421 Y-27.19273
G01 X8.97821 Y-27.25575
G01 X8.88020 Y-27.31310
G01 X8.78835 Y-27.37800
G01 X8.67768 Y-27.47457
G01 X5.66174 Y-30.49052
G01 X5.55371 Y-30.61658
G01 X5.51002 Y-30.67586
G01 X5.48950 Y-30.85158
G01 X5.48622 Y-30.91424
G01 X5.48551 Y-33.99950
G01 X5.47307 Y-34.14403
G01 X5.45302 Y-34.22909
G01 X5.42249 Y-34.32574
G01 X5.39379 Y-34.39328
G01 X5.35302 Y-34.47054
G01 X5.30700 Y-34.54489
G01 X5.25686 Y-34.60816
G01 X5.19326 Y-34.67725
G01 X1.29327 Y-38.57724
G01 X1.22415 Y-38.64087
G01 X1.16088 Y-38.69101
G01 X1.08659 Y-38.73701
G01 X1.00932 Y-38.77775
G01 X0.92857 Y-38.81120
G01 X0.84511 Y-38.83701
G01 X0.76002 Y-38.85705
G01 X0.67983 Y-38.86632
G01 X0.58598 Y-38.87023
G01 X-6.79714 Y-38.87023
G01 X-6.96267 Y-38.88298
G01 X-7.08175 Y-38.90543
G01 X-7.15630 Y-38.92664
G01 X-7.22648 Y-39.02387
G01 X-7.34865 Y-39.21128
G01 X-7.41124 Y-39.29522
G01 X-7.54009 Y-39.42545
G01 X-7.68985 Y-39.53126
G01 X-7.85635 Y-39.60805
G01 X-8.03354 Y-39.65453
G01 X-8.17019 Y-39.66848
G01 X-8.40727 Y-39.67023
G01 X-8.57280 Y-39.68298
G01 X-8.69193 Y-39.70546
G01 X-8.80181 Y-39.73673
G01 X-8.94657 Y-39.79337
G01 X-9.05645 Y-39.84808
G01 X-9.25355 Y-39.97155
G01 X-9.36343 Y-40.05453
G01 X-9.44146 Y-40.12679
G01 X-10.79449 Y-39.71638
G01 X-15.98110 Y-36.94407
G01 X-20.52719 Y-33.21319
G01 X-24.25807 Y-28.66710
G01 X-27.03038 Y-23.48050
G01 X-28.73753 Y-17.85269
G01 X-29.31399 Y-11.99998
G01 X-29.31399 Y0.00000
G01 X-28.73753 Y5.85269
G01 X-27.03038 Y11.48050
G01 X-24.25807 Y16.66710
G01 X-20.52719 Y21.21319
G01 X-15.98110 Y24.94407
G01 X-10.79449 Y27.71638
G01 X-5.16669 Y29.42354
G01 X0.68598 Y29.99999
G01 X6.53870 Y29.42354
G01 X12.16650 Y27.71638
G01 X17.35310 Y24.94407
G01 X21.89919 Y21.21319
G01 X25.63007 Y16.66710
G01 X28.40238 Y11.48050
G01 X30.10954 Y5.85269
G01 X30.68599 Y0.00000
G01 X30.68599 Y-11.99998
G01 X30.10954 Y-17.85269
G01 X28.40238 Y-23.48050
G01 X25.63007 Y-28.66710
G01 X21.89919 Y-33.21319
G01 X17.35310 Y-36.94407
G01 X12.16650 Y-39.71638
G01 X6.53870 Y-41.42354
G01 X0.68598 Y-41.99999
G01 X-5.16669 Y-41.42354
G01 X-9.44146 Y-40.12679
G04 P0 ( dwell for no time -- G64 should not smooth over this point )
G00 Z1.20000 ( retract )

G00 X-12.88951 Y-38.59654 ( rapid move to begin. )
G01 F254.00000
( Mill infeed pass 1/1 )
G01 Z-0.11000
G04 P0 ( dwell for no time -- G64 should not smooth over this point )
G01 F100.00000
G01 X-12.88951 Y-38.59654
G01 X-12.90549 Y-38.39835
G01 X-12.92941 Y-38.26688
G01 X-12.98486 Y-38.06477
G01 X-13.02781 Y-37.95235
G01 X-13.09149 Y-37.82197
G01 X-13.15052 Y-37.72560
G01 X-13.21211 Y-37.64125
G01 X-13.29756 Y-37.54496
G01 X-13.62888 Y-37.21364
G01 X-13.73713 Y-37.12040
G01 X-13.92768 Y-37.03869
G01 X-13.97033 Y-37.01659
G01 X-14.09098 Y-36.94102
G01 X-14.20211 Y-36.85172
G01 X-14.82982 Y-36.22482
G01 X-14.92847 Y-36.11255
G01 X-14.95443 Y-36.08070
G01 X-15.05102 Y-35.91682
G01 X-15.07950 Y-35.84994
G01 X-15.11902 Y-35.73935
G01 X-15.14757 Y-35.61939
G01 X-15.15791 Y-35.55345
G01 X-15.16601 Y-35.44263
G01 X-15.16682 Y-35.36361
G01 X-15.14445 Y-35.17476
G01 X-15.08887 Y-34.99284
G01 X-15.05384 Y-34.91504
G01 X-15.00462 Y-34.82256
G01 X-14.92827 Y-34.71001
G01 X-14.89441 Y-34.66785
G01 X-14.76345 Y-34.53465
G01 X-14.60647 Y-34.42152
G01 X-14.43497 Y-34.33938
G01 X-14.40210 Y-34.32724
G01 X-14.25273 Y-34.28578
G01 X-14.10561 Y-34.26437
G01 X-14.06428 Y-34.26181
G01 X-13.87429 Y-34.26813
G01 X-13.68811 Y-34.30735
G01 X-13.63160 Y-34.32769
G01 X-13.51156 Y-34.37781
G01 X-13.46916 Y-34.39978
G01 X-13.34856 Y-34.47534
G01 X-13.27117 Y-34.53613
G01 X-13.20340 Y-34.59785
G01 X-12.60945 Y-35.19183
G01 X-12.51105 Y-35.30382
G01 X-12.48509 Y-35.33567
G01 X-12.38852 Y-35.49952
G01 X-12.30894 Y-35.68764
G01 X-12.21430 Y-35.79906
G01 X-11.41880 Y-36.59091
G01 X-11.33391 Y-36.66142
G01 X-11.23376 Y-36.72977
G01 X-11.11331 Y-36.79645
G01 X-10.99853 Y-36.79736
G01 X-10.88865 Y-36.78974
G01 X-10.80084 Y-36.77854
G01 X-10.61735 Y-36.56968
G01 X-10.52071 Y-36.44473
G01 X-10.39185 Y-36.31451
G01 X-10.24209 Y-36.20869
G01 X-10.07560 Y-36.13191
G01 X-10.01029 Y-36.11227
G01 X-9.89841 Y-36.08542
G01 X-9.85703 Y-36.07923
G01 X-9.71598 Y-36.06973
G01 X-8.21599 Y-36.06973
G01 X-8.07494 Y-36.07923
G01 X-8.03354 Y-36.08542
G01 X-7.92168 Y-36.11227
G01 X-7.85635 Y-36.13191
G01 X-7.68985 Y-36.20869
G01 X-7.54009 Y-36.31451
G01 X-7.41124 Y-36.44473
G01 X-7.34865 Y-36.52868
G01 X-7.15787 Y-36.81539
G01 X-6.98759 Y-36.85324
G01 X-6.89623 Y-36.86515
G01 X-6.79714 Y-36.86970
G01 X-0.07650 Y-36.86970
G01 X0.08900 Y-36.85695
G01 X0.16182 Y-36.84593
G01 X0.28519 Y-36.75024
G01 X0.33729 Y-36.70386
G01 X3.31018 Y-33.73117
G01 X3.41820 Y-33.60511
G01 X3.46194 Y-33.54578
G01 X3.48244 Y-33.37009
G01 X3.48572 Y-33.30743
G01 X3.48572 Y-30.25170
G01 X3.48960 Y-30.15785
G01 X3.49888 Y-30.07766
G01 X3.50982 Y-30.02730
G01 X3.54945 Y-29.89590
G01 X3.57815 Y-29.82839
G01 X3.61894 Y-29.75110
G01 X3.66492 Y-29.67680
G01 X3.71508 Y-29.61350
G01 X3.77868 Y-29.54439
G01 X7.26699 Y-26.05608
G01 X7.37504 Y-25.93000
G01 X7.44332 Y-25.83000
G01 X7.49889 Y-25.73017
G01 X7.56128 Y-25.58768
G01 X7.60029 Y-25.47127
G01 X7.63529 Y-25.34206
G01 X7.63189 Y-25.30564
G01 X7.40367 Y-25.19695
G01 X7.30997 Y-25.15641
G01 X7.10552 Y-25.08283
G01 X6.88426 Y-25.02007
G01 X6.70037 Y-24.93775
G01 X6.53344 Y-24.82525
G01 X6.49160 Y-24.79096
G01 X6.38584 Y-24.68860
G01 X6.27421 Y-24.55060
G01 X6.16245 Y-24.35512
G01 X6.08815 Y-24.13193
G01 X6.06105 Y-23.96681
G01 X6.04545 Y-23.72004
G01 X6.00875 Y-23.47524
G01 X5.98739 Y-23.36424
G01 X6.02597 Y-23.32142
G01 X6.19404 Y-23.15787
G01 X6.28772 Y-23.05939
G01 X6.36092 Y-22.99231
G01 X7.22960 Y-22.11624
G01 X7.30283 Y-22.04911
G01 X7.39651 Y-21.95063
G01 X7.49894 Y-21.85286
G01 X7.85078 Y-21.49716
G01 X8.08220 Y-21.27247
G01 X8.08220 Y-21.26214
G01 X7.98289 Y-21.16899
G01 X7.72201 Y-20.90519
G01 X7.60346 Y-20.79074
G01 X7.49894 Y-20.68177
G01 X7.39651 Y-20.58401
G01 X7.35360 Y-20.53633
G01 X7.25432 Y-20.44184
G01 X7.16219 Y-20.34489
G01 X7.01472 Y-20.20222
G01 X6.97187 Y-20.15462
G01 X6.56036 Y-19.74845
G01 X6.55536 Y-19.73824
G01 X4.95127 Y-18.13415
G01 X4.76748 Y-17.96509
G01 X3.94612 Y-17.57799
G01 X2.93248 Y-17.15740
G01 X2.92669 Y-16.96824
G01 X2.92903 Y-16.86319
G01 X2.91988 Y-16.57703
G01 X2.91338 Y-16.03190
G01 X2.73500 Y-15.47619
G01 X2.55339 Y-14.84191
G01 X2.40894 Y-14.68958
G01 X2.34221 Y-14.62629
G01 X2.19072 Y-14.49692
G01 X2.11328 Y-14.43751
G01 X1.94681 Y-14.32311
G01 X1.85166 Y-14.26489
G01 X1.76342 Y-14.21699
G01 X1.70477 Y-13.99710
G01 X1.66182 Y-13.88468
G01 X1.59814 Y-13.75430
G01 X1.53911 Y-13.65794
G01 X1.47752 Y-13.57358
G01 X1.39207 Y-13.47729
G01 X-0.39924 Y-11.68956
G01 X-0.46634 Y-11.63383
G01 X-0.65692 Y-11.55212
G01 X-0.75387 Y-11.49815
G01 X-0.82019 Y-11.45443
G01 X-0.93132 Y-11.36515
G01 X-1.59154 Y-10.70308
G01 X-1.68366 Y-10.59411
G01 X-1.78026 Y-10.43026
G01 X-1.80873 Y-10.36335
G01 X-1.84823 Y-10.25279
G01 X-1.87678 Y-10.13280
G01 X-1.88714 Y-10.06686
G01 X-1.89525 Y-9.95604
G01 X-1.89603 Y-9.87702
G01 X-1.87366 Y-9.68817
G01 X-1.81811 Y-9.50628
G01 X-1.78305 Y-9.42845
G01 X-1.73383 Y-9.33597
G01 X-1.69428 Y-9.27451
G01 X-1.62362 Y-9.18126
G01 X-1.49019 Y-9.04593
G01 X-1.33571 Y-8.93493
G01 X-1.16418 Y-8.85279
G01 X-1.13132 Y-8.84065
G01 X-0.98194 Y-8.79919
G01 X-0.89738 Y-8.78497
G01 X-0.79352 Y-8.77522
G01 X-0.65715 Y-8.77804
G01 X-0.60350 Y-8.78154
G01 X-0.41735 Y-8.82078
G01 X-0.24079 Y-8.89124
G01 X-0.14412 Y-8.94504
G01 X-0.07780 Y-8.98876
G01 X0.03330 Y-9.07806
G01 X0.66101 Y-9.70496
G01 X0.75966 Y-9.81723
G01 X0.78565 Y-9.84910
G01 X0.88222 Y-10.01296
G01 X0.96142 Y-10.20133
G01 X1.04729 Y-10.30315
G01 X4.40469 Y-13.66075
G01 X4.46829 Y-13.72987
G01 X4.51848 Y-13.79317
G01 X4.54632 Y-13.83647
G01 X4.60522 Y-13.94473
G01 X4.63393 Y-14.01227
G01 X4.67357 Y-14.14363
G01 X4.71348 Y-14.36807
G01 X4.74449 Y-14.49070
G01 X4.82277 Y-14.55326
G01 X5.01584 Y-14.68427
G01 X5.13182 Y-14.77744
G01 X6.01566 Y-15.66037
G01 X6.14558 Y-15.81071
G01 X6.24639 Y-15.98173
G01 X6.35610 Y-16.26425
G01 X6.40855 Y-16.33035
G01 X6.45444 Y-16.38186
G01 X7.54047 Y-17.46806
G01 X7.66658 Y-17.57611
G01 X7.76671 Y-17.64447
G01 X7.92932 Y-17.73144
G01 X8.10557 Y-17.65965
G01 X8.24723 Y-17.58561
G01 X8.30450 Y-17.54236
G01 X8.36790 Y-17.48726
G01 X9.83775 Y-16.01828
G01 X9.98835 Y-15.88912
G01 X10.10229 Y-15.81795
G01 X10.20415 Y-15.72346
G01 X10.31530 Y-15.63416
G01 X10.43587 Y-15.55862
G01 X10.47829 Y-15.53662
G01 X10.65484 Y-15.46616
G01 X10.84100 Y-15.42694
G01 X11.03102 Y-15.42062
G01 X11.13485 Y-15.43035
G01 X11.21946 Y-15.44460
G01 X11.30864 Y-15.46730
G01 X11.40168 Y-15.49819
G01 X11.57321 Y-15.58031
G01 X11.72766 Y-15.69133
G01 X11.86114 Y-15.82666
G01 X11.89500 Y-15.86883
G01 X11.97132 Y-15.98138
G01 X12.04719 Y-16.13096
G01 X12.11115 Y-16.33357
G01 X12.13353 Y-16.52245
G01 X12.13406 Y-16.75900
G01 X12.14128 Y-16.88696
G01 X12.15789 Y-17.04503
G01 X12.17643 Y-17.17340
G04 P0 ( dwell for no time -- G64 should not smooth over this point )
G00 Z1.20000 ( retract )

G00 X25.96622 Y-3.79799 ( rapid move to begin. )
G01 F254.00000
( Mill infeed pass 1/1 )
G01 Z-0.11000
G04 P0 ( dwell for no time -- G64 should not smooth over this point )
G01 F100.00000
G01 X25.96622 Y-3.79799
G01 X25.96540 Y-2.92651
G01 X25.94788 Y-2.74970
G01 X25.90363 Y-2.58458
G01 X25.87874 Y-2.51925
G01 X25.82746 Y-2.41059
G01 X25.72456 Y-2.25080
G01 X25.59629 Y-2.11033
G01 X25.44526 Y-1.99471
G01 X25.36335 Y-1.94701
G01 X25.27785 Y-1.90490
G01 X25.20102 Y-1.87470
G01 X25.09838 Y-1.84287
G01 X24.91108 Y-1.81008
G01 X24.72085 Y-1.81008
G01 X24.66452 Y-1.81803
G01 X24.53358 Y-1.84287
G01 X24.43089 Y-1.87470
G01 X24.35405 Y-1.90492
G01 X24.21362 Y-1.97775
G01 X24.03566 Y-2.11033
G01 X23.90737 Y-2.25080
G01 X23.80450 Y-2.41059
G01 X23.75319 Y-2.51925
G01 X23.72832 Y-2.58458
G01 X23.68408 Y-2.74970
G01 X23.66655 Y-2.92651
G01 X23.66571 Y-3.79799
G01 X23.68072 Y-3.98742
G01 X23.69838 Y-4.06771
G01 X23.72840 Y-4.17167
G01 X23.80465 Y-4.35958
G01 X23.81573 Y-4.50675
G01 X23.81573 Y-5.66704
G01 X23.81245 Y-5.72971
G01 X23.79193 Y-5.90542
G01 X23.74821 Y-5.96473
G01 X23.64021 Y-6.09079
G01 X19.75764 Y-9.97336
G01 X19.64888 Y-10.06582
G01 X19.45853 Y-10.14847
G01 X19.41614 Y-10.17044
G01 X19.29554 Y-10.24600
G01 X19.18442 Y-10.33529
G01 X18.55668 Y-10.96221
G01 X18.43207 Y-11.10633
G01 X18.33133 Y-11.27884
G01 X18.26750 Y-11.44768
G01 X18.25193 Y-11.50605
G01 X18.22859 Y-11.63358
G01 X18.22049 Y-11.74440
G01 X18.21970 Y-11.82340
G01 X18.23817 Y-11.98408
G01 X18.25145 Y-12.04575
G01 X18.29763 Y-12.19416
G01 X18.33268 Y-12.27198
G01 X18.38190 Y-12.36447
G01 X18.42145 Y-12.42593
G01 X18.49209 Y-12.51915
G01 X18.62554 Y-12.65448
G01 X18.78002 Y-12.76551
G01 X18.95152 Y-12.84762
G01 X19.04451 Y-12.87849
G01 X19.13379 Y-12.90124
G01 X19.21833 Y-12.91547
G01 X19.32219 Y-12.92520
G01 X19.51220 Y-12.91887
G01 X19.69839 Y-12.87960
G01 X19.87497 Y-12.80917
G01 X19.91728 Y-12.78722
G01 X20.03793 Y-12.71168
G01 X20.11533 Y-12.65090
G01 X20.14906 Y-12.62238
G01 X20.77679 Y-11.99548
G01 X20.87545 Y-11.88321
G01 X20.90141 Y-11.85136
G01 X20.99815 Y-11.68720
G01 X21.07682 Y-11.49876
G01 X21.17217 Y-11.38794
G01 X25.52324 Y-7.03687
G01 X25.58687 Y-6.96773
G01 X25.63701 Y-6.90448
G01 X25.66487 Y-6.86115
G01 X25.72974 Y-6.74025
G01 X25.75717 Y-6.67220
G01 X25.78301 Y-6.58873
G01 X25.80399 Y-6.49587
G01 X25.81232 Y-6.42341
G01 X25.81620 Y-6.32960
G01 X25.81636 Y-4.49364
G01 X25.82032 Y-4.42473
G01 X25.82776 Y-4.35981
G01 X25.90363 Y-4.17137
G01 X25.93358 Y-4.06771
G01 X25.95123 Y-3.98742
G01 X25.96622 Y-3.79799
G04 P0 ( dwell for no time -- G64 should not smooth over this point )
G00 Z1.20000 ( retract )

G00 X12.04648 Y2.49458 ( rapid move to begin. )
G01 F254.00000
( Mill infeed pass 1/1 )
G01 Z-0.11000
G04 P0 ( dwell for no time -- G64 should not smooth over this point )
G01 F100.00000
G01 X12.04648 Y2.49458
G01 X12.03706 Y2.32077
G01 X12.01595 Y2.20182
G01 X11.99817 Y2.13487
G01 X11.95868 Y2.02428
G01 X11.93020 Y1.95740
G01 X11.83391 Y1.79400
G01 X11.64887 Y1.58105
G01 X11.57973 Y1.47516
G01 X11.51476 Y1.39032
G01 X11.46795 Y1.33866
G01 X11.37463 Y1.25019
G01 X11.28977 Y1.18519
G01 X11.18387 Y1.11605
G01 X11.04740 Y0.99416
G01 X10.96960 Y0.93287
G01 X10.90381 Y0.88948
G01 X10.80712 Y0.83566
G01 X10.63056 Y0.76520
G01 X10.44440 Y0.72598
G01 X10.25439 Y0.71966
G01 X10.15058 Y0.72939
G01 X10.06594 Y0.74364
G01 X9.97674 Y0.76634
G01 X9.88372 Y0.79723
G01 X9.71222 Y0.87935
G01 X9.55525 Y0.99248
G01 X9.42426 Y1.12570
G01 X9.39041 Y1.16787
G01 X9.31408 Y1.28041
G01 X9.18040 Y1.53850
G01 X9.10659 Y1.66017
G01 X9.00717 Y1.68885
G01 X8.88776 Y1.71181
G01 X8.72002 Y1.72519
G01 X6.43885 Y1.72519
G01 X6.27332 Y1.71244
G01 X6.20047 Y1.70139
G01 X6.07715 Y1.60579
G01 X6.02501 Y1.55936
G01 X0.51844 Y-3.94693
G01 X0.41039 Y-4.07304
G01 X0.37501 Y-4.11991
G01 X0.35197 Y-4.25247
G01 X0.33358 Y-4.39247
G01 X0.27803 Y-4.57439
G01 X0.24300 Y-4.65219
G01 X0.19375 Y-4.74469
G01 X0.11742 Y-4.85719
G01 X0.08357 Y-4.89938
G01 X-0.00157 Y-4.98912
G01 X-0.04989 Y-5.03471
G01 X-0.20434 Y-5.14574
G01 X-0.37582 Y-5.22785
G01 X-0.46886 Y-5.25874
G01 X-0.55809 Y-5.28145
G01 X-0.82687 Y-5.32412
G01 X-0.90503 Y-5.38170
G01 X-0.97099 Y-5.43870
G01 X-4.57088 Y-9.03630
G01 X-4.64817 Y-9.12376
G01 X-4.74411 Y-9.26485
G01 X-4.85267 Y-9.38881
G01 X-5.63049 Y-10.16663
G01 X-5.70205 Y-10.23198
G01 X-5.78409 Y-10.29652
G01 X-5.91688 Y-10.38073
G01 X-5.95592 Y-10.40112
G01 X-6.14202 Y-10.47801
G01 X-6.33877 Y-10.52129
G01 X-6.41525 Y-10.52835
G01 X-6.53971 Y-10.53211
G01 X-6.67642 Y-10.52192
G01 X-6.73986 Y-10.51202
G01 X-6.93130 Y-10.46267
G01 X-7.11853 Y-10.37910
G01 X-7.28551 Y-10.26660
G01 X-7.37385 Y-10.18992
G01 X-7.43311 Y-10.12995
G01 X-7.50674 Y-10.04232
G01 X-7.55805 Y-9.97224
G01 X-7.65647 Y-9.79650
G01 X-7.72246 Y-9.60620
G01 X-7.74301 Y-9.51151
G01 X-7.75790 Y-9.40819
G01 X-7.76379 Y-9.31400
G01 X-7.76254 Y-9.20709
G01 X-7.73608 Y-9.00745
G01 X-7.67522 Y-8.81543
G01 X-7.64306 Y-8.74565
G01 X-7.58411 Y-8.63600
G01 X-7.54380 Y-8.57364
G01 X-7.46663 Y-8.47273
G01 X-7.39861 Y-8.39851
G01 X-6.58472 Y-7.58556
G01 X-6.46720 Y-7.49079
G01 X-6.34205 Y-7.40740
G01 X-6.28317 Y-7.35381
G01 X-2.70058 Y-3.77119
G01 X-2.59255 Y-3.64513
G01 X-2.55712 Y-3.59821
G01 X-2.52745 Y-3.42184
G01 X-2.51572 Y-3.32560
G01 X-2.46014 Y-3.14373
G01 X-2.42512 Y-3.06591
G01 X-2.37589 Y-2.97343
G01 X-2.29954 Y-2.86088
G01 X-2.26568 Y-2.81871
G01 X-2.18046 Y-2.72893
G01 X-2.13223 Y-2.68338
G01 X-1.97775 Y-2.57239
G01 X-1.80624 Y-2.49027
G01 X-1.71326 Y-2.45938
G01 X-1.62397 Y-2.43665
G01 X-1.35517 Y-2.39398
G01 X-1.27701 Y-2.33637
G01 X-1.21105 Y-2.27937
G01 X4.80545 Y3.73713
G01 X4.96334 Y3.87888
G01 X5.05112 Y3.94005
G01 X5.12760 Y3.98429
G01 X5.20664 Y4.02336
G01 X5.34485 Y4.07429
G01 X5.50187 Y4.11180
G01 X5.69346 Y4.12661
G01 X9.78548 Y4.12735
G01 X9.86899 Y4.12488
G01 X10.04476 Y4.10957
G01 X10.18804 Y4.07429
G01 X10.27161 Y4.04602
G01 X10.37257 Y4.00149
G01 X10.48182 Y3.94007
G01 X10.56958 Y3.87891
G01 X10.74867 Y3.72041
G01 X10.86284 Y3.63073
G01 X11.13191 Y3.58844
G01 X11.22114 Y3.56570
G01 X11.31413 Y3.53484
G01 X11.48563 Y3.45270
G01 X11.64011 Y3.34167
G01 X11.77356 Y3.20637
G01 X11.80742 Y3.16420
G01 X11.88377 Y3.05166
G01 X11.93300 Y2.95920
G01 X11.96802 Y2.88135
G01 X12.02360 Y2.69946
G01 X12.04648 Y2.49458
G04 P0 ( dwell for no time -- G64 should not smooth over this point )
G00 Z1.20000 ( retract )

G00 X7.29498 Y7.08947 ( rapid move to begin. )
G01 F254.00000
( Mill infeed pass 1/1 )
G01 Z-0.11000
G04 P0 ( dwell for no time -- G64 should not smooth over this point )
G01 F100.00000
G01 X7.29498 Y7.08947
G01 X7.52226 Y6.91124
G01 X7.69785 Y6.74840
G01 X7.78464 Y6.65734
G01 X7.96262 Y6.52475
G01 X8.10308 Y6.45193
G01 X8.23966 Y6.40174
G01 X8.28256 Y6.38985
G01 X8.46983 Y6.35706
G01 X8.66010 Y6.35706
G01 X8.84738 Y6.38985
G01 X8.95002 Y6.42168
G01 X9.02686 Y6.45193
G01 X9.16734 Y6.52478
G01 X9.34530 Y6.65734
G01 X9.47356 Y6.79778
G01 X9.57646 Y6.95757
G01 X9.62774 Y7.06623
G01 X9.65264 Y7.13158
G01 X9.69688 Y7.29668
G01 X9.71525 Y7.50499
G01 X9.71441 Y8.37644
G01 X9.70023 Y8.53437
G01 X9.66988 Y8.66676
G01 X9.66523 Y8.76051
G01 X9.66523 Y12.49200
G01 X9.66203 Y12.58491
G01 X9.65500 Y12.64074
G01 X9.62810 Y12.77981
G01 X9.56313 Y12.95845
G01 X9.53453 Y13.01247
G01 X9.47024 Y13.12034
G01 X9.36081 Y13.25415
G01 X7.23991 Y15.37302
G01 X7.16458 Y15.45664
G01 X7.09968 Y15.54450
G01 X7.04708 Y15.82735
G01 X7.03522 Y15.87028
G01 X6.98503 Y16.00688
G01 X6.94294 Y16.09235
G01 X6.89521 Y16.17426
G01 X6.77962 Y16.32529
G01 X6.63915 Y16.45356
G01 X6.47931 Y16.55648
G01 X6.37070 Y16.60776
G01 X6.30537 Y16.63263
G01 X6.20166 Y16.66258
G01 X6.12140 Y16.68023
G01 X5.93199 Y16.69524
G01 X5.09196 Y16.69524
G01 X4.90253 Y16.68023
G01 X4.82224 Y16.66258
G01 X4.71858 Y16.63263
G01 X4.59567 Y16.58231
G01 X4.54459 Y16.55646
G01 X4.38480 Y16.45356
G01 X4.24431 Y16.32529
G01 X4.21645 Y16.29093
G01 X4.11175 Y16.14734
G01 X4.03893 Y16.00688
G01 X3.98874 Y15.87028
G01 X3.97685 Y15.82735
G01 X3.95204 Y15.69641
G01 X3.94409 Y15.64013
G01 X3.94409 Y15.44983
G01 X3.97685 Y15.26258
G01 X3.98874 Y15.21965
G01 X4.03893 Y15.08308
G01 X4.11175 Y14.94262
G01 X4.24434 Y14.76466
G01 X4.38478 Y14.63639
G01 X4.54457 Y14.53350
G01 X4.65323 Y14.48219
G01 X4.71759 Y14.45771
G01 X4.88376 Y14.41376
G01 X5.09788 Y14.37467
G01 X5.22597 Y14.27132
G01 X5.26717 Y14.23378
G01 X7.29887 Y12.20183
G01 X7.34525 Y12.14976
G01 X7.44093 Y12.02639
G01 X7.45195 Y11.95347
G01 X7.46470 Y11.78801
G01 X7.46470 Y9.87936
G01 X7.46023 Y9.78129
G01 X7.44845 Y9.69018
G01 X7.42594 Y9.58030
G01 X7.38563 Y9.44844
G01 X7.34090 Y9.33856
G01 X7.25079 Y9.16696
G01 X7.20801 Y9.10044
G01 X7.24863 Y8.94885
G01 X7.27113 Y8.84329
G01 X7.29498 Y8.69277
G01 X7.29498 Y7.08947
G01 X7.05475 Y6.90016
G01 X6.90758 Y6.76499
G01 X6.80532 Y6.65734
G01 X6.62734 Y6.52478
G01 X6.48686 Y6.45193
G01 X6.35025 Y6.40174
G01 X6.30738 Y6.38985
G01 X6.12010 Y6.35706
G01 X5.92983 Y6.35706
G01 X5.87352 Y6.36501
G01 X5.74256 Y6.38985
G01 X5.69966 Y6.40174
G01 X5.56308 Y6.45193
G01 X5.47759 Y6.49402
G01 X5.39618 Y6.54141
G01 X5.27924 Y6.62973
G01 X5.08389 Y6.79658
G01 X4.93344 Y6.81848
G01 X4.85160 Y6.82412
G01 X4.21328 Y6.82470
G01 X4.04721 Y6.81195
G01 X3.97436 Y6.80093
G01 X3.83558 Y6.69112
G01 X3.78902 Y6.64916
G01 X2.74985 Y5.61005
G01 X2.64810 Y5.49156
G01 X2.57543 Y5.32704
G01 X2.51630 Y5.21599
G01 X2.47665 Y5.15470
G01 X2.39949 Y5.05376
G01 X2.33149 Y4.97957
G01 X1.55367 Y4.20174
G01 X1.48214 Y4.13639
G01 X1.40007 Y4.07182
G01 X1.32149 Y4.01965
G01 X1.22824 Y3.96725
G01 X1.04211 Y3.89037
G01 X0.83177 Y3.84520
G01 X0.64445 Y3.83624
G01 X0.57028 Y3.83997
G01 X0.44432 Y3.85635
G01 X0.31341 Y3.88777
G01 X0.24948 Y3.90693
G01 X0.06563 Y3.98925
G01 X-0.10130 Y4.10174
G01 X-0.14315 Y4.13606
G01 X-0.24889 Y4.23842
G01 X-0.32258 Y4.32608
G01 X-0.37386 Y4.39613
G01 X-0.47229 Y4.57185
G01 X-0.53825 Y4.76212
G01 X-0.55880 Y4.85678
G01 X-0.57368 Y4.96019
G01 X-0.58928 Y5.20692
G01 X-0.60457 Y5.31960
G01 X-0.64734 Y5.56273
G01 X-0.60876 Y5.60558
G01 X-0.44069 Y5.76913
G01 X-0.34704 Y5.86758
G01 X-0.27376 Y5.93476
G01 X0.59487 Y6.81081
G01 X0.66805 Y6.87789
G01 X0.76172 Y6.97634
G01 X0.92982 Y7.13989
G01 X0.98821 Y7.20415
G01 X0.99842 Y7.21065
G01 X2.61076 Y8.82299
G01 X2.76050 Y8.96026
G01 X2.83423 Y9.02073
G01 X2.96159 Y9.11517
G01 X3.08793 Y9.19681
G01 X3.31246 Y9.11779
G01 X3.47459 Y9.07181
G01 X3.59176 Y9.04606
G01 X3.70162 Y9.03122
G01 X3.78254 Y9.02574
G01 X4.82460 Y9.02523
G01 X4.99044 Y9.03798
G01 X5.08368 Y9.05363
G01 X5.27939 Y9.22002
G01 X5.39656 Y9.30880
G01 X5.47759 Y9.35594
G01 X5.56306 Y9.39803
G01 X5.69966 Y9.44822
G01 X5.74256 Y9.46008
G01 X5.87352 Y9.48492
G01 X5.92986 Y9.49287
G01 X6.12008 Y9.49287
G01 X6.30738 Y9.46008
G01 X6.41002 Y9.42825
G01 X6.48686 Y9.39803
G01 X6.72915 Y9.27626
G01 X6.79132 Y9.24860
G01 X6.96133 Y9.18037
G01 X7.20801 Y9.10044
G04 P0 ( dwell for no time -- G64 should not smooth over this point )
G00 Z1.20000 ( retract )

G00 X3.08793 Y9.19681 ( rapid move to begin. )
G01 F254.00000
( Mill infeed pass 1/1 )
G01 Z-0.11000
G04 P0 ( dwell for no time -- G64 should not smooth over this point )
G01 F100.00000
G01 X3.08793 Y9.19681
G01 X3.11445 Y9.37450
G01 X3.17213 Y9.61512
G01 X3.24396 Y9.83739
G01 X3.29613 Y10.03366
G01 X3.31165 Y10.19383
G01 X3.31036 Y10.54308
G01 X3.31866 Y10.65395
G01 X3.39070 Y10.91629
G01 X3.40845 Y11.08540
G01 X3.41023 Y12.33498
G01 X3.39453 Y12.53264
G01 X3.37650 Y12.61506
G01 X3.34488 Y12.72456
G01 X3.29298 Y12.85161
G01 X3.26540 Y12.90615
G01 X3.16299 Y13.06642
G01 X3.02420 Y13.21946
G01 X2.86662 Y13.34005
G01 X2.83733 Y13.35849
G01 X2.69194 Y13.43376
G01 X2.55077 Y13.48575
G01 X2.50462 Y13.49853
G01 X2.30924 Y13.53274
G01 X2.11071 Y13.53274
G01 X1.91534 Y13.49853
G01 X1.86919 Y13.48575
G01 X1.72801 Y13.43376
G01 X1.58262 Y13.35849
G01 X1.55334 Y13.34005
G01 X1.39576 Y13.21946
G01 X1.26192 Y13.07287
G01 X1.22113 Y13.01443
G01 X1.15456 Y12.90615
G01 X1.12695 Y12.85159
G01 X1.07508 Y12.72456
G01 X1.04346 Y12.61506
G01 X1.02542 Y12.53264
G01 X1.00973 Y12.33498
G01 X1.00973 Y11.13495
G01 X1.02677 Y10.91598
G01 X1.04785 Y10.75218
G01 X1.05077 Y10.68179
G01 X1.02951 Y10.64362
G01 X0.96116 Y10.54349
G01 X0.85314 Y10.41740
G01 X-0.61773 Y8.94662
G01 X-0.71326 Y8.86534
G01 X-0.94620 Y8.75784
G01 X-1.07904 Y8.67362
G01 X-1.16111 Y8.60908
G01 X-1.23264 Y8.54372
G01 X-2.01046 Y7.76590
G01 X-2.11877 Y7.64174
G01 X-2.19596 Y7.52841
G01 X-2.28186 Y7.36168
G01 X-2.34312 Y7.17278
G01 X-2.35544 Y7.11088
G01 X-2.37439 Y6.95731
G01 X-2.37564 Y6.85041
G01 X-2.36974 Y6.75622
G01 X-2.35486 Y6.65290
G01 X-2.33431 Y6.55820
G01 X-2.26832 Y6.36791
G01 X-2.16990 Y6.19216
G01 X-2.11856 Y6.12209
G01 X-2.04495 Y6.03448
G01 X-1.98570 Y5.97449
G01 X-1.89733 Y5.89780
G01 X-1.73037 Y5.78531
G01 X-1.54315 Y5.70177
G01 X-1.35171 Y5.65241
G01 X-1.28826 Y5.64248
G01 X-0.95860 Y5.61475
G01 X-0.83368 Y5.59897
G01 X-0.64734 Y5.56273
G04 P0 ( dwell for no time -- G64 should not smooth over this point )
G00 Z1.20000 ( retract )

G00 X-3.23941 Y4.58975 ( rapid move to begin. )
G01 F254.00000
( Mill infeed pass 1/1 )
G01 Z-0.11000
G04 P0 ( dwell for no time -- G64 should not smooth over this point )
G01 F100.00000
G01 X-3.23941 Y4.58975
G01 X-3.25778 Y4.73652
G01 X-3.30482 Y4.88168
G01 X-3.37848 Y5.01528
G01 X-3.45506 Y5.10677
G01 X-7.58871 Y9.24179
G01 X-7.63077 Y9.28845
G01 X-7.74050 Y9.42721
G01 X-7.75155 Y9.50006
G01 X-7.76430 Y9.66584
G01 X-7.76308 Y12.65042
G01 X-7.75566 Y12.74486
G01 X-7.72462 Y12.92065
G01 X-7.55553 Y13.07142
G01 X-7.46262 Y13.14684
G01 X-7.42655 Y13.18199
G01 X-6.64873 Y13.95981
G01 X-6.54040 Y14.08394
G01 X-6.46323 Y14.19730
G01 X-6.40425 Y14.30698
G01 X-6.37212 Y14.37673
G01 X-6.31124 Y14.56875
G01 X-6.28477 Y14.76837
G01 X-6.28355 Y14.87536
G01 X-6.28945 Y14.96949
G01 X-6.30433 Y15.07287
G01 X-6.32488 Y15.16753
G01 X-6.39084 Y15.35781
G01 X-6.48927 Y15.53355
G01 X-6.54055 Y15.60360
G01 X-6.61424 Y15.69128
G01 X-6.67347 Y15.75123
G01 X-6.76181 Y15.82791
G01 X-6.88071 Y15.91033
G01 X-6.92882 Y15.94043
G01 X-7.11609 Y16.02397
G01 X-7.30748 Y16.07332
G01 X-7.37085 Y16.08323
G01 X-7.50760 Y16.09341
G01 X-7.69496 Y16.08445
G01 X-7.90529 Y16.03931
G01 X-7.94898 Y16.02278
G01 X-8.09142 Y15.96243
G01 X-8.18467 Y15.91000
G01 X-8.26325 Y15.85783
G01 X-8.38078 Y15.76306
G01 X-9.19465 Y14.95011
G01 X-9.30298 Y14.82593
G01 X-9.38014 Y14.71262
G01 X-9.46607 Y14.54589
G01 X-9.53214 Y14.34117
G01 X-9.55860 Y14.14155
G01 X-9.56046 Y14.09756
G01 X-9.55396 Y13.94043
G01 X-9.53907 Y13.83711
G01 X-9.51852 Y13.74239
G01 X-9.46541 Y13.58643
G01 X-9.45093 Y13.54821
G01 X-9.41504 Y13.48158
G01 X-9.37743 Y13.39853
G01 X-9.36480 Y13.23447
G01 X-9.36622 Y9.05858
G01 X-9.34786 Y8.91182
G01 X-9.31573 Y8.80682
G01 X-9.27857 Y8.72185
G01 X-9.22716 Y8.63305
G01 X-9.13049 Y8.51995
G01 X-5.01691 Y4.40654
G01 X-4.97482 Y4.35983
G01 X-4.86512 Y4.22110
G01 X-4.85409 Y4.14828
G01 X-4.84134 Y3.98277
G01 X-4.84134 Y1.13436
G01 X-4.84462 Y1.07170
G01 X-4.86514 Y0.89596
G01 X-4.90883 Y0.83668
G01 X-5.01686 Y0.71062
G01 X-7.17385 Y-1.44633
G01 X-7.25830 Y-1.52235
G01 X-7.33671 Y-1.58115
G01 X-7.44517 Y-1.64991
G01 X-7.66559 Y-1.62039
G01 X-7.78769 Y-1.59733
G01 X-7.97771 Y-1.59101
G01 X-8.08159 Y-1.60073
G01 X-8.16615 Y-1.61498
G01 X-8.25541 Y-1.63772
G01 X-8.34840 Y-1.66860
G01 X-8.51990 Y-1.75072
G01 X-8.67435 Y-1.86172
G01 X-8.72264 Y-1.90729
G01 X-8.80783 Y-1.99705
G01 X-8.87849 Y-2.09032
G01 X-8.91804 Y-2.15179
G01 X-8.96727 Y-2.24422
G01 X-9.00229 Y-2.32207
G01 X-9.05787 Y-2.50396
G01 X-9.08025 Y-2.69283
G01 X-9.07943 Y-2.77185
G01 X-9.07133 Y-2.88267
G01 X-9.04799 Y-3.01018
G01 X-9.03244 Y-3.06857
G01 X-8.99295 Y-3.17914
G01 X-8.96445 Y-3.24604
G01 X-8.86788 Y-3.40990
G01 X-8.74324 Y-3.55404
G01 X-8.11553 Y-4.18094
G01 X-8.00438 Y-4.27025
G01 X-7.93811 Y-4.31394
G01 X-7.84139 Y-4.36776
G01 X-7.66483 Y-4.43822
G01 X-7.47870 Y-4.47746
G01 X-7.28866 Y-4.48379
G01 X-7.18480 Y-4.47403
G01 X-7.10024 Y-4.45981
G01 X-6.95086 Y-4.41836
G01 X-6.78866 Y-4.34581
G01 X-6.74647 Y-4.32407
G01 X-6.59199 Y-4.21305
G01 X-6.54370 Y-4.16748
G01 X-6.45856 Y-4.07774
G01 X-6.42468 Y-4.03555
G01 X-6.34835 Y-3.92303
G01 X-6.29912 Y-3.83057
G01 X-6.26410 Y-3.75272
G01 X-6.20852 Y-3.57083
G01 X-6.18614 Y-3.38196
G01 X-6.18696 Y-3.30294
G01 X-6.19506 Y-3.19212
G01 X-6.22597 Y-3.01285
G01 X-6.24172 Y-2.84594
G01 X-6.21848 Y-2.80426
G01 X-6.15015 Y-2.70413
G01 X-6.04213 Y-2.57807
G01 X-3.45488 Y0.00711
G01 X-3.37886 Y0.10282
G01 X-3.33741 Y0.16944
G01 X-3.29527 Y0.25999
G01 X-3.27160 Y0.32956
G01 X-3.24538 Y0.45222
G01 X-3.24129 Y0.53099
G01 X-3.23941 Y4.58975
G04 P0 ( dwell for no time -- G64 should not smooth over this point )
G00 Z1.20000 ( retract )

G00 X-6.82770 Y2.99654 ( rapid move to begin. )
G01 F254.00000
( Mill infeed pass 1/1 )
G01 Z-0.11000
G04 P0 ( dwell for no time -- G64 should not smooth over this point )
G01 F100.00000
G01 X-6.82770 Y2.99654
G01 X-6.85058 Y2.79164
G01 X-6.91451 Y2.58905
G01 X-6.99038 Y2.43949
G01 X-7.02996 Y2.37800
G01 X-7.10062 Y2.28476
G01 X-7.18576 Y2.19502
G01 X-7.23407 Y2.14942
G01 X-7.38853 Y2.03843
G01 X-7.56006 Y1.95631
G01 X-7.65302 Y1.92545
G01 X-7.74230 Y1.90269
G01 X-8.01111 Y1.86002
G01 X-8.08921 Y1.80246
G01 X-8.15518 Y1.74549
G01 X-11.75509 Y-1.85209
G01 X-11.83236 Y-1.93952
G01 X-11.92835 Y-2.08067
G01 X-12.03688 Y-2.20459
G01 X-12.81468 Y-2.98242
G01 X-12.88623 Y-3.04777
G01 X-12.96825 Y-3.11231
G01 X-13.04689 Y-3.16451
G01 X-13.14013 Y-3.21691
G01 X-13.28255 Y-3.27726
G01 X-13.34232 Y-3.29755
G01 X-13.52296 Y-3.33708
G01 X-13.59946 Y-3.34414
G01 X-13.72392 Y-3.34790
G01 X-13.79804 Y-3.34416
G01 X-13.92408 Y-3.32781
G01 X-14.11889 Y-3.27723
G01 X-14.30274 Y-3.19491
G01 X-14.35082 Y-3.16481
G01 X-14.46972 Y-3.08242
G01 X-14.55806 Y-3.00571
G01 X-14.61729 Y-2.94576
G01 X-14.72890 Y-2.80779
G01 X-14.84071 Y-2.61229
G01 X-14.90668 Y-2.42202
G01 X-14.92722 Y-2.32730
G01 X-14.94211 Y-2.22397
G01 X-14.94861 Y-2.06685
G01 X-14.94676 Y-2.02286
G01 X-14.92029 Y-1.82324
G01 X-14.85943 Y-1.63124
G01 X-14.82728 Y-1.56144
G01 X-14.76830 Y-1.45179
G01 X-14.69113 Y-1.33848
G01 X-14.58280 Y-1.21430
G01 X-13.76893 Y-0.40132
G01 X-13.65138 Y-0.30658
G01 X-13.52631 Y-0.22324
G01 X-13.46741 Y-0.16962
G01 X-9.88479 Y3.41297
G01 X-9.77676 Y3.53903
G01 X-9.74136 Y3.58592
G01 X-9.71164 Y3.76232
G01 X-9.69990 Y3.85856
G01 X-9.64435 Y4.04043
G01 X-9.60930 Y4.11828
G01 X-9.56008 Y4.21071
G01 X-9.48375 Y4.32326
G01 X-9.44987 Y4.36545
G01 X-9.31642 Y4.50078
G01 X-9.16196 Y4.61178
G01 X-8.99046 Y4.69389
G01 X-8.89747 Y4.72476
G01 X-8.80821 Y4.74751
G01 X-8.66107 Y4.76893
G01 X-8.61977 Y4.77149
G01 X-8.42975 Y4.76517
G01 X-8.24360 Y4.72592
G01 X-8.06704 Y4.65546
G01 X-7.97037 Y4.60164
G01 X-7.90456 Y4.55828
G01 X-7.82678 Y4.49697
G01 X-7.69026 Y4.37505
G01 X-7.58439 Y4.30593
G01 X-7.49955 Y4.24096
G01 X-7.44789 Y4.19412
G01 X-7.35940 Y4.10078
G01 X-7.29440 Y4.01592
G01 X-7.22528 Y3.91010
G01 X-7.04024 Y3.69710
G01 X-6.94398 Y3.53375
G01 X-6.91551 Y3.46685
G01 X-6.87601 Y3.35625
G01 X-6.84743 Y3.23629
G01 X-6.83710 Y3.17035
G01 X-6.82770 Y2.99654
G04 P0 ( dwell for no time -- G64 should not smooth over this point )
G00 Z1.20000 ( retract )

G00 X-15.01699 Y13.82321 ( rapid move to begin. )
G01 F254.00000
( Mill infeed pass 1/1 )
G01 Z-0.11000
G04 P0 ( dwell for no time -- G64 should not smooth over this point )
G01 F100.00000
G01 X-15.01699 Y13.82321
G01 X-14.89210 Y13.90622
G01 X-14.75880 Y13.98636
G01 X-14.64084 Y14.04996
G01 X-14.54173 Y14.10071
G01 X-14.45237 Y14.13820
G01 X-14.21354 Y14.25158
G01 X-14.05659 Y14.36469
G01 X-13.92560 Y14.49791
G01 X-13.85494 Y14.59116
G01 X-13.81539 Y14.65263
G01 X-13.76616 Y14.74511
G01 X-13.73114 Y14.82291
G01 X-13.67556 Y15.00482
G01 X-13.65319 Y15.19367
G01 X-13.65400 Y15.27274
G01 X-13.66210 Y15.38351
G01 X-13.67246 Y15.44950
G01 X-13.70101 Y15.56944
G01 X-13.74049 Y15.67995
G01 X-13.76896 Y15.74688
G01 X-13.86558 Y15.91076
G01 X-13.95766 Y16.01970
G01 X-14.61790 Y16.68178
G01 X-14.72905 Y16.77109
G01 X-14.79535 Y16.81480
G01 X-14.89205 Y16.86862
G01 X-15.06860 Y16.93908
G01 X-15.25476 Y16.97830
G01 X-15.30838 Y16.98181
G01 X-15.44475 Y16.98462
G01 X-15.54858 Y16.97487
G01 X-15.63322 Y16.96065
G01 X-15.78259 Y16.91919
G01 X-15.81544 Y16.90705
G01 X-15.98694 Y16.82491
G01 X-16.14145 Y16.71391
G01 X-16.27490 Y16.57858
G01 X-16.34553 Y16.48534
G01 X-16.38508 Y16.42387
G01 X-16.46095 Y16.27429
G01 X-16.51554 Y16.10520
G01 X-16.52491 Y16.07167
G01 X-16.54729 Y15.88282
G01 X-16.54429 Y15.73423
G01 X-16.55415 Y15.53512
G01 X-16.56898 Y15.38478
G01 X-16.59019 Y15.23182
G04 P0 ( dwell for no time -- G64 should not smooth over this point )
G00 Z1.20000 ( retract )

G00 X-18.38625 Y13.43576 ( rapid move to begin. )
G01 F254.00000
( Mill infeed pass 1/1 )
G01 Z-0.11000
G04 P0 ( dwell for no time -- G64 should not smooth over this point )
G01 F100.00000
G01 X-18.38625 Y13.43576
G01 X-18.67251 Y13.40127
G01 X-18.80027 Y13.39337
G01 X-19.07819 Y13.38997
G01 X-19.22531 Y13.36855
G01 X-19.31457 Y13.34582
G01 X-19.40756 Y13.31491
G01 X-19.57906 Y13.23282
G01 X-19.73351 Y13.12182
G01 X-19.78182 Y13.07622
G01 X-19.86699 Y12.98646
G01 X-19.90085 Y12.94427
G01 X-19.97718 Y12.83175
G01 X-20.02640 Y12.73932
G01 X-20.06145 Y12.66147
G01 X-20.11700 Y12.47958
G01 X-20.13938 Y12.29068
G01 X-20.13638 Y12.14214
G01 X-20.14624 Y11.94311
G01 X-20.16110 Y11.79253
G01 X-20.18228 Y11.63973
G04 P0 ( dwell for no time -- G64 should not smooth over this point )
G00 Z1.20000 ( retract )

G00 X-15.00508 Y10.05281 ( rapid move to begin. )
G01 F254.00000
( Mill infeed pass 1/1 )
G01 Z-0.11000
G04 P0 ( dwell for no time -- G64 should not smooth over this point )
G01 F100.00000
G01 X-15.00508 Y10.05281
G01 X-14.77452 Y10.09698
G01 X-14.69339 Y10.10732
G01 X-14.53670 Y10.12149
G01 X-14.40020 Y10.12604
G01 X-14.16975 Y10.17331
G01 X-14.01321 Y10.23239
G01 X-13.87384 Y10.30531
G01 X-13.83668 Y10.32891
G01 X-13.67704 Y10.45164
G01 X-13.54117 Y10.60036
G01 X-13.49682 Y10.66310
G01 X-13.43134 Y10.76899
G01 X-13.37180 Y10.89251
G01 X-13.34869 Y10.95238
G01 X-13.31046 Y11.08144
G01 X-13.29507 Y11.14638
G01 X-13.27442 Y11.34676
G01 X-13.28839 Y11.54760
G01 X-13.31059 Y11.66246
G01 X-13.33294 Y11.74379
G01 X-13.37201 Y11.85136
G01 X-13.40703 Y11.93084
G01 X-13.51001 Y12.10396
G01 X-13.60795 Y12.21900
G01 X-14.41983 Y13.03386
G01 X-14.49024 Y13.10074
G01 X-14.55085 Y13.14701
G01 X-14.64412 Y13.22685
G01 X-14.78288 Y13.35867
G01 X-14.87645 Y13.46223
G01 X-14.93660 Y13.58925
G01 X-15.00797 Y13.78867
G01 X-15.01699 Y13.82321
G01 X-15.17706 Y13.91013
G01 X-15.27261 Y13.96860
G01 X-15.46108 Y14.09964
G01 X-15.52468 Y14.16822
G01 X-15.64884 Y14.28758
G01 X-16.34754 Y14.99271
G01 X-16.40609 Y15.04640
G01 X-16.59019 Y15.23182
G01 X-16.87650 Y15.19733
G01 X-17.00423 Y15.18943
G01 X-17.28213 Y15.18600
G01 X-17.42925 Y15.16459
G01 X-17.51846 Y15.14188
G01 X-17.61150 Y15.11099
G01 X-17.78300 Y15.02888
G01 X-17.93745 Y14.91785
G01 X-17.98571 Y14.87231
G01 X-18.07093 Y14.78252
G01 X-18.10479 Y14.74036
G01 X-18.18114 Y14.62781
G01 X-18.23037 Y14.53533
G01 X-18.26539 Y14.45753
G01 X-18.32097 Y14.27561
G01 X-18.34335 Y14.08674
G01 X-18.34032 Y13.93817
G01 X-18.35020 Y13.73904
G01 X-18.36504 Y13.58872
G01 X-18.38625 Y13.43576
G01 X-18.20210 Y13.25029
G01 X-18.14363 Y13.19670
G01 X-17.44500 Y12.49164
G01 X-17.32077 Y12.37219
G01 X-17.25712 Y12.30356
G01 X-16.65094 Y11.70079
G01 X-16.64073 Y11.69429
G01 X-16.58229 Y11.62997
G01 X-16.41424 Y11.46647
G01 X-16.32057 Y11.36802
G01 X-16.24739 Y11.30094
G01 X-15.37866 Y10.42479
G01 X-15.30546 Y10.35771
G01 X-15.21178 Y10.25924
G01 X-15.04376 Y10.09576
G01 X-15.00508 Y10.05281
G01 X-15.05712 Y9.73966
G01 X-15.07112 Y9.54428
G01 X-15.09111 Y9.35032
G01 X-15.14475 Y9.15632
G01 X-15.19357 Y9.03905
G01 X-15.22740 Y8.97296
G01 X-15.29288 Y8.86706
G01 X-15.33723 Y8.80433
G01 X-15.47310 Y8.65558
G01 X-15.50924 Y8.62604
G01 X-15.63273 Y8.53288
G01 X-15.72471 Y8.47834
G01 X-15.80924 Y8.43633
G01 X-15.96583 Y8.37722
G01 X-16.19623 Y8.33001
G01 X-16.33283 Y8.32543
G01 X-16.48938 Y8.31129
G01 X-16.57058 Y8.30092
G01 X-16.80113 Y8.25675
G01 X-16.83974 Y8.29965
G01 X-17.00781 Y8.46320
G01 X-17.10149 Y8.56165
G01 X-17.17467 Y8.62874
G01 X-18.04337 Y9.50478
G01 X-18.11663 Y9.57196
G01 X-18.21028 Y9.67039
G01 X-18.37832 Y9.83394
G01 X-18.43677 Y9.89823
G01 X-18.44698 Y9.90473
G01 X-19.05323 Y10.50760
G01 X-19.11680 Y10.57615
G01 X-19.24108 Y10.69564
G01 X-19.93976 Y11.40074
G01 X-19.99823 Y11.45436
G01 X-20.18228 Y11.63973
G01 X-20.46849 Y11.60523
G01 X-20.59640 Y11.59731
G01 X-20.87420 Y11.59391
G01 X-21.02137 Y11.57249
G01 X-21.17075 Y11.53104
G01 X-21.20359 Y11.51890
G01 X-21.37512 Y11.43676
G01 X-21.52960 Y11.32576
G01 X-21.66305 Y11.19043
G01 X-21.69691 Y11.14826
G01 X-21.77324 Y11.03572
G01 X-21.84913 Y10.88614
G01 X-21.91306 Y10.68352
G01 X-21.93544 Y10.49467
G01 X-21.93244 Y10.34608
G01 X-21.94230 Y10.14697
G01 X-21.95713 Y9.99655
G01 X-21.97834 Y9.84367
G01 X-21.79424 Y9.65825
G01 X-21.73580 Y9.60465
G01 X-21.03699 Y8.89942
G01 X-20.91284 Y8.78007
G01 X-20.84923 Y8.71149
G01 X-20.24306 Y8.10872
G01 X-20.23285 Y8.10222
G01 X-20.17441 Y8.03791
G01 X-20.00636 Y7.87438
G01 X-19.91263 Y7.77588
G01 X-19.83941 Y7.70875
G01 X-18.97073 Y6.83268
G01 X-18.89755 Y6.76559
G01 X-18.80387 Y6.66714
G01 X-18.63580 Y6.50359
G01 X-18.59719 Y6.46072
G01 X-18.64921 Y6.14756
G01 X-18.66537 Y5.90611
G01 X-18.66651 Y5.79575
G01 X-18.66085 Y5.67162
G01 X-18.65257 Y5.55338
G01 X-18.63456 Y5.42193
G01 X-18.75950 Y5.32326
G01 X-18.84124 Y5.24965
G01 X-18.97032 Y5.14662
G01 X-19.05155 Y5.07350
G01 X-19.30832 Y4.86705
G01 X-19.47476 Y4.75264
G01 X-19.54220 Y4.71137
G01 X-19.72424 Y4.61254
G01 X-19.89445 Y4.53644
G01 X-19.91497 Y4.45366
G01 X-19.97070 Y4.29153
G01 X-20.03598 Y4.14287
G01 X-20.16440 Y3.92412
G01 X-20.22511 Y3.85087
G01 X-22.81326 Y1.26309
G01 X-22.87059 Y1.20228
G01 X-22.97595 Y1.07841
G01 X-23.06043 Y0.94089
G01 X-23.12218 Y0.80716
G01 X-23.15042 Y0.72367
G01 X-23.17323 Y0.63828
G01 X-23.19205 Y0.53297
G01 X-23.20348 Y0.32103
G01 X-23.20183 Y-1.21440
G01 X-23.20511 Y-1.27704
G01 X-23.22563 Y-1.45275
G01 X-23.26935 Y-1.51206
G01 X-23.37737 Y-1.63810
G01 X-27.43022 Y-5.69097
G01 X-27.55936 Y-5.84152
G01 X-27.63053 Y-5.95546
G01 X-27.72413 Y-6.05826
G01 X-27.81620 Y-6.16717
G01 X-27.91696 Y-6.33974
G01 X-27.98077 Y-6.50855
G01 X-28.00934 Y-6.62851
G01 X-28.01968 Y-6.69442
G01 X-28.02778 Y-6.80522
G01 X-28.02857 Y-6.88424
G01 X-28.00619 Y-7.07311
G01 X-27.95064 Y-7.25503
G01 X-27.91559 Y-7.33283
G01 X-27.86637 Y-7.42531
G01 X-27.82682 Y-7.48678
G01 X-27.75618 Y-7.58002
G01 X-27.67099 Y-7.66978
G01 X-27.62270 Y-7.71535
G01 X-27.46825 Y-7.82637
G01 X-27.29675 Y-7.90849
G01 X-27.20370 Y-7.93938
G01 X-27.11450 Y-7.96209
G01 X-27.02992 Y-7.97634
G01 X-26.92606 Y-7.98606
G01 X-26.72509 Y-7.98591
G01 X-26.57823 Y-7.99310
G01 X-26.45555 Y-8.00509
G01 X-26.27544 Y-8.02932
G01 X-25.92789 Y-7.68220
G01 X-25.82471 Y-7.60090
G01 X-25.69380 Y-7.48238
G01 X-25.33663 Y-7.12701
G01 X-25.15568 Y-6.96930
G01 X-25.08575 Y-6.91568
G01 X-24.93681 Y-6.81335
G01 X-24.85100 Y-6.76084
G01 X-24.67747 Y-6.66669
G01 X-24.64587 Y-6.55300
G01 X-24.60688 Y-6.43661
G01 X-24.54450 Y-6.29407
G01 X-24.48890 Y-6.19427
G01 X-24.42060 Y-6.09422
G01 X-24.31258 Y-5.96816
G01 X-22.39559 Y-4.05227
G01 X-22.25332 Y-3.93974
G01 X-22.14512 Y-3.87307
G01 X-22.00158 Y-3.80291
G01 X-21.90389 Y-3.84894
G01 X-21.80405 Y-3.90454
G01 X-21.70392 Y-3.97289
G01 X-21.57786 Y-4.08092
G01 X-19.14533 Y-6.51345
G01 X-19.07901 Y-6.58609
G01 X-19.02305 Y-6.65874
G01 X-18.96125 Y-6.75231
G01 X-18.89656 Y-6.87403
G01 X-18.85048 Y-6.98335
G01 X-18.81279 Y-7.08980
G01 X-18.90822 Y-7.24268
G01 X-18.95693 Y-7.31096
G01 X-19.12986 Y-7.40141
G01 X-19.24223 Y-7.45378
G01 X-19.28945 Y-7.47085
G01 X-19.54507 Y-7.59188
G01 X-19.70938 Y-7.71050
G01 X-19.84499 Y-7.84863
G01 X-19.91797 Y-7.94476
G01 X-19.96001 Y-8.01007
G01 X-20.01200 Y-8.10773
G01 X-20.04792 Y-8.18774
G01 X-20.10590 Y-8.37745
G01 X-20.12925 Y-8.57461
G01 X-20.12851 Y-8.65574
G01 X-20.11995 Y-8.77268
G01 X-20.10893 Y-8.84286
G01 X-20.07934 Y-8.96666
G01 X-20.01337 Y-9.14156
G01 X-19.90766 Y-9.32282
G01 X-19.77791 Y-9.47296
G01 X-19.25467 Y-9.99622
G01 X-19.18503 Y-10.05977
G01 X-19.10316 Y-10.12401
G01 X-18.97850 Y-10.20224
G01 X-18.93308 Y-10.22579
G01 X-18.80654 Y-10.27859
G01 X-18.74886 Y-10.29929
G01 X-18.55465 Y-10.34026
G01 X-18.35638 Y-10.34684
G01 X-18.24929 Y-10.33689
G01 X-18.15973 Y-10.32180
G01 X-18.06524 Y-10.29774
G01 X-17.96956 Y-10.26587
G01 X-17.83339 Y-10.20232
G01 X-17.77825 Y-10.17156
G01 X-17.62580 Y-10.06127
G01 X-17.49016 Y-9.92312
G01 X-17.41721 Y-9.82701
G01 X-17.37584 Y-9.76272
G01 X-17.32366 Y-9.66376
G01 X-17.25808 Y-9.50867
G01 X-17.17685 Y-9.33562
G01 X-17.08516 Y-9.17240
G01 X-17.02420 Y-9.12637
G01 X-16.87152 Y-9.03315
G01 X-16.76362 Y-9.06930
G01 X-16.62107 Y-9.13168
G01 X-16.52128 Y-9.18728
G01 X-16.42125 Y-9.25556
G01 X-16.29514 Y-9.36358
G01 X-10.13765 Y-15.52339
G01 X-9.97974 Y-15.66515
G01 X-9.89195 Y-15.72633
G01 X-9.81542 Y-15.77058
G01 X-9.73643 Y-15.80965
G01 X-9.59825 Y-15.86055
G01 X-9.44118 Y-15.89806
G01 X-9.27918 Y-15.91168
G01 X-5.95348 Y-15.91213
G01 X-5.88383 Y-15.91617
G01 X-5.72900 Y-15.93576
G01 X-5.66966 Y-15.97947
G01 X-5.54360 Y-16.08750
G01 X-5.15142 Y-16.47967
G01 X-5.08988 Y-16.52852
G01 X-5.01716 Y-16.55864
G01 X-4.93913 Y-16.56890
G01 X-4.86108 Y-16.55864
G01 X-4.78833 Y-16.52849
G01 X-4.72681 Y-16.47967
G01 X-3.15750 Y-14.90990
G01 X-3.12235 Y-14.86251
G01 X-3.09222 Y-14.78978
G01 X-3.08193 Y-14.71173
G01 X-3.09222 Y-14.63368
G01 X-3.12232 Y-14.56096
G01 X-3.15750 Y-14.51353
G01 X-4.74094 Y-12.93010
G01 X-4.78833 Y-12.89497
G01 X-4.86108 Y-12.86480
G01 X-4.93913 Y-12.85456
G01 X-5.01716 Y-12.86480
G01 X-5.08988 Y-12.89494
G01 X-5.13735 Y-12.93015
G01 X-5.55358 Y-13.34572
G01 X-5.60560 Y-13.39202
G01 X-5.72894 Y-13.48768
G01 X-5.80182 Y-13.49870
G01 X-5.96737 Y-13.51145
G01 X-8.51812 Y-13.51130
G01 X-8.58782 Y-13.50726
G01 X-8.74260 Y-13.48768
G01 X-8.80189 Y-13.44399
G01 X-8.92800 Y-13.33597
G01 X-20.62584 Y-1.63810
G01 X-20.66783 Y-1.59149
G01 X-20.77756 Y-1.45278
G01 X-20.78858 Y-1.37991
G01 X-20.80133 Y-1.21427
G01 X-20.80118 Y-0.35636
G01 X-20.79714 Y-0.28674
G01 X-20.77756 Y-0.13193
G01 X-20.73387 Y-0.07264
G01 X-20.62582 Y0.05342
G01 X-18.54043 Y2.13881
G01 X-18.48155 Y2.19243
G01 X-18.35645 Y2.27579
G01 X-18.23890 Y2.37053
G01 X-17.42503 Y3.18351
G01 X-17.31673 Y3.30764
G01 X-17.23954 Y3.42097
G01 X-17.15364 Y3.58772
G01 X-17.09237 Y3.77662
G01 X-17.08005 Y3.83850
G01 X-17.06108 Y3.99209
G01 X-17.05986 Y4.09905
G01 X-17.06575 Y4.19318
G01 X-17.08064 Y4.29656
G01 X-17.10118 Y4.39123
G01 X-17.15430 Y4.54718
G01 X-17.17970 Y4.60492
G01 X-17.27891 Y4.77698
G01 X-17.39054 Y4.91495
G01 X-17.49633 Y5.01734
G01 X-17.53814 Y5.05163
G01 X-17.65704 Y5.13403
G01 X-17.70512 Y5.16410
G01 X-17.88897 Y5.24645
G01 X-18.08582 Y5.29750
G01 X-18.34479 Y5.34220
G01 X-18.63456 Y5.42193
G04 P0 ( dwell for no time -- G64 should not smooth over this point )
G00 Z1.20000 ( retract )

G00 X-18.59719 Y6.46072 ( rapid move to begin. )
G01 F254.00000
( Mill infeed pass 1/1 )
G01 Z-0.11000
G04 P0 ( dwell for no time -- G64 should not smooth over this point )
G01 F100.00000
G01 X-18.59719 Y6.46072
G01 X-18.36656 Y6.50489
G01 X-18.28549 Y6.51520
G01 X-18.12884 Y6.52940
G01 X-17.99229 Y6.53395
G01 X-17.76186 Y6.58122
G01 X-17.60527 Y6.64030
G01 X-17.46595 Y6.71322
G01 X-17.42879 Y6.73682
G01 X-17.26916 Y6.85955
G01 X-17.13329 Y7.00829
G01 X-17.08894 Y7.07098
G01 X-17.02344 Y7.17690
G01 X-16.98963 Y7.24294
G01 X-16.94078 Y7.36023
G01 X-16.88716 Y7.55429
G01 X-16.86717 Y7.74827
G01 X-16.85315 Y7.94362
G01 X-16.80113 Y8.25675
G04 P0 ( dwell for no time -- G64 should not smooth over this point )
G00 Z1.20000 ( retract )

G00 X-21.97834 Y9.84367 ( rapid move to begin. )
G01 F254.00000
( Mill infeed pass 1/1 )
G01 Z-0.11000
G04 P0 ( dwell for no time -- G64 should not smooth over this point )
G01 F100.00000
G01 X-21.97834 Y9.84367
G01 X-22.26455 Y9.80918
G01 X-22.39246 Y9.80125
G01 X-22.67029 Y9.79785
G01 X-22.81740 Y9.77643
G01 X-22.90661 Y9.75373
G01 X-22.99965 Y9.72284
G01 X-23.17115 Y9.64072
G01 X-23.32561 Y9.52970
G01 X-23.37387 Y9.48416
G01 X-23.45908 Y9.39437
G01 X-23.49294 Y9.35220
G01 X-23.56930 Y9.23966
G01 X-23.61852 Y9.14717
G01 X-23.65355 Y9.06937
G01 X-23.70912 Y8.88746
G01 X-23.73150 Y8.69861
G01 X-23.73069 Y8.61954
G01 X-23.72258 Y8.50877
G01 X-23.69924 Y8.38131
G01 X-23.68367 Y8.32287
G01 X-23.64420 Y8.21233
G01 X-23.61570 Y8.14540
G01 X-23.51913 Y7.98154
G01 X-23.42703 Y7.87260
G01 X-22.76678 Y7.21050
G01 X-22.65563 Y7.12119
G01 X-22.53414 Y7.04200
G01 X-22.49886 Y7.01083
G01 X-21.97898 Y6.49244
G01 X-21.89211 Y6.38995
G01 X-21.81108 Y6.20278
G01 X-21.70811 Y6.02968
G01 X-21.68482 Y6.00138
G01 X-21.57611 Y5.87759
G01 X-20.79828 Y5.09976
G01 X-20.72510 Y5.03052
G01 X-20.56188 Y4.91249
G01 X-20.18365 Y4.72313
G01 X-20.01352 Y4.61879
G01 X-19.89445 Y4.53644
G04 P0 ( dwell for no time -- G64 should not smooth over this point )
G00 Z1.20000 ( retract )

G00 X-24.67747 Y-6.66669 ( rapid move to begin. )
G01 F254.00000
( Mill infeed pass 1/1 )
G01 Z-0.11000
G04 P0 ( dwell for no time -- G64 should not smooth over this point )
G01 F100.00000
G01 X-24.67747 Y-6.66669
G01 X-24.47770 Y-6.78271
G01 X-24.39967 Y-6.82361
G01 X-24.23919 Y-6.89976
G01 X-24.08250 Y-6.96125
G01 X-23.89876 Y-7.04908
G01 X-23.74181 Y-7.16219
G01 X-23.61082 Y-7.29541
G01 X-23.54019 Y-7.38866
G01 X-23.50064 Y-7.45012
G01 X-23.42474 Y-7.59971
G01 X-23.37018 Y-7.76884
G01 X-23.35690 Y-7.83052
G01 X-23.33843 Y-7.99117
G01 X-23.33922 Y-8.07019
G01 X-23.34735 Y-8.18104
G01 X-23.38520 Y-8.41281
G01 X-23.39571 Y-8.52752
G01 X-23.32924 Y-8.63222
G01 X-23.27036 Y-8.71068
G01 X-23.19442 Y-8.79508
G01 X-21.98964 Y-9.99620
G01 X-21.85446 Y-10.10442
G01 X-21.69782 Y-10.13046
G01 X-21.52094 Y-10.16782
G01 X-21.34438 Y-10.23828
G01 X-21.24771 Y-10.29208
G01 X-21.18139 Y-10.33579
G01 X-21.10400 Y-10.39658
G01 X-21.03623 Y-10.45830
G01 X-20.44225 Y-11.05228
G01 X-20.31792 Y-11.19612
G01 X-20.21716 Y-11.36868
G01 X-20.15335 Y-11.53749
G01 X-20.13781 Y-11.59584
G01 X-20.11444 Y-11.72337
G01 X-20.10634 Y-11.83419
G01 X-20.10555 Y-11.91318
G01 X-20.12401 Y-12.07389
G01 X-20.13730 Y-12.13559
G01 X-20.18347 Y-12.28397
G01 X-20.21853 Y-12.36177
G01 X-20.26775 Y-12.45425
G01 X-20.30730 Y-12.51572
G01 X-20.37794 Y-12.60897
G01 X-20.50893 Y-12.74219
G01 X-20.66587 Y-12.85532
G01 X-20.83737 Y-12.93744
G01 X-20.93041 Y-12.96830
G01 X-21.01962 Y-12.99101
G01 X-21.10422 Y-13.00526
G01 X-21.20806 Y-13.01501
G01 X-21.39808 Y-13.00866
G01 X-21.58426 Y-12.96942
G01 X-21.76079 Y-12.89901
G01 X-21.80318 Y-12.87701
G01 X-21.92381 Y-12.80145
G01 X-22.00120 Y-12.74069
G01 X-22.06894 Y-12.67897
G01 X-22.66292 Y-12.08499
G01 X-22.78725 Y-11.94115
G01 X-22.88802 Y-11.76863
G01 X-22.95182 Y-11.59982
G01 X-22.98037 Y-11.47989
G01 X-22.99449 Y-11.39005
G01 X-23.02256 Y-11.26266
G01 X-23.09909 Y-11.15962
G01 X-23.16251 Y-11.09043
G01 X-24.36729 Y-9.88929
G01 X-24.45220 Y-9.81878
G01 X-24.55233 Y-9.75042
G01 X-24.59779 Y-9.72510
G01 X-24.83559 Y-9.75507
G01 X-24.93998 Y-9.77580
G01 X-25.13000 Y-9.78212
G01 X-25.23383 Y-9.77237
G01 X-25.31844 Y-9.75815
G01 X-25.46784 Y-9.71669
G01 X-25.50069 Y-9.70455
G01 X-25.67216 Y-9.62241
G01 X-25.82913 Y-9.50930
G01 X-25.96012 Y-9.37608
G01 X-26.03078 Y-9.28284
G01 X-26.07033 Y-9.22137
G01 X-26.11956 Y-9.12889
G01 X-26.15458 Y-9.05106
G01 X-26.21013 Y-8.86920
G01 X-26.23248 Y-8.68032
G01 X-26.23304 Y-8.44380
G01 X-26.24023 Y-8.31566
G01 X-26.25687 Y-8.15779
G01 X-26.27544 Y-8.02932

G04 P0 ( dwell for no time -- G64 should not smooth over this point )
G00 Z2.000000 ( retract )

M5 ( Spindle off. )
G04 P1.000000
M9 ( Coolant off. )
M2 ( Program end. )

