( pcb2gcode 2.4.0 )
( Software-independent Gcode )
( This file uses a mill head of 0.60000mm to drill the 8 hole sizes. )
( Hole sizes: [0.95mm] [1mm] [1.016mm] [1.05mm] [1.1mm] [1.3mm] [3.1mm] [3.2mm] )

G94       (Millimeters per minute feed rate.)
G21       (Units == Millimeters.)
G91.1     (Incremental arc distance mode.)
G90       (Absolute coordinates.)
S2    (RPM spindle speed.)

G01 F250.00000 (Feedrate)
G00 Z2.00000 (Retract)
M5        (Spindle stop.)
G04 P1.00000
(MSG, Change tool bit to drill size 0.60000mm)
M6        (Tool change.)
M3        (Spindle on clockwise.)
G04 P1.00000
G00 Z1.20000

G0 X2.38500 Y11.73500
G1 Z0.10000 F128.00000
G1 F250.00000
G2 X2.38500 Y11.73500 Z-0.00000 I-0.17500 J0.00000
G2 X2.38500 Y11.73500 Z-0.10000 I-0.17500 J0.00000
G2 X2.38500 Y11.73500 Z-0.20000 I-0.17500 J0.00000
G2 X2.38500 Y11.73500 Z-0.30000 I-0.17500 J0.00000
G2 X2.38500 Y11.73500 Z-0.40000 I-0.17500 J0.00000
G2 X2.38500 Y11.73500 Z-0.50000 I-0.17500 J0.00000
G2 X2.38500 Y11.73500 Z-0.60000 I-0.17500 J0.00000
G2 X2.38500 Y11.73500 Z-0.70000 I-0.17500 J0.00000
G2 X2.38500 Y11.73500 Z-0.80000 I-0.17500 J0.00000
G2 X2.38500 Y11.73500 Z-0.90000 I-0.17500 J0.00000
G2 X2.38500 Y11.73500 Z-1.00000 I-0.17500 J0.00000
G2 X2.38500 Y11.73500 Z-1.10000 I-0.17500 J0.00000
G2 X2.38500 Y11.73500 Z-1.20000 I-0.17500 J0.00000
G2 X2.38500 Y11.73500 Z-1.30000 I-0.17500 J0.00000
G2 X2.38500 Y11.73500 Z-1.40000 I-0.17500 J0.00000
G2 X2.38500 Y11.73500 Z-1.50000 I-0.17500 J0.00000
G2 X2.38500 Y11.73500 Z-1.60000 I-0.17500 J0.00000
G2 X2.38500 Y11.73500 Z-1.70000 I-0.17500 J0.00000
G2 X2.38500 Y11.73500 Z-1.80000 I-0.17500 J0.00000
G2 X2.38500 Y11.73500 I-0.17500 J0.00000
G1 Z1.20000 F128.00000

G0 X-0.15500 Y11.73500
G1 Z0.10000 F128.00000
G1 F250.00000
G2 X-0.15500 Y11.73500 Z-0.00000 I-0.17500 J0.00000
G2 X-0.15500 Y11.73500 Z-0.10000 I-0.17500 J0.00000
G2 X-0.15500 Y11.73500 Z-0.20000 I-0.17500 J0.00000
G2 X-0.15500 Y11.73500 Z-0.30000 I-0.17500 J0.00000
G2 X-0.15500 Y11.73500 Z-0.40000 I-0.17500 J0.00000
G2 X-0.15500 Y11.73500 Z-0.50000 I-0.17500 J0.00000
G2 X-0.15500 Y11.73500 Z-0.60000 I-0.17500 J0.00000
G2 X-0.15500 Y11.73500 Z-0.70000 I-0.17500 J0.00000
G2 X-0.15500 Y11.73500 Z-0.80000 I-0.17500 J0.00000
G2 X-0.15500 Y11.73500 Z-0.90000 I-0.17500 J0.00000
G2 X-0.15500 Y11.73500 Z-1.00000 I-0.17500 J0.00000
G2 X-0.15500 Y11.73500 Z-1.10000 I-0.17500 J0.00000
G2 X-0.15500 Y11.73500 Z-1.20000 I-0.17500 J0.00000
G2 X-0.15500 Y11.73500 Z-1.30000 I-0.17500 J0.00000
G2 X-0.15500 Y11.73500 Z-1.40000 I-0.17500 J0.00000
G2 X-0.15500 Y11.73500 Z-1.50000 I-0.17500 J0.00000
G2 X-0.15500 Y11.73500 Z-1.60000 I-0.17500 J0.00000
G2 X-0.15500 Y11.73500 Z-1.70000 I-0.17500 J0.00000
G2 X-0.15500 Y11.73500 Z-1.80000 I-0.17500 J0.00000
G2 X-0.15500 Y11.73500 I-0.17500 J0.00000
G1 Z1.20000 F128.00000

G0 X6.71400 Y-14.28900
G1 Z0.10000 F128.00000
G1 F250.00000
G2 X6.71400 Y-14.28900 Z-0.00000 I-0.17500 J0.00000
G2 X6.71400 Y-14.28900 Z-0.10000 I-0.17500 J0.00000
G2 X6.71400 Y-14.28900 Z-0.20000 I-0.17500 J0.00000
G2 X6.71400 Y-14.28900 Z-0.30000 I-0.17500 J0.00000
G2 X6.71400 Y-14.28900 Z-0.40000 I-0.17500 J0.00000
G2 X6.71400 Y-14.28900 Z-0.50000 I-0.17500 J0.00000
G2 X6.71400 Y-14.28900 Z-0.60000 I-0.17500 J0.00000
G2 X6.71400 Y-14.28900 Z-0.70000 I-0.17500 J0.00000
G2 X6.71400 Y-14.28900 Z-0.80000 I-0.17500 J0.00000
G2 X6.71400 Y-14.28900 Z-0.90000 I-0.17500 J0.00000
G2 X6.71400 Y-14.28900 Z-1.00000 I-0.17500 J0.00000
G2 X6.71400 Y-14.28900 Z-1.10000 I-0.17500 J0.00000
G2 X6.71400 Y-14.28900 Z-1.20000 I-0.17500 J0.00000
G2 X6.71400 Y-14.28900 Z-1.30000 I-0.17500 J0.00000
G2 X6.71400 Y-14.28900 Z-1.40000 I-0.17500 J0.00000
G2 X6.71400 Y-14.28900 Z-1.50000 I-0.17500 J0.00000
G2 X6.71400 Y-14.28900 Z-1.60000 I-0.17500 J0.00000
G2 X6.71400 Y-14.28900 Z-1.70000 I-0.17500 J0.00000
G2 X6.71400 Y-14.28900 Z-1.80000 I-0.17500 J0.00000
G2 X6.71400 Y-14.28900 I-0.17500 J0.00000
G1 Z1.20000 F128.00000

G0 X4.91800 Y-16.08500
G1 Z0.10000 F128.00000
G1 F250.00000
G2 X4.91800 Y-16.08500 Z-0.00000 I-0.17500 J0.00000
G2 X4.91800 Y-16.08500 Z-0.10000 I-0.17500 J0.00000
G2 X4.91800 Y-16.08500 Z-0.20000 I-0.17500 J0.00000
G2 X4.91800 Y-16.08500 Z-0.30000 I-0.17500 J0.00000
G2 X4.91800 Y-16.08500 Z-0.40000 I-0.17500 J0.00000
G2 X4.91800 Y-16.08500 Z-0.50000 I-0.17500 J0.00000
G2 X4.91800 Y-16.08500 Z-0.60000 I-0.17500 J0.00000
G2 X4.91800 Y-16.08500 Z-0.70000 I-0.17500 J0.00000
G2 X4.91800 Y-16.08500 Z-0.80000 I-0.17500 J0.00000
G2 X4.91800 Y-16.08500 Z-0.90000 I-0.17500 J0.00000
G2 X4.91800 Y-16.08500 Z-1.00000 I-0.17500 J0.00000
G2 X4.91800 Y-16.08500 Z-1.10000 I-0.17500 J0.00000
G2 X4.91800 Y-16.08500 Z-1.20000 I-0.17500 J0.00000
G2 X4.91800 Y-16.08500 Z-1.30000 I-0.17500 J0.00000
G2 X4.91800 Y-16.08500 Z-1.40000 I-0.17500 J0.00000
G2 X4.91800 Y-16.08500 Z-1.50000 I-0.17500 J0.00000
G2 X4.91800 Y-16.08500 Z-1.60000 I-0.17500 J0.00000
G2 X4.91800 Y-16.08500 Z-1.70000 I-0.17500 J0.00000
G2 X4.91800 Y-16.08500 Z-1.80000 I-0.17500 J0.00000
G2 X4.91800 Y-16.08500 I-0.17500 J0.00000
G1 Z1.20000 F128.00000

G0 X17.36700 Y-28.97900
G1 Z0.10000 F128.00000
G1 F250.00000
G2 X17.36700 Y-28.97900 Z-0.00000 I-0.17500 J0.00000
G2 X17.36700 Y-28.97900 Z-0.10000 I-0.17500 J0.00000
G2 X17.36700 Y-28.97900 Z-0.20000 I-0.17500 J0.00000
G2 X17.36700 Y-28.97900 Z-0.30000 I-0.17500 J0.00000
G2 X17.36700 Y-28.97900 Z-0.40000 I-0.17500 J0.00000
G2 X17.36700 Y-28.97900 Z-0.50000 I-0.17500 J0.00000
G2 X17.36700 Y-28.97900 Z-0.60000 I-0.17500 J0.00000
G2 X17.36700 Y-28.97900 Z-0.70000 I-0.17500 J0.00000
G2 X17.36700 Y-28.97900 Z-0.80000 I-0.17500 J0.00000
G2 X17.36700 Y-28.97900 Z-0.90000 I-0.17500 J0.00000
G2 X17.36700 Y-28.97900 Z-1.00000 I-0.17500 J0.00000
G2 X17.36700 Y-28.97900 Z-1.10000 I-0.17500 J0.00000
G2 X17.36700 Y-28.97900 Z-1.20000 I-0.17500 J0.00000
G2 X17.36700 Y-28.97900 Z-1.30000 I-0.17500 J0.00000
G2 X17.36700 Y-28.97900 Z-1.40000 I-0.17500 J0.00000
G2 X17.36700 Y-28.97900 Z-1.50000 I-0.17500 J0.00000
G2 X17.36700 Y-28.97900 Z-1.60000 I-0.17500 J0.00000
G2 X17.36700 Y-28.97900 Z-1.70000 I-0.17500 J0.00000
G2 X17.36700 Y-28.97900 Z-1.80000 I-0.17500 J0.00000
G2 X17.36700 Y-28.97900 I-0.17500 J0.00000
G1 Z1.20000 F128.00000

G0 X19.16300 Y-27.18300
G1 Z0.10000 F128.00000
G1 F250.00000
G2 X19.16300 Y-27.18300 Z-0.00000 I-0.17500 J0.00000
G2 X19.16300 Y-27.18300 Z-0.10000 I-0.17500 J0.00000
G2 X19.16300 Y-27.18300 Z-0.20000 I-0.17500 J0.00000
G2 X19.16300 Y-27.18300 Z-0.30000 I-0.17500 J0.00000
G2 X19.16300 Y-27.18300 Z-0.40000 I-0.17500 J0.00000
G2 X19.16300 Y-27.18300 Z-0.50000 I-0.17500 J0.00000
G2 X19.16300 Y-27.18300 Z-0.60000 I-0.17500 J0.00000
G2 X19.16300 Y-27.18300 Z-0.70000 I-0.17500 J0.00000
G2 X19.16300 Y-27.18300 Z-0.80000 I-0.17500 J0.00000
G2 X19.16300 Y-27.18300 Z-0.90000 I-0.17500 J0.00000
G2 X19.16300 Y-27.18300 Z-1.00000 I-0.17500 J0.00000
G2 X19.16300 Y-27.18300 Z-1.10000 I-0.17500 J0.00000
G2 X19.16300 Y-27.18300 Z-1.20000 I-0.17500 J0.00000
G2 X19.16300 Y-27.18300 Z-1.30000 I-0.17500 J0.00000
G2 X19.16300 Y-27.18300 Z-1.40000 I-0.17500 J0.00000
G2 X19.16300 Y-27.18300 Z-1.50000 I-0.17500 J0.00000
G2 X19.16300 Y-27.18300 Z-1.60000 I-0.17500 J0.00000
G2 X19.16300 Y-27.18300 Z-1.70000 I-0.17500 J0.00000
G2 X19.16300 Y-27.18300 Z-1.80000 I-0.17500 J0.00000
G2 X19.16300 Y-27.18300 I-0.17500 J0.00000
G1 Z1.20000 F128.00000

G0 X-0.89100 Y6.91700
G1 Z0.10000 F128.00000
G1 F250.00000
G2 X-0.89100 Y6.91700 Z-0.00000 I-0.20000 J0.00000
G2 X-0.89100 Y6.91700 Z-0.10000 I-0.20000 J0.00000
G2 X-0.89100 Y6.91700 Z-0.20000 I-0.20000 J0.00000
G2 X-0.89100 Y6.91700 Z-0.30000 I-0.20000 J0.00000
G2 X-0.89100 Y6.91700 Z-0.40000 I-0.20000 J0.00000
G2 X-0.89100 Y6.91700 Z-0.50000 I-0.20000 J0.00000
G2 X-0.89100 Y6.91700 Z-0.60000 I-0.20000 J0.00000
G2 X-0.89100 Y6.91700 Z-0.70000 I-0.20000 J0.00000
G2 X-0.89100 Y6.91700 Z-0.80000 I-0.20000 J0.00000
G2 X-0.89100 Y6.91700 Z-0.90000 I-0.20000 J0.00000
G2 X-0.89100 Y6.91700 Z-1.00000 I-0.20000 J0.00000
G2 X-0.89100 Y6.91700 Z-1.10000 I-0.20000 J0.00000
G2 X-0.89100 Y6.91700 Z-1.20000 I-0.20000 J0.00000
G2 X-0.89100 Y6.91700 Z-1.30000 I-0.20000 J0.00000
G2 X-0.89100 Y6.91700 Z-1.40000 I-0.20000 J0.00000
G2 X-0.89100 Y6.91700 Z-1.50000 I-0.20000 J0.00000
G2 X-0.89100 Y6.91700 Z-1.60000 I-0.20000 J0.00000
G2 X-0.89100 Y6.91700 Z-1.70000 I-0.20000 J0.00000
G2 X-0.89100 Y6.91700 Z-1.80000 I-0.20000 J0.00000
G2 X-0.89100 Y6.91700 I-0.20000 J0.00000
G1 Z1.20000 F128.00000

G0 X0.90500 Y5.12100
G1 Z0.10000 F128.00000
G1 F250.00000
G2 X0.90500 Y5.12100 Z-0.00000 I-0.20000 J0.00000
G2 X0.90500 Y5.12100 Z-0.10000 I-0.20000 J0.00000
G2 X0.90500 Y5.12100 Z-0.20000 I-0.20000 J0.00000
G2 X0.90500 Y5.12100 Z-0.30000 I-0.20000 J0.00000
G2 X0.90500 Y5.12100 Z-0.40000 I-0.20000 J0.00000
G2 X0.90500 Y5.12100 Z-0.50000 I-0.20000 J0.00000
G2 X0.90500 Y5.12100 Z-0.60000 I-0.20000 J0.00000
G2 X0.90500 Y5.12100 Z-0.70000 I-0.20000 J0.00000
G2 X0.90500 Y5.12100 Z-0.80000 I-0.20000 J0.00000
G2 X0.90500 Y5.12100 Z-0.90000 I-0.20000 J0.00000
G2 X0.90500 Y5.12100 Z-1.00000 I-0.20000 J0.00000
G2 X0.90500 Y5.12100 Z-1.10000 I-0.20000 J0.00000
G2 X0.90500 Y5.12100 Z-1.20000 I-0.20000 J0.00000
G2 X0.90500 Y5.12100 Z-1.30000 I-0.20000 J0.00000
G2 X0.90500 Y5.12100 Z-1.40000 I-0.20000 J0.00000
G2 X0.90500 Y5.12100 Z-1.50000 I-0.20000 J0.00000
G2 X0.90500 Y5.12100 Z-1.60000 I-0.20000 J0.00000
G2 X0.90500 Y5.12100 Z-1.70000 I-0.20000 J0.00000
G2 X0.90500 Y5.12100 Z-1.80000 I-0.20000 J0.00000
G2 X0.90500 Y5.12100 I-0.20000 J0.00000
G1 Z1.20000 F128.00000

G0 X6.22500 Y7.92500
G1 Z0.10000 F128.00000
G1 F250.00000
G2 X6.22500 Y7.92500 Z-0.00000 I-0.20000 J0.00000
G2 X6.22500 Y7.92500 Z-0.10000 I-0.20000 J0.00000
G2 X6.22500 Y7.92500 Z-0.20000 I-0.20000 J0.00000
G2 X6.22500 Y7.92500 Z-0.30000 I-0.20000 J0.00000
G2 X6.22500 Y7.92500 Z-0.40000 I-0.20000 J0.00000
G2 X6.22500 Y7.92500 Z-0.50000 I-0.20000 J0.00000
G2 X6.22500 Y7.92500 Z-0.60000 I-0.20000 J0.00000
G2 X6.22500 Y7.92500 Z-0.70000 I-0.20000 J0.00000
G2 X6.22500 Y7.92500 Z-0.80000 I-0.20000 J0.00000
G2 X6.22500 Y7.92500 Z-0.90000 I-0.20000 J0.00000
G2 X6.22500 Y7.92500 Z-1.00000 I-0.20000 J0.00000
G2 X6.22500 Y7.92500 Z-1.10000 I-0.20000 J0.00000
G2 X6.22500 Y7.92500 Z-1.20000 I-0.20000 J0.00000
G2 X6.22500 Y7.92500 Z-1.30000 I-0.20000 J0.00000
G2 X6.22500 Y7.92500 Z-1.40000 I-0.20000 J0.00000
G2 X6.22500 Y7.92500 Z-1.50000 I-0.20000 J0.00000
G2 X6.22500 Y7.92500 Z-1.60000 I-0.20000 J0.00000
G2 X6.22500 Y7.92500 Z-1.70000 I-0.20000 J0.00000
G2 X6.22500 Y7.92500 Z-1.80000 I-0.20000 J0.00000
G2 X6.22500 Y7.92500 I-0.20000 J0.00000
G1 Z1.20000 F128.00000

G0 X8.76500 Y7.92500
G1 Z0.10000 F128.00000
G1 F250.00000
G2 X8.76500 Y7.92500 Z-0.00000 I-0.20000 J0.00000
G2 X8.76500 Y7.92500 Z-0.10000 I-0.20000 J0.00000
G2 X8.76500 Y7.92500 Z-0.20000 I-0.20000 J0.00000
G2 X8.76500 Y7.92500 Z-0.30000 I-0.20000 J0.00000
G2 X8.76500 Y7.92500 Z-0.40000 I-0.20000 J0.00000
G2 X8.76500 Y7.92500 Z-0.50000 I-0.20000 J0.00000
G2 X8.76500 Y7.92500 Z-0.60000 I-0.20000 J0.00000
G2 X8.76500 Y7.92500 Z-0.70000 I-0.20000 J0.00000
G2 X8.76500 Y7.92500 Z-0.80000 I-0.20000 J0.00000
G2 X8.76500 Y7.92500 Z-0.90000 I-0.20000 J0.00000
G2 X8.76500 Y7.92500 Z-1.00000 I-0.20000 J0.00000
G2 X8.76500 Y7.92500 Z-1.10000 I-0.20000 J0.00000
G2 X8.76500 Y7.92500 Z-1.20000 I-0.20000 J0.00000
G2 X8.76500 Y7.92500 Z-1.30000 I-0.20000 J0.00000
G2 X8.76500 Y7.92500 Z-1.40000 I-0.20000 J0.00000
G2 X8.76500 Y7.92500 Z-1.50000 I-0.20000 J0.00000
G2 X8.76500 Y7.92500 Z-1.60000 I-0.20000 J0.00000
G2 X8.76500 Y7.92500 Z-1.70000 I-0.20000 J0.00000
G2 X8.76500 Y7.92500 Z-1.80000 I-0.20000 J0.00000
G2 X8.76500 Y7.92500 I-0.20000 J0.00000
G1 Z1.20000 F128.00000

G0 X5.71200 Y15.54500
G1 Z0.10000 F128.00000
G1 F250.00000
G2 X5.71200 Y15.54500 Z-0.00000 I-0.20000 J0.00000
G2 X5.71200 Y15.54500 Z-0.10000 I-0.20000 J0.00000
G2 X5.71200 Y15.54500 Z-0.20000 I-0.20000 J0.00000
G2 X5.71200 Y15.54500 Z-0.30000 I-0.20000 J0.00000
G2 X5.71200 Y15.54500 Z-0.40000 I-0.20000 J0.00000
G2 X5.71200 Y15.54500 Z-0.50000 I-0.20000 J0.00000
G2 X5.71200 Y15.54500 Z-0.60000 I-0.20000 J0.00000
G2 X5.71200 Y15.54500 Z-0.70000 I-0.20000 J0.00000
G2 X5.71200 Y15.54500 Z-0.80000 I-0.20000 J0.00000
G2 X5.71200 Y15.54500 Z-0.90000 I-0.20000 J0.00000
G2 X5.71200 Y15.54500 Z-1.00000 I-0.20000 J0.00000
G2 X5.71200 Y15.54500 Z-1.10000 I-0.20000 J0.00000
G2 X5.71200 Y15.54500 Z-1.20000 I-0.20000 J0.00000
G2 X5.71200 Y15.54500 Z-1.30000 I-0.20000 J0.00000
G2 X5.71200 Y15.54500 Z-1.40000 I-0.20000 J0.00000
G2 X5.71200 Y15.54500 Z-1.50000 I-0.20000 J0.00000
G2 X5.71200 Y15.54500 Z-1.60000 I-0.20000 J0.00000
G2 X5.71200 Y15.54500 Z-1.70000 I-0.20000 J0.00000
G2 X5.71200 Y15.54500 Z-1.80000 I-0.20000 J0.00000
G2 X5.71200 Y15.54500 I-0.20000 J0.00000
G1 Z1.20000 F128.00000

G0 X-4.44800 Y15.54500
G1 Z0.10000 F128.00000
G1 F250.00000
G2 X-4.44800 Y15.54500 Z-0.00000 I-0.20000 J0.00000
G2 X-4.44800 Y15.54500 Z-0.10000 I-0.20000 J0.00000
G2 X-4.44800 Y15.54500 Z-0.20000 I-0.20000 J0.00000
G2 X-4.44800 Y15.54500 Z-0.30000 I-0.20000 J0.00000
G2 X-4.44800 Y15.54500 Z-0.40000 I-0.20000 J0.00000
G2 X-4.44800 Y15.54500 Z-0.50000 I-0.20000 J0.00000
G2 X-4.44800 Y15.54500 Z-0.60000 I-0.20000 J0.00000
G2 X-4.44800 Y15.54500 Z-0.70000 I-0.20000 J0.00000
G2 X-4.44800 Y15.54500 Z-0.80000 I-0.20000 J0.00000
G2 X-4.44800 Y15.54500 Z-0.90000 I-0.20000 J0.00000
G2 X-4.44800 Y15.54500 Z-1.00000 I-0.20000 J0.00000
G2 X-4.44800 Y15.54500 Z-1.10000 I-0.20000 J0.00000
G2 X-4.44800 Y15.54500 Z-1.20000 I-0.20000 J0.00000
G2 X-4.44800 Y15.54500 Z-1.30000 I-0.20000 J0.00000
G2 X-4.44800 Y15.54500 Z-1.40000 I-0.20000 J0.00000
G2 X-4.44800 Y15.54500 Z-1.50000 I-0.20000 J0.00000
G2 X-4.44800 Y15.54500 Z-1.60000 I-0.20000 J0.00000
G2 X-4.44800 Y15.54500 Z-1.70000 I-0.20000 J0.00000
G2 X-4.44800 Y15.54500 Z-1.80000 I-0.20000 J0.00000
G2 X-4.44800 Y15.54500 I-0.20000 J0.00000
G1 Z1.20000 F128.00000

G0 X-8.07500 Y14.10100
G1 Z0.10000 F128.00000
G1 F250.00000
G2 X-8.07500 Y14.10100 Z-0.00000 I-0.20000 J0.00000
G2 X-8.07500 Y14.10100 Z-0.10000 I-0.20000 J0.00000
G2 X-8.07500 Y14.10100 Z-0.20000 I-0.20000 J0.00000
G2 X-8.07500 Y14.10100 Z-0.30000 I-0.20000 J0.00000
G2 X-8.07500 Y14.10100 Z-0.40000 I-0.20000 J0.00000
G2 X-8.07500 Y14.10100 Z-0.50000 I-0.20000 J0.00000
G2 X-8.07500 Y14.10100 Z-0.60000 I-0.20000 J0.00000
G2 X-8.07500 Y14.10100 Z-0.70000 I-0.20000 J0.00000
G2 X-8.07500 Y14.10100 Z-0.80000 I-0.20000 J0.00000
G2 X-8.07500 Y14.10100 Z-0.90000 I-0.20000 J0.00000
G2 X-8.07500 Y14.10100 Z-1.00000 I-0.20000 J0.00000
G2 X-8.07500 Y14.10100 Z-1.10000 I-0.20000 J0.00000
G2 X-8.07500 Y14.10100 Z-1.20000 I-0.20000 J0.00000
G2 X-8.07500 Y14.10100 Z-1.30000 I-0.20000 J0.00000
G2 X-8.07500 Y14.10100 Z-1.40000 I-0.20000 J0.00000
G2 X-8.07500 Y14.10100 Z-1.50000 I-0.20000 J0.00000
G2 X-8.07500 Y14.10100 Z-1.60000 I-0.20000 J0.00000
G2 X-8.07500 Y14.10100 Z-1.70000 I-0.20000 J0.00000
G2 X-8.07500 Y14.10100 Z-1.80000 I-0.20000 J0.00000
G2 X-8.07500 Y14.10100 I-0.20000 J0.00000
G1 Z1.20000 F128.00000

G0 X-14.36100 Y11.40700
G1 Z0.10000 F128.00000
G1 F250.00000
G2 X-14.36100 Y11.40700 Z-0.00000 I-0.20000 J0.00000
G2 X-14.36100 Y11.40700 Z-0.10000 I-0.20000 J0.00000
G2 X-14.36100 Y11.40700 Z-0.20000 I-0.20000 J0.00000
G2 X-14.36100 Y11.40700 Z-0.30000 I-0.20000 J0.00000
G2 X-14.36100 Y11.40700 Z-0.40000 I-0.20000 J0.00000
G2 X-14.36100 Y11.40700 Z-0.50000 I-0.20000 J0.00000
G2 X-14.36100 Y11.40700 Z-0.60000 I-0.20000 J0.00000
G2 X-14.36100 Y11.40700 Z-0.70000 I-0.20000 J0.00000
G2 X-14.36100 Y11.40700 Z-0.80000 I-0.20000 J0.00000
G2 X-14.36100 Y11.40700 Z-0.90000 I-0.20000 J0.00000
G2 X-14.36100 Y11.40700 Z-1.00000 I-0.20000 J0.00000
G2 X-14.36100 Y11.40700 Z-1.10000 I-0.20000 J0.00000
G2 X-14.36100 Y11.40700 Z-1.20000 I-0.20000 J0.00000
G2 X-14.36100 Y11.40700 Z-1.30000 I-0.20000 J0.00000
G2 X-14.36100 Y11.40700 Z-1.40000 I-0.20000 J0.00000
G2 X-14.36100 Y11.40700 Z-1.50000 I-0.20000 J0.00000
G2 X-14.36100 Y11.40700 Z-1.60000 I-0.20000 J0.00000
G2 X-14.36100 Y11.40700 Z-1.70000 I-0.20000 J0.00000
G2 X-14.36100 Y11.40700 Z-1.80000 I-0.20000 J0.00000
G2 X-14.36100 Y11.40700 I-0.20000 J0.00000
G1 Z1.20000 F128.00000

G0 X-16.15800 Y9.61100
G1 Z0.10000 F128.00000
G1 F250.00000
G2 X-16.15800 Y9.61100 Z-0.00000 I-0.20000 J0.00000
G2 X-16.15800 Y9.61100 Z-0.10000 I-0.20000 J0.00000
G2 X-16.15800 Y9.61100 Z-0.20000 I-0.20000 J0.00000
G2 X-16.15800 Y9.61100 Z-0.30000 I-0.20000 J0.00000
G2 X-16.15800 Y9.61100 Z-0.40000 I-0.20000 J0.00000
G2 X-16.15800 Y9.61100 Z-0.50000 I-0.20000 J0.00000
G2 X-16.15800 Y9.61100 Z-0.60000 I-0.20000 J0.00000
G2 X-16.15800 Y9.61100 Z-0.70000 I-0.20000 J0.00000
G2 X-16.15800 Y9.61100 Z-0.80000 I-0.20000 J0.00000
G2 X-16.15800 Y9.61100 Z-0.90000 I-0.20000 J0.00000
G2 X-16.15800 Y9.61100 Z-1.00000 I-0.20000 J0.00000
G2 X-16.15800 Y9.61100 Z-1.10000 I-0.20000 J0.00000
G2 X-16.15800 Y9.61100 Z-1.20000 I-0.20000 J0.00000
G2 X-16.15800 Y9.61100 Z-1.30000 I-0.20000 J0.00000
G2 X-16.15800 Y9.61100 Z-1.40000 I-0.20000 J0.00000
G2 X-16.15800 Y9.61100 Z-1.50000 I-0.20000 J0.00000
G2 X-16.15800 Y9.61100 Z-1.60000 I-0.20000 J0.00000
G2 X-16.15800 Y9.61100 Z-1.70000 I-0.20000 J0.00000
G2 X-16.15800 Y9.61100 Z-1.80000 I-0.20000 J0.00000
G2 X-16.15800 Y9.61100 I-0.20000 J0.00000
G1 Z1.20000 F128.00000

G0 X-17.95400 Y7.81500
G1 Z0.10000 F128.00000
G1 F250.00000
G2 X-17.95400 Y7.81500 Z-0.00000 I-0.20000 J0.00000
G2 X-17.95400 Y7.81500 Z-0.10000 I-0.20000 J0.00000
G2 X-17.95400 Y7.81500 Z-0.20000 I-0.20000 J0.00000
G2 X-17.95400 Y7.81500 Z-0.30000 I-0.20000 J0.00000
G2 X-17.95400 Y7.81500 Z-0.40000 I-0.20000 J0.00000
G2 X-17.95400 Y7.81500 Z-0.50000 I-0.20000 J0.00000
G2 X-17.95400 Y7.81500 Z-0.60000 I-0.20000 J0.00000
G2 X-17.95400 Y7.81500 Z-0.70000 I-0.20000 J0.00000
G2 X-17.95400 Y7.81500 Z-0.80000 I-0.20000 J0.00000
G2 X-17.95400 Y7.81500 Z-0.90000 I-0.20000 J0.00000
G2 X-17.95400 Y7.81500 Z-1.00000 I-0.20000 J0.00000
G2 X-17.95400 Y7.81500 Z-1.10000 I-0.20000 J0.00000
G2 X-17.95400 Y7.81500 Z-1.20000 I-0.20000 J0.00000
G2 X-17.95400 Y7.81500 Z-1.30000 I-0.20000 J0.00000
G2 X-17.95400 Y7.81500 Z-1.40000 I-0.20000 J0.00000
G2 X-17.95400 Y7.81500 Z-1.50000 I-0.20000 J0.00000
G2 X-17.95400 Y7.81500 Z-1.60000 I-0.20000 J0.00000
G2 X-17.95400 Y7.81500 Z-1.70000 I-0.20000 J0.00000
G2 X-17.95400 Y7.81500 Z-1.80000 I-0.20000 J0.00000
G2 X-17.95400 Y7.81500 I-0.20000 J0.00000
G1 Z1.20000 F128.00000

G0 X-19.75000 Y6.01900
G1 Z0.10000 F128.00000
G1 F250.00000
G2 X-19.75000 Y6.01900 Z-0.00000 I-0.20000 J0.00000
G2 X-19.75000 Y6.01900 Z-0.10000 I-0.20000 J0.00000
G2 X-19.75000 Y6.01900 Z-0.20000 I-0.20000 J0.00000
G2 X-19.75000 Y6.01900 Z-0.30000 I-0.20000 J0.00000
G2 X-19.75000 Y6.01900 Z-0.40000 I-0.20000 J0.00000
G2 X-19.75000 Y6.01900 Z-0.50000 I-0.20000 J0.00000
G2 X-19.75000 Y6.01900 Z-0.60000 I-0.20000 J0.00000
G2 X-19.75000 Y6.01900 Z-0.70000 I-0.20000 J0.00000
G2 X-19.75000 Y6.01900 Z-0.80000 I-0.20000 J0.00000
G2 X-19.75000 Y6.01900 Z-0.90000 I-0.20000 J0.00000
G2 X-19.75000 Y6.01900 Z-1.00000 I-0.20000 J0.00000
G2 X-19.75000 Y6.01900 Z-1.10000 I-0.20000 J0.00000
G2 X-19.75000 Y6.01900 Z-1.20000 I-0.20000 J0.00000
G2 X-19.75000 Y6.01900 Z-1.30000 I-0.20000 J0.00000
G2 X-19.75000 Y6.01900 Z-1.40000 I-0.20000 J0.00000
G2 X-19.75000 Y6.01900 Z-1.50000 I-0.20000 J0.00000
G2 X-19.75000 Y6.01900 Z-1.60000 I-0.20000 J0.00000
G2 X-19.75000 Y6.01900 Z-1.70000 I-0.20000 J0.00000
G2 X-19.75000 Y6.01900 Z-1.80000 I-0.20000 J0.00000
G2 X-19.75000 Y6.01900 I-0.20000 J0.00000
G1 Z1.20000 F128.00000

G0 X-18.85200 Y3.32500
G1 Z0.10000 F128.00000
G1 F250.00000
G2 X-18.85200 Y3.32500 Z-0.00000 I-0.20000 J0.00000
G2 X-18.85200 Y3.32500 Z-0.10000 I-0.20000 J0.00000
G2 X-18.85200 Y3.32500 Z-0.20000 I-0.20000 J0.00000
G2 X-18.85200 Y3.32500 Z-0.30000 I-0.20000 J0.00000
G2 X-18.85200 Y3.32500 Z-0.40000 I-0.20000 J0.00000
G2 X-18.85200 Y3.32500 Z-0.50000 I-0.20000 J0.00000
G2 X-18.85200 Y3.32500 Z-0.60000 I-0.20000 J0.00000
G2 X-18.85200 Y3.32500 Z-0.70000 I-0.20000 J0.00000
G2 X-18.85200 Y3.32500 Z-0.80000 I-0.20000 J0.00000
G2 X-18.85200 Y3.32500 Z-0.90000 I-0.20000 J0.00000
G2 X-18.85200 Y3.32500 Z-1.00000 I-0.20000 J0.00000
G2 X-18.85200 Y3.32500 Z-1.10000 I-0.20000 J0.00000
G2 X-18.85200 Y3.32500 Z-1.20000 I-0.20000 J0.00000
G2 X-18.85200 Y3.32500 Z-1.30000 I-0.20000 J0.00000
G2 X-18.85200 Y3.32500 Z-1.40000 I-0.20000 J0.00000
G2 X-18.85200 Y3.32500 Z-1.50000 I-0.20000 J0.00000
G2 X-18.85200 Y3.32500 Z-1.60000 I-0.20000 J0.00000
G2 X-18.85200 Y3.32500 Z-1.70000 I-0.20000 J0.00000
G2 X-18.85200 Y3.32500 Z-1.80000 I-0.20000 J0.00000
G2 X-18.85200 Y3.32500 I-0.20000 J0.00000
G1 Z1.20000 F128.00000

G0 X-13.46300 Y-2.06300
G1 Z0.10000 F128.00000
G1 F250.00000
G2 X-13.46300 Y-2.06300 Z-0.00000 I-0.20000 J0.00000
G2 X-13.46300 Y-2.06300 Z-0.10000 I-0.20000 J0.00000
G2 X-13.46300 Y-2.06300 Z-0.20000 I-0.20000 J0.00000
G2 X-13.46300 Y-2.06300 Z-0.30000 I-0.20000 J0.00000
G2 X-13.46300 Y-2.06300 Z-0.40000 I-0.20000 J0.00000
G2 X-13.46300 Y-2.06300 Z-0.50000 I-0.20000 J0.00000
G2 X-13.46300 Y-2.06300 Z-0.60000 I-0.20000 J0.00000
G2 X-13.46300 Y-2.06300 Z-0.70000 I-0.20000 J0.00000
G2 X-13.46300 Y-2.06300 Z-0.80000 I-0.20000 J0.00000
G2 X-13.46300 Y-2.06300 Z-0.90000 I-0.20000 J0.00000
G2 X-13.46300 Y-2.06300 Z-1.00000 I-0.20000 J0.00000
G2 X-13.46300 Y-2.06300 Z-1.10000 I-0.20000 J0.00000
G2 X-13.46300 Y-2.06300 Z-1.20000 I-0.20000 J0.00000
G2 X-13.46300 Y-2.06300 Z-1.30000 I-0.20000 J0.00000
G2 X-13.46300 Y-2.06300 Z-1.40000 I-0.20000 J0.00000
G2 X-13.46300 Y-2.06300 Z-1.50000 I-0.20000 J0.00000
G2 X-13.46300 Y-2.06300 Z-1.60000 I-0.20000 J0.00000
G2 X-13.46300 Y-2.06300 Z-1.70000 I-0.20000 J0.00000
G2 X-13.46300 Y-2.06300 Z-1.80000 I-0.20000 J0.00000
G2 X-13.46300 Y-2.06300 I-0.20000 J0.00000
G1 Z1.20000 F128.00000

G0 X-8.07500 Y3.32500
G1 Z0.10000 F128.00000
G1 F250.00000
G2 X-8.07500 Y3.32500 Z-0.00000 I-0.20000 J0.00000
G2 X-8.07500 Y3.32500 Z-0.10000 I-0.20000 J0.00000
G2 X-8.07500 Y3.32500 Z-0.20000 I-0.20000 J0.00000
G2 X-8.07500 Y3.32500 Z-0.30000 I-0.20000 J0.00000
G2 X-8.07500 Y3.32500 Z-0.40000 I-0.20000 J0.00000
G2 X-8.07500 Y3.32500 Z-0.50000 I-0.20000 J0.00000
G2 X-8.07500 Y3.32500 Z-0.60000 I-0.20000 J0.00000
G2 X-8.07500 Y3.32500 Z-0.70000 I-0.20000 J0.00000
G2 X-8.07500 Y3.32500 Z-0.80000 I-0.20000 J0.00000
G2 X-8.07500 Y3.32500 Z-0.90000 I-0.20000 J0.00000
G2 X-8.07500 Y3.32500 Z-1.00000 I-0.20000 J0.00000
G2 X-8.07500 Y3.32500 Z-1.10000 I-0.20000 J0.00000
G2 X-8.07500 Y3.32500 Z-1.20000 I-0.20000 J0.00000
G2 X-8.07500 Y3.32500 Z-1.30000 I-0.20000 J0.00000
G2 X-8.07500 Y3.32500 Z-1.40000 I-0.20000 J0.00000
G2 X-8.07500 Y3.32500 Z-1.50000 I-0.20000 J0.00000
G2 X-8.07500 Y3.32500 Z-1.60000 I-0.20000 J0.00000
G2 X-8.07500 Y3.32500 Z-1.70000 I-0.20000 J0.00000
G2 X-8.07500 Y3.32500 Z-1.80000 I-0.20000 J0.00000
G2 X-8.07500 Y3.32500 I-0.20000 J0.00000
G1 Z1.20000 F128.00000

G0 X-7.43300 Y-3.03700
G1 Z0.10000 F128.00000
G1 F250.00000
G2 X-7.43300 Y-3.03700 Z-0.00000 I-0.20000 J0.00000
G2 X-7.43300 Y-3.03700 Z-0.10000 I-0.20000 J0.00000
G2 X-7.43300 Y-3.03700 Z-0.20000 I-0.20000 J0.00000
G2 X-7.43300 Y-3.03700 Z-0.30000 I-0.20000 J0.00000
G2 X-7.43300 Y-3.03700 Z-0.40000 I-0.20000 J0.00000
G2 X-7.43300 Y-3.03700 Z-0.50000 I-0.20000 J0.00000
G2 X-7.43300 Y-3.03700 Z-0.60000 I-0.20000 J0.00000
G2 X-7.43300 Y-3.03700 Z-0.70000 I-0.20000 J0.00000
G2 X-7.43300 Y-3.03700 Z-0.80000 I-0.20000 J0.00000
G2 X-7.43300 Y-3.03700 Z-0.90000 I-0.20000 J0.00000
G2 X-7.43300 Y-3.03700 Z-1.00000 I-0.20000 J0.00000
G2 X-7.43300 Y-3.03700 Z-1.10000 I-0.20000 J0.00000
G2 X-7.43300 Y-3.03700 Z-1.20000 I-0.20000 J0.00000
G2 X-7.43300 Y-3.03700 Z-1.30000 I-0.20000 J0.00000
G2 X-7.43300 Y-3.03700 Z-1.40000 I-0.20000 J0.00000
G2 X-7.43300 Y-3.03700 Z-1.50000 I-0.20000 J0.00000
G2 X-7.43300 Y-3.03700 Z-1.60000 I-0.20000 J0.00000
G2 X-7.43300 Y-3.03700 Z-1.70000 I-0.20000 J0.00000
G2 X-7.43300 Y-3.03700 Z-1.80000 I-0.20000 J0.00000
G2 X-7.43300 Y-3.03700 I-0.20000 J0.00000
G1 Z1.20000 F128.00000

G0 X-16.67200 Y-7.09000
G1 Z0.10000 F128.00000
G1 F250.00000
G2 X-16.67200 Y-7.09000 Z-0.00000 I-0.20000 J0.00000
G2 X-16.67200 Y-7.09000 Z-0.10000 I-0.20000 J0.00000
G2 X-16.67200 Y-7.09000 Z-0.20000 I-0.20000 J0.00000
G2 X-16.67200 Y-7.09000 Z-0.30000 I-0.20000 J0.00000
G2 X-16.67200 Y-7.09000 Z-0.40000 I-0.20000 J0.00000
G2 X-16.67200 Y-7.09000 Z-0.50000 I-0.20000 J0.00000
G2 X-16.67200 Y-7.09000 Z-0.60000 I-0.20000 J0.00000
G2 X-16.67200 Y-7.09000 Z-0.70000 I-0.20000 J0.00000
G2 X-16.67200 Y-7.09000 Z-0.80000 I-0.20000 J0.00000
G2 X-16.67200 Y-7.09000 Z-0.90000 I-0.20000 J0.00000
G2 X-16.67200 Y-7.09000 Z-1.00000 I-0.20000 J0.00000
G2 X-16.67200 Y-7.09000 Z-1.10000 I-0.20000 J0.00000
G2 X-16.67200 Y-7.09000 Z-1.20000 I-0.20000 J0.00000
G2 X-16.67200 Y-7.09000 Z-1.30000 I-0.20000 J0.00000
G2 X-16.67200 Y-7.09000 Z-1.40000 I-0.20000 J0.00000
G2 X-16.67200 Y-7.09000 Z-1.50000 I-0.20000 J0.00000
G2 X-16.67200 Y-7.09000 Z-1.60000 I-0.20000 J0.00000
G2 X-16.67200 Y-7.09000 Z-1.70000 I-0.20000 J0.00000
G2 X-16.67200 Y-7.09000 Z-1.80000 I-0.20000 J0.00000
G2 X-16.67200 Y-7.09000 I-0.20000 J0.00000
G1 Z1.20000 F128.00000

G0 X-18.46800 Y-8.88600
G1 Z0.10000 F128.00000
G1 F250.00000
G2 X-18.46800 Y-8.88600 Z-0.00000 I-0.20000 J0.00000
G2 X-18.46800 Y-8.88600 Z-0.10000 I-0.20000 J0.00000
G2 X-18.46800 Y-8.88600 Z-0.20000 I-0.20000 J0.00000
G2 X-18.46800 Y-8.88600 Z-0.30000 I-0.20000 J0.00000
G2 X-18.46800 Y-8.88600 Z-0.40000 I-0.20000 J0.00000
G2 X-18.46800 Y-8.88600 Z-0.50000 I-0.20000 J0.00000
G2 X-18.46800 Y-8.88600 Z-0.60000 I-0.20000 J0.00000
G2 X-18.46800 Y-8.88600 Z-0.70000 I-0.20000 J0.00000
G2 X-18.46800 Y-8.88600 Z-0.80000 I-0.20000 J0.00000
G2 X-18.46800 Y-8.88600 Z-0.90000 I-0.20000 J0.00000
G2 X-18.46800 Y-8.88600 Z-1.00000 I-0.20000 J0.00000
G2 X-18.46800 Y-8.88600 Z-1.10000 I-0.20000 J0.00000
G2 X-18.46800 Y-8.88600 Z-1.20000 I-0.20000 J0.00000
G2 X-18.46800 Y-8.88600 Z-1.30000 I-0.20000 J0.00000
G2 X-18.46800 Y-8.88600 Z-1.40000 I-0.20000 J0.00000
G2 X-18.46800 Y-8.88600 Z-1.50000 I-0.20000 J0.00000
G2 X-18.46800 Y-8.88600 Z-1.60000 I-0.20000 J0.00000
G2 X-18.46800 Y-8.88600 Z-1.70000 I-0.20000 J0.00000
G2 X-18.46800 Y-8.88600 Z-1.80000 I-0.20000 J0.00000
G2 X-18.46800 Y-8.88600 I-0.20000 J0.00000
G1 Z1.20000 F128.00000

G0 X-21.35300 Y-11.56900
G1 Z0.10000 F128.00000
G1 F250.00000
G2 X-21.35300 Y-11.56900 Z-0.00000 I-0.20000 J0.00000
G2 X-21.35300 Y-11.56900 Z-0.10000 I-0.20000 J0.00000
G2 X-21.35300 Y-11.56900 Z-0.20000 I-0.20000 J0.00000
G2 X-21.35300 Y-11.56900 Z-0.30000 I-0.20000 J0.00000
G2 X-21.35300 Y-11.56900 Z-0.40000 I-0.20000 J0.00000
G2 X-21.35300 Y-11.56900 Z-0.50000 I-0.20000 J0.00000
G2 X-21.35300 Y-11.56900 Z-0.60000 I-0.20000 J0.00000
G2 X-21.35300 Y-11.56900 Z-0.70000 I-0.20000 J0.00000
G2 X-21.35300 Y-11.56900 Z-0.80000 I-0.20000 J0.00000
G2 X-21.35300 Y-11.56900 Z-0.90000 I-0.20000 J0.00000
G2 X-21.35300 Y-11.56900 Z-1.00000 I-0.20000 J0.00000
G2 X-21.35300 Y-11.56900 Z-1.10000 I-0.20000 J0.00000
G2 X-21.35300 Y-11.56900 Z-1.20000 I-0.20000 J0.00000
G2 X-21.35300 Y-11.56900 Z-1.30000 I-0.20000 J0.00000
G2 X-21.35300 Y-11.56900 Z-1.40000 I-0.20000 J0.00000
G2 X-21.35300 Y-11.56900 Z-1.50000 I-0.20000 J0.00000
G2 X-21.35300 Y-11.56900 Z-1.60000 I-0.20000 J0.00000
G2 X-21.35300 Y-11.56900 Z-1.70000 I-0.20000 J0.00000
G2 X-21.35300 Y-11.56900 Z-1.80000 I-0.20000 J0.00000
G2 X-21.35300 Y-11.56900 I-0.20000 J0.00000
G1 Z1.20000 F128.00000

G0 X-24.26600 Y-14.68400
G1 Z0.10000 F128.00000
G1 F250.00000
G2 X-24.26600 Y-14.68400 Z-0.00000 I-0.20000 J0.00000
G2 X-24.26600 Y-14.68400 Z-0.10000 I-0.20000 J0.00000
G2 X-24.26600 Y-14.68400 Z-0.20000 I-0.20000 J0.00000
G2 X-24.26600 Y-14.68400 Z-0.30000 I-0.20000 J0.00000
G2 X-24.26600 Y-14.68400 Z-0.40000 I-0.20000 J0.00000
G2 X-24.26600 Y-14.68400 Z-0.50000 I-0.20000 J0.00000
G2 X-24.26600 Y-14.68400 Z-0.60000 I-0.20000 J0.00000
G2 X-24.26600 Y-14.68400 Z-0.70000 I-0.20000 J0.00000
G2 X-24.26600 Y-14.68400 Z-0.80000 I-0.20000 J0.00000
G2 X-24.26600 Y-14.68400 Z-0.90000 I-0.20000 J0.00000
G2 X-24.26600 Y-14.68400 Z-1.00000 I-0.20000 J0.00000
G2 X-24.26600 Y-14.68400 Z-1.10000 I-0.20000 J0.00000
G2 X-24.26600 Y-14.68400 Z-1.20000 I-0.20000 J0.00000
G2 X-24.26600 Y-14.68400 Z-1.30000 I-0.20000 J0.00000
G2 X-24.26600 Y-14.68400 Z-1.40000 I-0.20000 J0.00000
G2 X-24.26600 Y-14.68400 Z-1.50000 I-0.20000 J0.00000
G2 X-24.26600 Y-14.68400 Z-1.60000 I-0.20000 J0.00000
G2 X-24.26600 Y-14.68400 Z-1.70000 I-0.20000 J0.00000
G2 X-24.26600 Y-14.68400 Z-1.80000 I-0.20000 J0.00000
G2 X-24.26600 Y-14.68400 I-0.20000 J0.00000
G1 Z1.20000 F128.00000

G0 X-26.06200 Y-16.48000
G1 Z0.10000 F128.00000
G1 F250.00000
G2 X-26.06200 Y-16.48000 Z-0.00000 I-0.20000 J0.00000
G2 X-26.06200 Y-16.48000 Z-0.10000 I-0.20000 J0.00000
G2 X-26.06200 Y-16.48000 Z-0.20000 I-0.20000 J0.00000
G2 X-26.06200 Y-16.48000 Z-0.30000 I-0.20000 J0.00000
G2 X-26.06200 Y-16.48000 Z-0.40000 I-0.20000 J0.00000
G2 X-26.06200 Y-16.48000 Z-0.50000 I-0.20000 J0.00000
G2 X-26.06200 Y-16.48000 Z-0.60000 I-0.20000 J0.00000
G2 X-26.06200 Y-16.48000 Z-0.70000 I-0.20000 J0.00000
G2 X-26.06200 Y-16.48000 Z-0.80000 I-0.20000 J0.00000
G2 X-26.06200 Y-16.48000 Z-0.90000 I-0.20000 J0.00000
G2 X-26.06200 Y-16.48000 Z-1.00000 I-0.20000 J0.00000
G2 X-26.06200 Y-16.48000 Z-1.10000 I-0.20000 J0.00000
G2 X-26.06200 Y-16.48000 Z-1.20000 I-0.20000 J0.00000
G2 X-26.06200 Y-16.48000 Z-1.30000 I-0.20000 J0.00000
G2 X-26.06200 Y-16.48000 Z-1.40000 I-0.20000 J0.00000
G2 X-26.06200 Y-16.48000 Z-1.50000 I-0.20000 J0.00000
G2 X-26.06200 Y-16.48000 Z-1.60000 I-0.20000 J0.00000
G2 X-26.06200 Y-16.48000 Z-1.70000 I-0.20000 J0.00000
G2 X-26.06200 Y-16.48000 Z-1.80000 I-0.20000 J0.00000
G2 X-26.06200 Y-16.48000 I-0.20000 J0.00000
G1 Z1.20000 F128.00000

G0 X-14.16800 Y-18.75300
G1 Z0.10000 F128.00000
G1 F250.00000
G2 X-14.16800 Y-18.75300 Z-0.00000 I-0.20000 J0.00000
G2 X-14.16800 Y-18.75300 Z-0.10000 I-0.20000 J0.00000
G2 X-14.16800 Y-18.75300 Z-0.20000 I-0.20000 J0.00000
G2 X-14.16800 Y-18.75300 Z-0.30000 I-0.20000 J0.00000
G2 X-14.16800 Y-18.75300 Z-0.40000 I-0.20000 J0.00000
G2 X-14.16800 Y-18.75300 Z-0.50000 I-0.20000 J0.00000
G2 X-14.16800 Y-18.75300 Z-0.60000 I-0.20000 J0.00000
G2 X-14.16800 Y-18.75300 Z-0.70000 I-0.20000 J0.00000
G2 X-14.16800 Y-18.75300 Z-0.80000 I-0.20000 J0.00000
G2 X-14.16800 Y-18.75300 Z-0.90000 I-0.20000 J0.00000
G2 X-14.16800 Y-18.75300 Z-1.00000 I-0.20000 J0.00000
G2 X-14.16800 Y-18.75300 Z-1.10000 I-0.20000 J0.00000
G2 X-14.16800 Y-18.75300 Z-1.20000 I-0.20000 J0.00000
G2 X-14.16800 Y-18.75300 Z-1.30000 I-0.20000 J0.00000
G2 X-14.16800 Y-18.75300 Z-1.40000 I-0.20000 J0.00000
G2 X-14.16800 Y-18.75300 Z-1.50000 I-0.20000 J0.00000
G2 X-14.16800 Y-18.75300 Z-1.60000 I-0.20000 J0.00000
G2 X-14.16800 Y-18.75300 Z-1.70000 I-0.20000 J0.00000
G2 X-14.16800 Y-18.75300 Z-1.80000 I-0.20000 J0.00000
G2 X-14.16800 Y-18.75300 I-0.20000 J0.00000
G1 Z1.20000 F128.00000

G0 X-5.18800 Y-22.16500
G1 Z0.10000 F128.00000
G1 F250.00000
G2 X-5.18800 Y-22.16500 Z-0.00000 I-0.20000 J0.00000
G2 X-5.18800 Y-22.16500 Z-0.10000 I-0.20000 J0.00000
G2 X-5.18800 Y-22.16500 Z-0.20000 I-0.20000 J0.00000
G2 X-5.18800 Y-22.16500 Z-0.30000 I-0.20000 J0.00000
G2 X-5.18800 Y-22.16500 Z-0.40000 I-0.20000 J0.00000
G2 X-5.18800 Y-22.16500 Z-0.50000 I-0.20000 J0.00000
G2 X-5.18800 Y-22.16500 Z-0.60000 I-0.20000 J0.00000
G2 X-5.18800 Y-22.16500 Z-0.70000 I-0.20000 J0.00000
G2 X-5.18800 Y-22.16500 Z-0.80000 I-0.20000 J0.00000
G2 X-5.18800 Y-22.16500 Z-0.90000 I-0.20000 J0.00000
G2 X-5.18800 Y-22.16500 Z-1.00000 I-0.20000 J0.00000
G2 X-5.18800 Y-22.16500 Z-1.10000 I-0.20000 J0.00000
G2 X-5.18800 Y-22.16500 Z-1.20000 I-0.20000 J0.00000
G2 X-5.18800 Y-22.16500 Z-1.30000 I-0.20000 J0.00000
G2 X-5.18800 Y-22.16500 Z-1.40000 I-0.20000 J0.00000
G2 X-5.18800 Y-22.16500 Z-1.50000 I-0.20000 J0.00000
G2 X-5.18800 Y-22.16500 Z-1.60000 I-0.20000 J0.00000
G2 X-5.18800 Y-22.16500 Z-1.70000 I-0.20000 J0.00000
G2 X-5.18800 Y-22.16500 Z-1.80000 I-0.20000 J0.00000
G2 X-5.18800 Y-22.16500 I-0.20000 J0.00000
G1 Z1.20000 F128.00000

G0 X-3.39200 Y-20.36900
G1 Z0.10000 F128.00000
G1 F250.00000
G2 X-3.39200 Y-20.36900 Z-0.00000 I-0.20000 J0.00000
G2 X-3.39200 Y-20.36900 Z-0.10000 I-0.20000 J0.00000
G2 X-3.39200 Y-20.36900 Z-0.20000 I-0.20000 J0.00000
G2 X-3.39200 Y-20.36900 Z-0.30000 I-0.20000 J0.00000
G2 X-3.39200 Y-20.36900 Z-0.40000 I-0.20000 J0.00000
G2 X-3.39200 Y-20.36900 Z-0.50000 I-0.20000 J0.00000
G2 X-3.39200 Y-20.36900 Z-0.60000 I-0.20000 J0.00000
G2 X-3.39200 Y-20.36900 Z-0.70000 I-0.20000 J0.00000
G2 X-3.39200 Y-20.36900 Z-0.80000 I-0.20000 J0.00000
G2 X-3.39200 Y-20.36900 Z-0.90000 I-0.20000 J0.00000
G2 X-3.39200 Y-20.36900 Z-1.00000 I-0.20000 J0.00000
G2 X-3.39200 Y-20.36900 Z-1.10000 I-0.20000 J0.00000
G2 X-3.39200 Y-20.36900 Z-1.20000 I-0.20000 J0.00000
G2 X-3.39200 Y-20.36900 Z-1.30000 I-0.20000 J0.00000
G2 X-3.39200 Y-20.36900 Z-1.40000 I-0.20000 J0.00000
G2 X-3.39200 Y-20.36900 Z-1.50000 I-0.20000 J0.00000
G2 X-3.39200 Y-20.36900 Z-1.60000 I-0.20000 J0.00000
G2 X-3.39200 Y-20.36900 Z-1.70000 I-0.20000 J0.00000
G2 X-3.39200 Y-20.36900 Z-1.80000 I-0.20000 J0.00000
G2 X-3.39200 Y-20.36900 I-0.20000 J0.00000
G1 Z1.20000 F128.00000

G0 X0.90500 Y-16.43100
G1 Z0.10000 F128.00000
G1 F250.00000
G2 X0.90500 Y-16.43100 Z-0.00000 I-0.20000 J0.00000
G2 X0.90500 Y-16.43100 Z-0.10000 I-0.20000 J0.00000
G2 X0.90500 Y-16.43100 Z-0.20000 I-0.20000 J0.00000
G2 X0.90500 Y-16.43100 Z-0.30000 I-0.20000 J0.00000
G2 X0.90500 Y-16.43100 Z-0.40000 I-0.20000 J0.00000
G2 X0.90500 Y-16.43100 Z-0.50000 I-0.20000 J0.00000
G2 X0.90500 Y-16.43100 Z-0.60000 I-0.20000 J0.00000
G2 X0.90500 Y-16.43100 Z-0.70000 I-0.20000 J0.00000
G2 X0.90500 Y-16.43100 Z-0.80000 I-0.20000 J0.00000
G2 X0.90500 Y-16.43100 Z-0.90000 I-0.20000 J0.00000
G2 X0.90500 Y-16.43100 Z-1.00000 I-0.20000 J0.00000
G2 X0.90500 Y-16.43100 Z-1.10000 I-0.20000 J0.00000
G2 X0.90500 Y-16.43100 Z-1.20000 I-0.20000 J0.00000
G2 X0.90500 Y-16.43100 Z-1.30000 I-0.20000 J0.00000
G2 X0.90500 Y-16.43100 Z-1.40000 I-0.20000 J0.00000
G2 X0.90500 Y-16.43100 Z-1.50000 I-0.20000 J0.00000
G2 X0.90500 Y-16.43100 Z-1.60000 I-0.20000 J0.00000
G2 X0.90500 Y-16.43100 Z-1.70000 I-0.20000 J0.00000
G2 X0.90500 Y-16.43100 Z-1.80000 I-0.20000 J0.00000
G2 X0.90500 Y-16.43100 I-0.20000 J0.00000
G1 Z1.20000 F128.00000

G0 X-10.98600 Y-27.96400
G1 Z0.10000 F128.00000
G1 F250.00000
G2 X-10.98600 Y-27.96400 Z-0.00000 I-0.20000 J0.00000
G2 X-10.98600 Y-27.96400 Z-0.10000 I-0.20000 J0.00000
G2 X-10.98600 Y-27.96400 Z-0.20000 I-0.20000 J0.00000
G2 X-10.98600 Y-27.96400 Z-0.30000 I-0.20000 J0.00000
G2 X-10.98600 Y-27.96400 Z-0.40000 I-0.20000 J0.00000
G2 X-10.98600 Y-27.96400 Z-0.50000 I-0.20000 J0.00000
G2 X-10.98600 Y-27.96400 Z-0.60000 I-0.20000 J0.00000
G2 X-10.98600 Y-27.96400 Z-0.70000 I-0.20000 J0.00000
G2 X-10.98600 Y-27.96400 Z-0.80000 I-0.20000 J0.00000
G2 X-10.98600 Y-27.96400 Z-0.90000 I-0.20000 J0.00000
G2 X-10.98600 Y-27.96400 Z-1.00000 I-0.20000 J0.00000
G2 X-10.98600 Y-27.96400 Z-1.10000 I-0.20000 J0.00000
G2 X-10.98600 Y-27.96400 Z-1.20000 I-0.20000 J0.00000
G2 X-10.98600 Y-27.96400 Z-1.30000 I-0.20000 J0.00000
G2 X-10.98600 Y-27.96400 Z-1.40000 I-0.20000 J0.00000
G2 X-10.98600 Y-27.96400 Z-1.50000 I-0.20000 J0.00000
G2 X-10.98600 Y-27.96400 Z-1.60000 I-0.20000 J0.00000
G2 X-10.98600 Y-27.96400 Z-1.70000 I-0.20000 J0.00000
G2 X-10.98600 Y-27.96400 Z-1.80000 I-0.20000 J0.00000
G2 X-10.98600 Y-27.96400 I-0.20000 J0.00000
G1 Z1.20000 F128.00000

G0 X-12.78200 Y-29.76000
G1 Z0.10000 F128.00000
G1 F250.00000
G2 X-12.78200 Y-29.76000 Z-0.00000 I-0.20000 J0.00000
G2 X-12.78200 Y-29.76000 Z-0.10000 I-0.20000 J0.00000
G2 X-12.78200 Y-29.76000 Z-0.20000 I-0.20000 J0.00000
G2 X-12.78200 Y-29.76000 Z-0.30000 I-0.20000 J0.00000
G2 X-12.78200 Y-29.76000 Z-0.40000 I-0.20000 J0.00000
G2 X-12.78200 Y-29.76000 Z-0.50000 I-0.20000 J0.00000
G2 X-12.78200 Y-29.76000 Z-0.60000 I-0.20000 J0.00000
G2 X-12.78200 Y-29.76000 Z-0.70000 I-0.20000 J0.00000
G2 X-12.78200 Y-29.76000 Z-0.80000 I-0.20000 J0.00000
G2 X-12.78200 Y-29.76000 Z-0.90000 I-0.20000 J0.00000
G2 X-12.78200 Y-29.76000 Z-1.00000 I-0.20000 J0.00000
G2 X-12.78200 Y-29.76000 Z-1.10000 I-0.20000 J0.00000
G2 X-12.78200 Y-29.76000 Z-1.20000 I-0.20000 J0.00000
G2 X-12.78200 Y-29.76000 Z-1.30000 I-0.20000 J0.00000
G2 X-12.78200 Y-29.76000 Z-1.40000 I-0.20000 J0.00000
G2 X-12.78200 Y-29.76000 Z-1.50000 I-0.20000 J0.00000
G2 X-12.78200 Y-29.76000 Z-1.60000 I-0.20000 J0.00000
G2 X-12.78200 Y-29.76000 Z-1.70000 I-0.20000 J0.00000
G2 X-12.78200 Y-29.76000 Z-1.80000 I-0.20000 J0.00000
G2 X-12.78200 Y-29.76000 I-0.20000 J0.00000
G1 Z1.20000 F128.00000

G0 X-20.70400 Y-28.52400
G1 Z0.10000 F128.00000
G1 F250.00000
G2 X-20.70400 Y-28.52400 Z-0.00000 I-0.20000 J0.00000
G2 X-20.70400 Y-28.52400 Z-0.10000 I-0.20000 J0.00000
G2 X-20.70400 Y-28.52400 Z-0.20000 I-0.20000 J0.00000
G2 X-20.70400 Y-28.52400 Z-0.30000 I-0.20000 J0.00000
G2 X-20.70400 Y-28.52400 Z-0.40000 I-0.20000 J0.00000
G2 X-20.70400 Y-28.52400 Z-0.50000 I-0.20000 J0.00000
G2 X-20.70400 Y-28.52400 Z-0.60000 I-0.20000 J0.00000
G2 X-20.70400 Y-28.52400 Z-0.70000 I-0.20000 J0.00000
G2 X-20.70400 Y-28.52400 Z-0.80000 I-0.20000 J0.00000
G2 X-20.70400 Y-28.52400 Z-0.90000 I-0.20000 J0.00000
G2 X-20.70400 Y-28.52400 Z-1.00000 I-0.20000 J0.00000
G2 X-20.70400 Y-28.52400 Z-1.10000 I-0.20000 J0.00000
G2 X-20.70400 Y-28.52400 Z-1.20000 I-0.20000 J0.00000
G2 X-20.70400 Y-28.52400 Z-1.30000 I-0.20000 J0.00000
G2 X-20.70400 Y-28.52400 Z-1.40000 I-0.20000 J0.00000
G2 X-20.70400 Y-28.52400 Z-1.50000 I-0.20000 J0.00000
G2 X-20.70400 Y-28.52400 Z-1.60000 I-0.20000 J0.00000
G2 X-20.70400 Y-28.52400 Z-1.70000 I-0.20000 J0.00000
G2 X-20.70400 Y-28.52400 Z-1.80000 I-0.20000 J0.00000
G2 X-20.70400 Y-28.52400 I-0.20000 J0.00000
G1 Z1.20000 F128.00000

G0 X-13.52000 Y-35.70800
G1 Z0.10000 F128.00000
G1 F250.00000
G2 X-13.52000 Y-35.70800 Z-0.00000 I-0.20000 J0.00000
G2 X-13.52000 Y-35.70800 Z-0.10000 I-0.20000 J0.00000
G2 X-13.52000 Y-35.70800 Z-0.20000 I-0.20000 J0.00000
G2 X-13.52000 Y-35.70800 Z-0.30000 I-0.20000 J0.00000
G2 X-13.52000 Y-35.70800 Z-0.40000 I-0.20000 J0.00000
G2 X-13.52000 Y-35.70800 Z-0.50000 I-0.20000 J0.00000
G2 X-13.52000 Y-35.70800 Z-0.60000 I-0.20000 J0.00000
G2 X-13.52000 Y-35.70800 Z-0.70000 I-0.20000 J0.00000
G2 X-13.52000 Y-35.70800 Z-0.80000 I-0.20000 J0.00000
G2 X-13.52000 Y-35.70800 Z-0.90000 I-0.20000 J0.00000
G2 X-13.52000 Y-35.70800 Z-1.00000 I-0.20000 J0.00000
G2 X-13.52000 Y-35.70800 Z-1.10000 I-0.20000 J0.00000
G2 X-13.52000 Y-35.70800 Z-1.20000 I-0.20000 J0.00000
G2 X-13.52000 Y-35.70800 Z-1.30000 I-0.20000 J0.00000
G2 X-13.52000 Y-35.70800 Z-1.40000 I-0.20000 J0.00000
G2 X-13.52000 Y-35.70800 Z-1.50000 I-0.20000 J0.00000
G2 X-13.52000 Y-35.70800 Z-1.60000 I-0.20000 J0.00000
G2 X-13.52000 Y-35.70800 Z-1.70000 I-0.20000 J0.00000
G2 X-13.52000 Y-35.70800 Z-1.80000 I-0.20000 J0.00000
G2 X-13.52000 Y-35.70800 I-0.20000 J0.00000
G1 Z1.20000 F128.00000

G0 X-4.31400 Y-28.31000
G1 Z0.10000 F128.00000
G1 F250.00000
G2 X-3.91400 Y-28.31000 Z0.08805 I0.20000 J0.00000
G1 X-3.91400 Y-30.31000 Z0.05000
G2 X-4.31400 Y-30.31000 Z0.03805 I-0.20000 J0.00000
G1 X-4.31400 Y-28.31000 Z-0.00000
G2 X-3.91400 Y-28.31000 Z-0.01195 I0.20000 J0.00000
G1 X-3.91400 Y-30.31000 Z-0.05000
G2 X-4.31400 Y-30.31000 Z-0.06195 I-0.20000 J0.00000
G1 X-4.31400 Y-28.31000 Z-0.10000
G2 X-3.91400 Y-28.31000 Z-0.11195 I0.20000 J0.00000
G1 X-3.91400 Y-30.31000 Z-0.15000
G2 X-4.31400 Y-30.31000 Z-0.16195 I-0.20000 J0.00000
G1 X-4.31400 Y-28.31000 Z-0.20000
G2 X-3.91400 Y-28.31000 Z-0.21195 I0.20000 J0.00000
G1 X-3.91400 Y-30.31000 Z-0.25000
G2 X-4.31400 Y-30.31000 Z-0.26195 I-0.20000 J0.00000
G1 X-4.31400 Y-28.31000 Z-0.30000
G2 X-3.91400 Y-28.31000 Z-0.31195 I0.20000 J0.00000
G1 X-3.91400 Y-30.31000 Z-0.35000
G2 X-4.31400 Y-30.31000 Z-0.36195 I-0.20000 J0.00000
G1 X-4.31400 Y-28.31000 Z-0.40000
G2 X-3.91400 Y-28.31000 Z-0.41195 I0.20000 J0.00000
G1 X-3.91400 Y-30.31000 Z-0.45000
G2 X-4.31400 Y-30.31000 Z-0.46195 I-0.20000 J0.00000
G1 X-4.31400 Y-28.31000 Z-0.50000
G2 X-3.91400 Y-28.31000 Z-0.51195 I0.20000 J0.00000
G1 X-3.91400 Y-30.31000 Z-0.55000
G2 X-4.31400 Y-30.31000 Z-0.56195 I-0.20000 J0.00000
G1 X-4.31400 Y-28.31000 Z-0.60000
G2 X-3.91400 Y-28.31000 Z-0.61195 I0.20000 J0.00000
G1 X-3.91400 Y-30.31000 Z-0.65000
G2 X-4.31400 Y-30.31000 Z-0.66195 I-0.20000 J0.00000
G1 X-4.31400 Y-28.31000 Z-0.70000
G2 X-3.91400 Y-28.31000 Z-0.71195 I0.20000 J0.00000
G1 X-3.91400 Y-30.31000 Z-0.75000
G2 X-4.31400 Y-30.31000 Z-0.76195 I-0.20000 J0.00000
G1 X-4.31400 Y-28.31000 Z-0.80000
G2 X-3.91400 Y-28.31000 Z-0.81195 I0.20000 J0.00000
G1 X-3.91400 Y-30.31000 Z-0.85000
G2 X-4.31400 Y-30.31000 Z-0.86195 I-0.20000 J0.00000
G1 X-4.31400 Y-28.31000 Z-0.90000
G2 X-3.91400 Y-28.31000 Z-0.91195 I0.20000 J0.00000
G1 X-3.91400 Y-30.31000 Z-0.95000
G2 X-4.31400 Y-30.31000 Z-0.96195 I-0.20000 J0.00000
G1 X-4.31400 Y-28.31000 Z-1.00000
G2 X-3.91400 Y-28.31000 Z-1.01195 I0.20000 J0.00000
G1 X-3.91400 Y-30.31000 Z-1.05000
G2 X-4.31400 Y-30.31000 Z-1.06195 I-0.20000 J0.00000
G1 X-4.31400 Y-28.31000 Z-1.10000
G2 X-3.91400 Y-28.31000 Z-1.11195 I0.20000 J0.00000
G1 X-3.91400 Y-30.31000 Z-1.15000
G2 X-4.31400 Y-30.31000 Z-1.16195 I-0.20000 J0.00000
G1 X-4.31400 Y-28.31000 Z-1.20000
G2 X-3.91400 Y-28.31000 Z-1.21195 I0.20000 J0.00000
G1 X-3.91400 Y-30.31000 Z-1.25000
G2 X-4.31400 Y-30.31000 Z-1.26195 I-0.20000 J0.00000
G1 X-4.31400 Y-28.31000 Z-1.30000
G2 X-3.91400 Y-28.31000 Z-1.31195 I0.20000 J0.00000
G1 X-3.91400 Y-30.31000 Z-1.35000
G2 X-4.31400 Y-30.31000 Z-1.36195 I-0.20000 J0.00000
G1 X-4.31400 Y-28.31000 Z-1.40000
G2 X-3.91400 Y-28.31000 Z-1.41195 I0.20000 J0.00000
G1 X-3.91400 Y-30.31000 Z-1.45000
G2 X-4.31400 Y-30.31000 Z-1.46195 I-0.20000 J0.00000
G1 X-4.31400 Y-28.31000 Z-1.50000
G2 X-3.91400 Y-28.31000 Z-1.51195 I0.20000 J0.00000
G1 X-3.91400 Y-30.31000 Z-1.55000
G2 X-4.31400 Y-30.31000 Z-1.56195 I-0.20000 J0.00000
G1 X-4.31400 Y-28.31000 Z-1.60000
G2 X-3.91400 Y-28.31000 Z-1.61195 I0.20000 J0.00000
G1 X-3.91400 Y-30.31000 Z-1.65000
G2 X-4.31400 Y-30.31000 Z-1.66195 I-0.20000 J0.00000
G1 X-4.31400 Y-28.31000 Z-1.70000
G2 X-3.91400 Y-28.31000 Z-1.71195 I0.20000 J0.00000
G1 X-3.91400 Y-30.31000 Z-1.75000
G2 X-4.31400 Y-30.31000 Z-1.76195 I-0.20000 J0.00000
G1 X-4.31400 Y-28.31000 Z-1.80000
G2 X-3.91400 Y-28.31000 I0.20000 J0.00000
G1 X-3.91400 Y-30.31000
G2 X-4.31400 Y-30.31000 I-0.20000 J0.00000
G1 X-4.31400 Y-28.31000
G1 Z1.20000 F128.00000

G0 X-0.31400 Y-33.01000
G1 Z0.10000 F128.00000
G1 F250.00000
G2 X-0.31400 Y-32.61000 Z0.08805 I0.00000 J0.20000
G1 X1.68600 Y-32.61000 Z0.05000
G2 X1.68600 Y-33.01000 Z0.03805 I0.00000 J-0.20000
G1 X-0.31400 Y-33.01000 Z-0.00000
G2 X-0.31400 Y-32.61000 Z-0.01195 I0.00000 J0.20000
G1 X1.68600 Y-32.61000 Z-0.05000
G2 X1.68600 Y-33.01000 Z-0.06195 I0.00000 J-0.20000
G1 X-0.31400 Y-33.01000 Z-0.10000
G2 X-0.31400 Y-32.61000 Z-0.11195 I0.00000 J0.20000
G1 X1.68600 Y-32.61000 Z-0.15000
G2 X1.68600 Y-33.01000 Z-0.16195 I0.00000 J-0.20000
G1 X-0.31400 Y-33.01000 Z-0.20000
G2 X-0.31400 Y-32.61000 Z-0.21195 I0.00000 J0.20000
G1 X1.68600 Y-32.61000 Z-0.25000
G2 X1.68600 Y-33.01000 Z-0.26195 I0.00000 J-0.20000
G1 X-0.31400 Y-33.01000 Z-0.30000
G2 X-0.31400 Y-32.61000 Z-0.31195 I0.00000 J0.20000
G1 X1.68600 Y-32.61000 Z-0.35000
G2 X1.68600 Y-33.01000 Z-0.36195 I0.00000 J-0.20000
G1 X-0.31400 Y-33.01000 Z-0.40000
G2 X-0.31400 Y-32.61000 Z-0.41195 I0.00000 J0.20000
G1 X1.68600 Y-32.61000 Z-0.45000
G2 X1.68600 Y-33.01000 Z-0.46195 I0.00000 J-0.20000
G1 X-0.31400 Y-33.01000 Z-0.50000
G2 X-0.31400 Y-32.61000 Z-0.51195 I0.00000 J0.20000
G1 X1.68600 Y-32.61000 Z-0.55000
G2 X1.68600 Y-33.01000 Z-0.56195 I0.00000 J-0.20000
G1 X-0.31400 Y-33.01000 Z-0.60000
G2 X-0.31400 Y-32.61000 Z-0.61195 I0.00000 J0.20000
G1 X1.68600 Y-32.61000 Z-0.65000
G2 X1.68600 Y-33.01000 Z-0.66195 I0.00000 J-0.20000
G1 X-0.31400 Y-33.01000 Z-0.70000
G2 X-0.31400 Y-32.61000 Z-0.71195 I0.00000 J0.20000
G1 X1.68600 Y-32.61000 Z-0.75000
G2 X1.68600 Y-33.01000 Z-0.76195 I0.00000 J-0.20000
G1 X-0.31400 Y-33.01000 Z-0.80000
G2 X-0.31400 Y-32.61000 Z-0.81195 I0.00000 J0.20000
G1 X1.68600 Y-32.61000 Z-0.85000
G2 X1.68600 Y-33.01000 Z-0.86195 I0.00000 J-0.20000
G1 X-0.31400 Y-33.01000 Z-0.90000
G2 X-0.31400 Y-32.61000 Z-0.91195 I0.00000 J0.20000
G1 X1.68600 Y-32.61000 Z-0.95000
G2 X1.68600 Y-33.01000 Z-0.96195 I0.00000 J-0.20000
G1 X-0.31400 Y-33.01000 Z-1.00000
G2 X-0.31400 Y-32.61000 Z-1.01195 I0.00000 J0.20000
G1 X1.68600 Y-32.61000 Z-1.05000
G2 X1.68600 Y-33.01000 Z-1.06195 I0.00000 J-0.20000
G1 X-0.31400 Y-33.01000 Z-1.10000
G2 X-0.31400 Y-32.61000 Z-1.11195 I0.00000 J0.20000
G1 X1.68600 Y-32.61000 Z-1.15000
G2 X1.68600 Y-33.01000 Z-1.16195 I0.00000 J-0.20000
G1 X-0.31400 Y-33.01000 Z-1.20000
G2 X-0.31400 Y-32.61000 Z-1.21195 I0.00000 J0.20000
G1 X1.68600 Y-32.61000 Z-1.25000
G2 X1.68600 Y-33.01000 Z-1.26195 I0.00000 J-0.20000
G1 X-0.31400 Y-33.01000 Z-1.30000
G2 X-0.31400 Y-32.61000 Z-1.31195 I0.00000 J0.20000
G1 X1.68600 Y-32.61000 Z-1.35000
G2 X1.68600 Y-33.01000 Z-1.36195 I0.00000 J-0.20000
G1 X-0.31400 Y-33.01000 Z-1.40000
G2 X-0.31400 Y-32.61000 Z-1.41195 I0.00000 J0.20000
G1 X1.68600 Y-32.61000 Z-1.45000
G2 X1.68600 Y-33.01000 Z-1.46195 I0.00000 J-0.20000
G1 X-0.31400 Y-33.01000 Z-1.50000
G2 X-0.31400 Y-32.61000 Z-1.51195 I0.00000 J0.20000
G1 X1.68600 Y-32.61000 Z-1.55000
G2 X1.68600 Y-33.01000 Z-1.56195 I0.00000 J-0.20000
G1 X-0.31400 Y-33.01000 Z-1.60000
G2 X-0.31400 Y-32.61000 Z-1.61195 I0.00000 J0.20000
G1 X1.68600 Y-32.61000 Z-1.65000
G2 X1.68600 Y-33.01000 Z-1.66195 I0.00000 J-0.20000
G1 X-0.31400 Y-33.01000 Z-1.70000
G2 X-0.31400 Y-32.61000 Z-1.71195 I0.00000 J0.20000
G1 X1.68600 Y-32.61000 Z-1.75000
G2 X1.68600 Y-33.01000 Z-1.76195 I0.00000 J-0.20000
G1 X-0.31400 Y-33.01000 Z-1.80000
G2 X-0.31400 Y-32.61000 I0.00000 J0.20000
G1 X1.68600 Y-32.61000
G2 X1.68600 Y-33.01000 I0.00000 J-0.20000
G1 X-0.31400 Y-33.01000
G1 Z1.20000 F128.00000

G0 X-0.71400 Y-27.01000
G1 Z0.10000 F128.00000
G1 F250.00000
G2 X-0.71400 Y-26.61000 Z0.09084 I0.00000 J0.20000
G1 X2.08600 Y-26.61000 Z0.05000
G2 X2.08600 Y-27.01000 Z0.04084 I0.00000 J-0.20000
G1 X-0.71400 Y-27.01000 Z-0.00000
G2 X-0.71400 Y-26.61000 Z-0.00916 I0.00000 J0.20000
G1 X2.08600 Y-26.61000 Z-0.05000
G2 X2.08600 Y-27.01000 Z-0.05916 I0.00000 J-0.20000
G1 X-0.71400 Y-27.01000 Z-0.10000
G2 X-0.71400 Y-26.61000 Z-0.10916 I0.00000 J0.20000
G1 X2.08600 Y-26.61000 Z-0.15000
G2 X2.08600 Y-27.01000 Z-0.15916 I0.00000 J-0.20000
G1 X-0.71400 Y-27.01000 Z-0.20000
G2 X-0.71400 Y-26.61000 Z-0.20916 I0.00000 J0.20000
G1 X2.08600 Y-26.61000 Z-0.25000
G2 X2.08600 Y-27.01000 Z-0.25916 I0.00000 J-0.20000
G1 X-0.71400 Y-27.01000 Z-0.30000
G2 X-0.71400 Y-26.61000 Z-0.30916 I0.00000 J0.20000
G1 X2.08600 Y-26.61000 Z-0.35000
G2 X2.08600 Y-27.01000 Z-0.35916 I0.00000 J-0.20000
G1 X-0.71400 Y-27.01000 Z-0.40000
G2 X-0.71400 Y-26.61000 Z-0.40916 I0.00000 J0.20000
G1 X2.08600 Y-26.61000 Z-0.45000
G2 X2.08600 Y-27.01000 Z-0.45916 I0.00000 J-0.20000
G1 X-0.71400 Y-27.01000 Z-0.50000
G2 X-0.71400 Y-26.61000 Z-0.50916 I0.00000 J0.20000
G1 X2.08600 Y-26.61000 Z-0.55000
G2 X2.08600 Y-27.01000 Z-0.55916 I0.00000 J-0.20000
G1 X-0.71400 Y-27.01000 Z-0.60000
G2 X-0.71400 Y-26.61000 Z-0.60916 I0.00000 J0.20000
G1 X2.08600 Y-26.61000 Z-0.65000
G2 X2.08600 Y-27.01000 Z-0.65916 I0.00000 J-0.20000
G1 X-0.71400 Y-27.01000 Z-0.70000
G2 X-0.71400 Y-26.61000 Z-0.70916 I0.00000 J0.20000
G1 X2.08600 Y-26.61000 Z-0.75000
G2 X2.08600 Y-27.01000 Z-0.75916 I0.00000 J-0.20000
G1 X-0.71400 Y-27.01000 Z-0.80000
G2 X-0.71400 Y-26.61000 Z-0.80916 I0.00000 J0.20000
G1 X2.08600 Y-26.61000 Z-0.85000
G2 X2.08600 Y-27.01000 Z-0.85916 I0.00000 J-0.20000
G1 X-0.71400 Y-27.01000 Z-0.90000
G2 X-0.71400 Y-26.61000 Z-0.90916 I0.00000 J0.20000
G1 X2.08600 Y-26.61000 Z-0.95000
G2 X2.08600 Y-27.01000 Z-0.95916 I0.00000 J-0.20000
G1 X-0.71400 Y-27.01000 Z-1.00000
G2 X-0.71400 Y-26.61000 Z-1.00916 I0.00000 J0.20000
G1 X2.08600 Y-26.61000 Z-1.05000
G2 X2.08600 Y-27.01000 Z-1.05916 I0.00000 J-0.20000
G1 X-0.71400 Y-27.01000 Z-1.10000
G2 X-0.71400 Y-26.61000 Z-1.10916 I0.00000 J0.20000
G1 X2.08600 Y-26.61000 Z-1.15000
G2 X2.08600 Y-27.01000 Z-1.15916 I0.00000 J-0.20000
G1 X-0.71400 Y-27.01000 Z-1.20000
G2 X-0.71400 Y-26.61000 Z-1.20916 I0.00000 J0.20000
G1 X2.08600 Y-26.61000 Z-1.25000
G2 X2.08600 Y-27.01000 Z-1.25916 I0.00000 J-0.20000
G1 X-0.71400 Y-27.01000 Z-1.30000
G2 X-0.71400 Y-26.61000 Z-1.30916 I0.00000 J0.20000
G1 X2.08600 Y-26.61000 Z-1.35000
G2 X2.08600 Y-27.01000 Z-1.35916 I0.00000 J-0.20000
G1 X-0.71400 Y-27.01000 Z-1.40000
G2 X-0.71400 Y-26.61000 Z-1.40916 I0.00000 J0.20000
G1 X2.08600 Y-26.61000 Z-1.45000
G2 X2.08600 Y-27.01000 Z-1.45916 I0.00000 J-0.20000
G1 X-0.71400 Y-27.01000 Z-1.50000
G2 X-0.71400 Y-26.61000 Z-1.50916 I0.00000 J0.20000
G1 X2.08600 Y-26.61000 Z-1.55000
G2 X2.08600 Y-27.01000 Z-1.55916 I0.00000 J-0.20000
G1 X-0.71400 Y-27.01000 Z-1.60000
G2 X-0.71400 Y-26.61000 Z-1.60916 I0.00000 J0.20000
G1 X2.08600 Y-26.61000 Z-1.65000
G2 X2.08600 Y-27.01000 Z-1.65916 I0.00000 J-0.20000
G1 X-0.71400 Y-27.01000 Z-1.70000
G2 X-0.71400 Y-26.61000 Z-1.70916 I0.00000 J0.20000
G1 X2.08600 Y-26.61000 Z-1.75000
G2 X2.08600 Y-27.01000 Z-1.75916 I0.00000 J-0.20000
G1 X-0.71400 Y-27.01000 Z-1.80000
G2 X-0.71400 Y-26.61000 I0.00000 J0.20000
G1 X2.08600 Y-26.61000
G2 X2.08600 Y-27.01000 I0.00000 J-0.20000
G1 X-0.71400 Y-27.01000
G1 Z1.20000 F128.00000

G0 X12.68300 Y-18.66300
G1 Z0.10000 F128.00000
G1 F250.00000
G2 X12.68300 Y-18.66300 Z-0.00000 I-0.20000 J0.00000
G2 X12.68300 Y-18.66300 Z-0.10000 I-0.20000 J0.00000
G2 X12.68300 Y-18.66300 Z-0.20000 I-0.20000 J0.00000
G2 X12.68300 Y-18.66300 Z-0.30000 I-0.20000 J0.00000
G2 X12.68300 Y-18.66300 Z-0.40000 I-0.20000 J0.00000
G2 X12.68300 Y-18.66300 Z-0.50000 I-0.20000 J0.00000
G2 X12.68300 Y-18.66300 Z-0.60000 I-0.20000 J0.00000
G2 X12.68300 Y-18.66300 Z-0.70000 I-0.20000 J0.00000
G2 X12.68300 Y-18.66300 Z-0.80000 I-0.20000 J0.00000
G2 X12.68300 Y-18.66300 Z-0.90000 I-0.20000 J0.00000
G2 X12.68300 Y-18.66300 Z-1.00000 I-0.20000 J0.00000
G2 X12.68300 Y-18.66300 Z-1.10000 I-0.20000 J0.00000
G2 X12.68300 Y-18.66300 Z-1.20000 I-0.20000 J0.00000
G2 X12.68300 Y-18.66300 Z-1.30000 I-0.20000 J0.00000
G2 X12.68300 Y-18.66300 Z-1.40000 I-0.20000 J0.00000
G2 X12.68300 Y-18.66300 Z-1.50000 I-0.20000 J0.00000
G2 X12.68300 Y-18.66300 Z-1.60000 I-0.20000 J0.00000
G2 X12.68300 Y-18.66300 Z-1.70000 I-0.20000 J0.00000
G2 X12.68300 Y-18.66300 Z-1.80000 I-0.20000 J0.00000
G2 X12.68300 Y-18.66300 I-0.20000 J0.00000
G1 Z1.20000 F128.00000

G0 X10.88700 Y-16.86700
G1 Z0.10000 F128.00000
G1 F250.00000
G2 X10.88700 Y-16.86700 Z-0.00000 I-0.20000 J0.00000
G2 X10.88700 Y-16.86700 Z-0.10000 I-0.20000 J0.00000
G2 X10.88700 Y-16.86700 Z-0.20000 I-0.20000 J0.00000
G2 X10.88700 Y-16.86700 Z-0.30000 I-0.20000 J0.00000
G2 X10.88700 Y-16.86700 Z-0.40000 I-0.20000 J0.00000
G2 X10.88700 Y-16.86700 Z-0.50000 I-0.20000 J0.00000
G2 X10.88700 Y-16.86700 Z-0.60000 I-0.20000 J0.00000
G2 X10.88700 Y-16.86700 Z-0.70000 I-0.20000 J0.00000
G2 X10.88700 Y-16.86700 Z-0.80000 I-0.20000 J0.00000
G2 X10.88700 Y-16.86700 Z-0.90000 I-0.20000 J0.00000
G2 X10.88700 Y-16.86700 Z-1.00000 I-0.20000 J0.00000
G2 X10.88700 Y-16.86700 Z-1.10000 I-0.20000 J0.00000
G2 X10.88700 Y-16.86700 Z-1.20000 I-0.20000 J0.00000
G2 X10.88700 Y-16.86700 Z-1.30000 I-0.20000 J0.00000
G2 X10.88700 Y-16.86700 Z-1.40000 I-0.20000 J0.00000
G2 X10.88700 Y-16.86700 Z-1.50000 I-0.20000 J0.00000
G2 X10.88700 Y-16.86700 Z-1.60000 I-0.20000 J0.00000
G2 X10.88700 Y-16.86700 Z-1.70000 I-0.20000 J0.00000
G2 X10.88700 Y-16.86700 Z-1.80000 I-0.20000 J0.00000
G2 X10.88700 Y-16.86700 I-0.20000 J0.00000
G1 Z1.20000 F128.00000

G0 X-0.24900 Y-10.22200
G1 Z0.10000 F128.00000
G1 F250.00000
G2 X-0.24900 Y-10.22200 Z-0.00000 I-0.20000 J0.00000
G2 X-0.24900 Y-10.22200 Z-0.10000 I-0.20000 J0.00000
G2 X-0.24900 Y-10.22200 Z-0.20000 I-0.20000 J0.00000
G2 X-0.24900 Y-10.22200 Z-0.30000 I-0.20000 J0.00000
G2 X-0.24900 Y-10.22200 Z-0.40000 I-0.20000 J0.00000
G2 X-0.24900 Y-10.22200 Z-0.50000 I-0.20000 J0.00000
G2 X-0.24900 Y-10.22200 Z-0.60000 I-0.20000 J0.00000
G2 X-0.24900 Y-10.22200 Z-0.70000 I-0.20000 J0.00000
G2 X-0.24900 Y-10.22200 Z-0.80000 I-0.20000 J0.00000
G2 X-0.24900 Y-10.22200 Z-0.90000 I-0.20000 J0.00000
G2 X-0.24900 Y-10.22200 Z-1.00000 I-0.20000 J0.00000
G2 X-0.24900 Y-10.22200 Z-1.10000 I-0.20000 J0.00000
G2 X-0.24900 Y-10.22200 Z-1.20000 I-0.20000 J0.00000
G2 X-0.24900 Y-10.22200 Z-1.30000 I-0.20000 J0.00000
G2 X-0.24900 Y-10.22200 Z-1.40000 I-0.20000 J0.00000
G2 X-0.24900 Y-10.22200 Z-1.50000 I-0.20000 J0.00000
G2 X-0.24900 Y-10.22200 Z-1.60000 I-0.20000 J0.00000
G2 X-0.24900 Y-10.22200 Z-1.70000 I-0.20000 J0.00000
G2 X-0.24900 Y-10.22200 Z-1.80000 I-0.20000 J0.00000
G2 X-0.24900 Y-10.22200 I-0.20000 J0.00000
G1 Z1.20000 F128.00000

G0 X-6.27900 Y-9.24700
G1 Z0.10000 F128.00000
G1 F250.00000
G2 X-6.27900 Y-9.24700 Z-0.00000 I-0.20000 J0.00000
G2 X-6.27900 Y-9.24700 Z-0.10000 I-0.20000 J0.00000
G2 X-6.27900 Y-9.24700 Z-0.20000 I-0.20000 J0.00000
G2 X-6.27900 Y-9.24700 Z-0.30000 I-0.20000 J0.00000
G2 X-6.27900 Y-9.24700 Z-0.40000 I-0.20000 J0.00000
G2 X-6.27900 Y-9.24700 Z-0.50000 I-0.20000 J0.00000
G2 X-6.27900 Y-9.24700 Z-0.60000 I-0.20000 J0.00000
G2 X-6.27900 Y-9.24700 Z-0.70000 I-0.20000 J0.00000
G2 X-6.27900 Y-9.24700 Z-0.80000 I-0.20000 J0.00000
G2 X-6.27900 Y-9.24700 Z-0.90000 I-0.20000 J0.00000
G2 X-6.27900 Y-9.24700 Z-1.00000 I-0.20000 J0.00000
G2 X-6.27900 Y-9.24700 Z-1.10000 I-0.20000 J0.00000
G2 X-6.27900 Y-9.24700 Z-1.20000 I-0.20000 J0.00000
G2 X-6.27900 Y-9.24700 Z-1.30000 I-0.20000 J0.00000
G2 X-6.27900 Y-9.24700 Z-1.40000 I-0.20000 J0.00000
G2 X-6.27900 Y-9.24700 Z-1.50000 I-0.20000 J0.00000
G2 X-6.27900 Y-9.24700 Z-1.60000 I-0.20000 J0.00000
G2 X-6.27900 Y-9.24700 Z-1.70000 I-0.20000 J0.00000
G2 X-6.27900 Y-9.24700 Z-1.80000 I-0.20000 J0.00000
G2 X-6.27900 Y-9.24700 I-0.20000 J0.00000
G1 Z1.20000 F128.00000

G0 X-0.89100 Y-3.85900
G1 Z0.10000 F128.00000
G1 F250.00000
G2 X-0.89100 Y-3.85900 Z-0.00000 I-0.20000 J0.00000
G2 X-0.89100 Y-3.85900 Z-0.10000 I-0.20000 J0.00000
G2 X-0.89100 Y-3.85900 Z-0.20000 I-0.20000 J0.00000
G2 X-0.89100 Y-3.85900 Z-0.30000 I-0.20000 J0.00000
G2 X-0.89100 Y-3.85900 Z-0.40000 I-0.20000 J0.00000
G2 X-0.89100 Y-3.85900 Z-0.50000 I-0.20000 J0.00000
G2 X-0.89100 Y-3.85900 Z-0.60000 I-0.20000 J0.00000
G2 X-0.89100 Y-3.85900 Z-0.70000 I-0.20000 J0.00000
G2 X-0.89100 Y-3.85900 Z-0.80000 I-0.20000 J0.00000
G2 X-0.89100 Y-3.85900 Z-0.90000 I-0.20000 J0.00000
G2 X-0.89100 Y-3.85900 Z-1.00000 I-0.20000 J0.00000
G2 X-0.89100 Y-3.85900 Z-1.10000 I-0.20000 J0.00000
G2 X-0.89100 Y-3.85900 Z-1.20000 I-0.20000 J0.00000
G2 X-0.89100 Y-3.85900 Z-1.30000 I-0.20000 J0.00000
G2 X-0.89100 Y-3.85900 Z-1.40000 I-0.20000 J0.00000
G2 X-0.89100 Y-3.85900 Z-1.50000 I-0.20000 J0.00000
G2 X-0.89100 Y-3.85900 Z-1.60000 I-0.20000 J0.00000
G2 X-0.89100 Y-3.85900 Z-1.70000 I-0.20000 J0.00000
G2 X-0.89100 Y-3.85900 Z-1.80000 I-0.20000 J0.00000
G2 X-0.89100 Y-3.85900 I-0.20000 J0.00000
G1 Z1.20000 F128.00000

G0 X3.04000 Y-7.22500
G1 Z0.10000 F128.00000
G1 F250.00000
G2 X3.04000 Y-7.22500 Z-0.00000 I-0.20000 J0.00000
G2 X3.04000 Y-7.22500 Z-0.10000 I-0.20000 J0.00000
G2 X3.04000 Y-7.22500 Z-0.20000 I-0.20000 J0.00000
G2 X3.04000 Y-7.22500 Z-0.30000 I-0.20000 J0.00000
G2 X3.04000 Y-7.22500 Z-0.40000 I-0.20000 J0.00000
G2 X3.04000 Y-7.22500 Z-0.50000 I-0.20000 J0.00000
G2 X3.04000 Y-7.22500 Z-0.60000 I-0.20000 J0.00000
G2 X3.04000 Y-7.22500 Z-0.70000 I-0.20000 J0.00000
G2 X3.04000 Y-7.22500 Z-0.80000 I-0.20000 J0.00000
G2 X3.04000 Y-7.22500 Z-0.90000 I-0.20000 J0.00000
G2 X3.04000 Y-7.22500 Z-1.00000 I-0.20000 J0.00000
G2 X3.04000 Y-7.22500 Z-1.10000 I-0.20000 J0.00000
G2 X3.04000 Y-7.22500 Z-1.20000 I-0.20000 J0.00000
G2 X3.04000 Y-7.22500 Z-1.30000 I-0.20000 J0.00000
G2 X3.04000 Y-7.22500 Z-1.40000 I-0.20000 J0.00000
G2 X3.04000 Y-7.22500 Z-1.50000 I-0.20000 J0.00000
G2 X3.04000 Y-7.22500 Z-1.60000 I-0.20000 J0.00000
G2 X3.04000 Y-7.22500 Z-1.70000 I-0.20000 J0.00000
G2 X3.04000 Y-7.22500 Z-1.80000 I-0.20000 J0.00000
G2 X3.04000 Y-7.22500 I-0.20000 J0.00000
G1 Z1.20000 F128.00000

G0 X6.57600 Y-10.76000
G1 Z0.10000 F128.00000
G1 F250.00000
G2 X6.57600 Y-10.76000 Z-0.00000 I-0.20000 J0.00000
G2 X6.57600 Y-10.76000 Z-0.10000 I-0.20000 J0.00000
G2 X6.57600 Y-10.76000 Z-0.20000 I-0.20000 J0.00000
G2 X6.57600 Y-10.76000 Z-0.30000 I-0.20000 J0.00000
G2 X6.57600 Y-10.76000 Z-0.40000 I-0.20000 J0.00000
G2 X6.57600 Y-10.76000 Z-0.50000 I-0.20000 J0.00000
G2 X6.57600 Y-10.76000 Z-0.60000 I-0.20000 J0.00000
G2 X6.57600 Y-10.76000 Z-0.70000 I-0.20000 J0.00000
G2 X6.57600 Y-10.76000 Z-0.80000 I-0.20000 J0.00000
G2 X6.57600 Y-10.76000 Z-0.90000 I-0.20000 J0.00000
G2 X6.57600 Y-10.76000 Z-1.00000 I-0.20000 J0.00000
G2 X6.57600 Y-10.76000 Z-1.10000 I-0.20000 J0.00000
G2 X6.57600 Y-10.76000 Z-1.20000 I-0.20000 J0.00000
G2 X6.57600 Y-10.76000 Z-1.30000 I-0.20000 J0.00000
G2 X6.57600 Y-10.76000 Z-1.40000 I-0.20000 J0.00000
G2 X6.57600 Y-10.76000 Z-1.50000 I-0.20000 J0.00000
G2 X6.57600 Y-10.76000 Z-1.60000 I-0.20000 J0.00000
G2 X6.57600 Y-10.76000 Z-1.70000 I-0.20000 J0.00000
G2 X6.57600 Y-10.76000 Z-1.80000 I-0.20000 J0.00000
G2 X6.57600 Y-10.76000 I-0.20000 J0.00000
G1 Z1.20000 F128.00000

G0 X9.27000 Y-8.06600
G1 Z0.10000 F128.00000
G1 F250.00000
G2 X9.27000 Y-8.06600 Z-0.00000 I-0.20000 J0.00000
G2 X9.27000 Y-8.06600 Z-0.10000 I-0.20000 J0.00000
G2 X9.27000 Y-8.06600 Z-0.20000 I-0.20000 J0.00000
G2 X9.27000 Y-8.06600 Z-0.30000 I-0.20000 J0.00000
G2 X9.27000 Y-8.06600 Z-0.40000 I-0.20000 J0.00000
G2 X9.27000 Y-8.06600 Z-0.50000 I-0.20000 J0.00000
G2 X9.27000 Y-8.06600 Z-0.60000 I-0.20000 J0.00000
G2 X9.27000 Y-8.06600 Z-0.70000 I-0.20000 J0.00000
G2 X9.27000 Y-8.06600 Z-0.80000 I-0.20000 J0.00000
G2 X9.27000 Y-8.06600 Z-0.90000 I-0.20000 J0.00000
G2 X9.27000 Y-8.06600 Z-1.00000 I-0.20000 J0.00000
G2 X9.27000 Y-8.06600 Z-1.10000 I-0.20000 J0.00000
G2 X9.27000 Y-8.06600 Z-1.20000 I-0.20000 J0.00000
G2 X9.27000 Y-8.06600 Z-1.30000 I-0.20000 J0.00000
G2 X9.27000 Y-8.06600 Z-1.40000 I-0.20000 J0.00000
G2 X9.27000 Y-8.06600 Z-1.50000 I-0.20000 J0.00000
G2 X9.27000 Y-8.06600 Z-1.60000 I-0.20000 J0.00000
G2 X9.27000 Y-8.06600 Z-1.70000 I-0.20000 J0.00000
G2 X9.27000 Y-8.06600 Z-1.80000 I-0.20000 J0.00000
G2 X9.27000 Y-8.06600 I-0.20000 J0.00000
G1 Z1.20000 F128.00000

G0 X7.47400 Y-6.27000
G1 Z0.10000 F128.00000
G1 F250.00000
G2 X7.47400 Y-6.27000 Z-0.00000 I-0.20000 J0.00000
G2 X7.47400 Y-6.27000 Z-0.10000 I-0.20000 J0.00000
G2 X7.47400 Y-6.27000 Z-0.20000 I-0.20000 J0.00000
G2 X7.47400 Y-6.27000 Z-0.30000 I-0.20000 J0.00000
G2 X7.47400 Y-6.27000 Z-0.40000 I-0.20000 J0.00000
G2 X7.47400 Y-6.27000 Z-0.50000 I-0.20000 J0.00000
G2 X7.47400 Y-6.27000 Z-0.60000 I-0.20000 J0.00000
G2 X7.47400 Y-6.27000 Z-0.70000 I-0.20000 J0.00000
G2 X7.47400 Y-6.27000 Z-0.80000 I-0.20000 J0.00000
G2 X7.47400 Y-6.27000 Z-0.90000 I-0.20000 J0.00000
G2 X7.47400 Y-6.27000 Z-1.00000 I-0.20000 J0.00000
G2 X7.47400 Y-6.27000 Z-1.10000 I-0.20000 J0.00000
G2 X7.47400 Y-6.27000 Z-1.20000 I-0.20000 J0.00000
G2 X7.47400 Y-6.27000 Z-1.30000 I-0.20000 J0.00000
G2 X7.47400 Y-6.27000 Z-1.40000 I-0.20000 J0.00000
G2 X7.47400 Y-6.27000 Z-1.50000 I-0.20000 J0.00000
G2 X7.47400 Y-6.27000 Z-1.60000 I-0.20000 J0.00000
G2 X7.47400 Y-6.27000 Z-1.70000 I-0.20000 J0.00000
G2 X7.47400 Y-6.27000 Z-1.80000 I-0.20000 J0.00000
G2 X7.47400 Y-6.27000 I-0.20000 J0.00000
G1 Z1.20000 F128.00000

G0 X9.88500 Y-3.85900
G1 Z0.10000 F128.00000
G1 F250.00000
G2 X9.88500 Y-3.85900 Z-0.00000 I-0.20000 J0.00000
G2 X9.88500 Y-3.85900 Z-0.10000 I-0.20000 J0.00000
G2 X9.88500 Y-3.85900 Z-0.20000 I-0.20000 J0.00000
G2 X9.88500 Y-3.85900 Z-0.30000 I-0.20000 J0.00000
G2 X9.88500 Y-3.85900 Z-0.40000 I-0.20000 J0.00000
G2 X9.88500 Y-3.85900 Z-0.50000 I-0.20000 J0.00000
G2 X9.88500 Y-3.85900 Z-0.60000 I-0.20000 J0.00000
G2 X9.88500 Y-3.85900 Z-0.70000 I-0.20000 J0.00000
G2 X9.88500 Y-3.85900 Z-0.80000 I-0.20000 J0.00000
G2 X9.88500 Y-3.85900 Z-0.90000 I-0.20000 J0.00000
G2 X9.88500 Y-3.85900 Z-1.00000 I-0.20000 J0.00000
G2 X9.88500 Y-3.85900 Z-1.10000 I-0.20000 J0.00000
G2 X9.88500 Y-3.85900 Z-1.20000 I-0.20000 J0.00000
G2 X9.88500 Y-3.85900 Z-1.30000 I-0.20000 J0.00000
G2 X9.88500 Y-3.85900 Z-1.40000 I-0.20000 J0.00000
G2 X9.88500 Y-3.85900 Z-1.50000 I-0.20000 J0.00000
G2 X9.88500 Y-3.85900 Z-1.60000 I-0.20000 J0.00000
G2 X9.88500 Y-3.85900 Z-1.70000 I-0.20000 J0.00000
G2 X9.88500 Y-3.85900 Z-1.80000 I-0.20000 J0.00000
G2 X9.88500 Y-3.85900 I-0.20000 J0.00000
G1 Z1.20000 F128.00000

G0 X11.68100 Y-5.65500
G1 Z0.10000 F128.00000
G1 F250.00000
G2 X11.68100 Y-5.65500 Z-0.00000 I-0.20000 J0.00000
G2 X11.68100 Y-5.65500 Z-0.10000 I-0.20000 J0.00000
G2 X11.68100 Y-5.65500 Z-0.20000 I-0.20000 J0.00000
G2 X11.68100 Y-5.65500 Z-0.30000 I-0.20000 J0.00000
G2 X11.68100 Y-5.65500 Z-0.40000 I-0.20000 J0.00000
G2 X11.68100 Y-5.65500 Z-0.50000 I-0.20000 J0.00000
G2 X11.68100 Y-5.65500 Z-0.60000 I-0.20000 J0.00000
G2 X11.68100 Y-5.65500 Z-0.70000 I-0.20000 J0.00000
G2 X11.68100 Y-5.65500 Z-0.80000 I-0.20000 J0.00000
G2 X11.68100 Y-5.65500 Z-0.90000 I-0.20000 J0.00000
G2 X11.68100 Y-5.65500 Z-1.00000 I-0.20000 J0.00000
G2 X11.68100 Y-5.65500 Z-1.10000 I-0.20000 J0.00000
G2 X11.68100 Y-5.65500 Z-1.20000 I-0.20000 J0.00000
G2 X11.68100 Y-5.65500 Z-1.30000 I-0.20000 J0.00000
G2 X11.68100 Y-5.65500 Z-1.40000 I-0.20000 J0.00000
G2 X11.68100 Y-5.65500 Z-1.50000 I-0.20000 J0.00000
G2 X11.68100 Y-5.65500 Z-1.60000 I-0.20000 J0.00000
G2 X11.68100 Y-5.65500 Z-1.70000 I-0.20000 J0.00000
G2 X11.68100 Y-5.65500 Z-1.80000 I-0.20000 J0.00000
G2 X11.68100 Y-5.65500 I-0.20000 J0.00000
G1 Z1.20000 F128.00000

G0 X18.07100 Y-9.68300
G1 Z0.10000 F128.00000
G1 F250.00000
G2 X18.07100 Y-9.68300 Z-0.00000 I-0.20000 J0.00000
G2 X18.07100 Y-9.68300 Z-0.10000 I-0.20000 J0.00000
G2 X18.07100 Y-9.68300 Z-0.20000 I-0.20000 J0.00000
G2 X18.07100 Y-9.68300 Z-0.30000 I-0.20000 J0.00000
G2 X18.07100 Y-9.68300 Z-0.40000 I-0.20000 J0.00000
G2 X18.07100 Y-9.68300 Z-0.50000 I-0.20000 J0.00000
G2 X18.07100 Y-9.68300 Z-0.60000 I-0.20000 J0.00000
G2 X18.07100 Y-9.68300 Z-0.70000 I-0.20000 J0.00000
G2 X18.07100 Y-9.68300 Z-0.80000 I-0.20000 J0.00000
G2 X18.07100 Y-9.68300 Z-0.90000 I-0.20000 J0.00000
G2 X18.07100 Y-9.68300 Z-1.00000 I-0.20000 J0.00000
G2 X18.07100 Y-9.68300 Z-1.10000 I-0.20000 J0.00000
G2 X18.07100 Y-9.68300 Z-1.20000 I-0.20000 J0.00000
G2 X18.07100 Y-9.68300 Z-1.30000 I-0.20000 J0.00000
G2 X18.07100 Y-9.68300 Z-1.40000 I-0.20000 J0.00000
G2 X18.07100 Y-9.68300 Z-1.50000 I-0.20000 J0.00000
G2 X18.07100 Y-9.68300 Z-1.60000 I-0.20000 J0.00000
G2 X18.07100 Y-9.68300 Z-1.70000 I-0.20000 J0.00000
G2 X18.07100 Y-9.68300 Z-1.80000 I-0.20000 J0.00000
G2 X18.07100 Y-9.68300 I-0.20000 J0.00000
G1 Z1.20000 F128.00000

G0 X19.86700 Y-11.47900
G1 Z0.10000 F128.00000
G1 F250.00000
G2 X19.86700 Y-11.47900 Z-0.00000 I-0.20000 J0.00000
G2 X19.86700 Y-11.47900 Z-0.10000 I-0.20000 J0.00000
G2 X19.86700 Y-11.47900 Z-0.20000 I-0.20000 J0.00000
G2 X19.86700 Y-11.47900 Z-0.30000 I-0.20000 J0.00000
G2 X19.86700 Y-11.47900 Z-0.40000 I-0.20000 J0.00000
G2 X19.86700 Y-11.47900 Z-0.50000 I-0.20000 J0.00000
G2 X19.86700 Y-11.47900 Z-0.60000 I-0.20000 J0.00000
G2 X19.86700 Y-11.47900 Z-0.70000 I-0.20000 J0.00000
G2 X19.86700 Y-11.47900 Z-0.80000 I-0.20000 J0.00000
G2 X19.86700 Y-11.47900 Z-0.90000 I-0.20000 J0.00000
G2 X19.86700 Y-11.47900 Z-1.00000 I-0.20000 J0.00000
G2 X19.86700 Y-11.47900 Z-1.10000 I-0.20000 J0.00000
G2 X19.86700 Y-11.47900 Z-1.20000 I-0.20000 J0.00000
G2 X19.86700 Y-11.47900 Z-1.30000 I-0.20000 J0.00000
G2 X19.86700 Y-11.47900 Z-1.40000 I-0.20000 J0.00000
G2 X19.86700 Y-11.47900 Z-1.50000 I-0.20000 J0.00000
G2 X19.86700 Y-11.47900 Z-1.60000 I-0.20000 J0.00000
G2 X19.86700 Y-11.47900 Z-1.70000 I-0.20000 J0.00000
G2 X19.86700 Y-11.47900 Z-1.80000 I-0.20000 J0.00000
G2 X19.86700 Y-11.47900 I-0.20000 J0.00000
G1 Z1.20000 F128.00000

G0 X25.01600 Y-3.37800
G1 Z0.10000 F128.00000
G1 F250.00000
G2 X25.01600 Y-3.37800 Z-0.00000 I-0.20000 J0.00000
G2 X25.01600 Y-3.37800 Z-0.10000 I-0.20000 J0.00000
G2 X25.01600 Y-3.37800 Z-0.20000 I-0.20000 J0.00000
G2 X25.01600 Y-3.37800 Z-0.30000 I-0.20000 J0.00000
G2 X25.01600 Y-3.37800 Z-0.40000 I-0.20000 J0.00000
G2 X25.01600 Y-3.37800 Z-0.50000 I-0.20000 J0.00000
G2 X25.01600 Y-3.37800 Z-0.60000 I-0.20000 J0.00000
G2 X25.01600 Y-3.37800 Z-0.70000 I-0.20000 J0.00000
G2 X25.01600 Y-3.37800 Z-0.80000 I-0.20000 J0.00000
G2 X25.01600 Y-3.37800 Z-0.90000 I-0.20000 J0.00000
G2 X25.01600 Y-3.37800 Z-1.00000 I-0.20000 J0.00000
G2 X25.01600 Y-3.37800 Z-1.10000 I-0.20000 J0.00000
G2 X25.01600 Y-3.37800 Z-1.20000 I-0.20000 J0.00000
G2 X25.01600 Y-3.37800 Z-1.30000 I-0.20000 J0.00000
G2 X25.01600 Y-3.37800 Z-1.40000 I-0.20000 J0.00000
G2 X25.01600 Y-3.37800 Z-1.50000 I-0.20000 J0.00000
G2 X25.01600 Y-3.37800 Z-1.60000 I-0.20000 J0.00000
G2 X25.01600 Y-3.37800 Z-1.70000 I-0.20000 J0.00000
G2 X25.01600 Y-3.37800 Z-1.80000 I-0.20000 J0.00000
G2 X25.01600 Y-3.37800 I-0.20000 J0.00000
G1 Z1.20000 F128.00000

G0 X27.55600 Y-3.37800
G1 Z0.10000 F128.00000
G1 F250.00000
G2 X27.55600 Y-3.37800 Z-0.00000 I-0.20000 J0.00000
G2 X27.55600 Y-3.37800 Z-0.10000 I-0.20000 J0.00000
G2 X27.55600 Y-3.37800 Z-0.20000 I-0.20000 J0.00000
G2 X27.55600 Y-3.37800 Z-0.30000 I-0.20000 J0.00000
G2 X27.55600 Y-3.37800 Z-0.40000 I-0.20000 J0.00000
G2 X27.55600 Y-3.37800 Z-0.50000 I-0.20000 J0.00000
G2 X27.55600 Y-3.37800 Z-0.60000 I-0.20000 J0.00000
G2 X27.55600 Y-3.37800 Z-0.70000 I-0.20000 J0.00000
G2 X27.55600 Y-3.37800 Z-0.80000 I-0.20000 J0.00000
G2 X27.55600 Y-3.37800 Z-0.90000 I-0.20000 J0.00000
G2 X27.55600 Y-3.37800 Z-1.00000 I-0.20000 J0.00000
G2 X27.55600 Y-3.37800 Z-1.10000 I-0.20000 J0.00000
G2 X27.55600 Y-3.37800 Z-1.20000 I-0.20000 J0.00000
G2 X27.55600 Y-3.37800 Z-1.30000 I-0.20000 J0.00000
G2 X27.55600 Y-3.37800 Z-1.40000 I-0.20000 J0.00000
G2 X27.55600 Y-3.37800 Z-1.50000 I-0.20000 J0.00000
G2 X27.55600 Y-3.37800 Z-1.60000 I-0.20000 J0.00000
G2 X27.55600 Y-3.37800 Z-1.70000 I-0.20000 J0.00000
G2 X27.55600 Y-3.37800 Z-1.80000 I-0.20000 J0.00000
G2 X27.55600 Y-3.37800 I-0.20000 J0.00000
G1 Z1.20000 F128.00000

G0 X-2.67900 Y8.71300
G1 Z0.10000 F128.00000
G1 F250.00000
G2 X-2.67900 Y8.71300 Z-0.00000 I-0.20800 J0.00000
G2 X-2.67900 Y8.71300 Z-0.10000 I-0.20800 J0.00000
G2 X-2.67900 Y8.71300 Z-0.20000 I-0.20800 J0.00000
G2 X-2.67900 Y8.71300 Z-0.30000 I-0.20800 J0.00000
G2 X-2.67900 Y8.71300 Z-0.40000 I-0.20800 J0.00000
G2 X-2.67900 Y8.71300 Z-0.50000 I-0.20800 J0.00000
G2 X-2.67900 Y8.71300 Z-0.60000 I-0.20800 J0.00000
G2 X-2.67900 Y8.71300 Z-0.70000 I-0.20800 J0.00000
G2 X-2.67900 Y8.71300 Z-0.80000 I-0.20800 J0.00000
G2 X-2.67900 Y8.71300 Z-0.90000 I-0.20800 J0.00000
G2 X-2.67900 Y8.71300 Z-1.00000 I-0.20800 J0.00000
G2 X-2.67900 Y8.71300 Z-1.10000 I-0.20800 J0.00000
G2 X-2.67900 Y8.71300 Z-1.20000 I-0.20800 J0.00000
G2 X-2.67900 Y8.71300 Z-1.30000 I-0.20800 J0.00000
G2 X-2.67900 Y8.71300 Z-1.40000 I-0.20800 J0.00000
G2 X-2.67900 Y8.71300 Z-1.50000 I-0.20800 J0.00000
G2 X-2.67900 Y8.71300 Z-1.60000 I-0.20800 J0.00000
G2 X-2.67900 Y8.71300 Z-1.70000 I-0.20800 J0.00000
G2 X-2.67900 Y8.71300 Z-1.80000 I-0.20800 J0.00000
G2 X-2.67900 Y8.71300 I-0.20800 J0.00000
G1 Z1.20000 F128.00000

G0 X-10.76100 Y14.99900
G1 Z0.10000 F128.00000
G1 F250.00000
G2 X-10.76100 Y14.99900 Z-0.00000 I-0.20800 J0.00000
G2 X-10.76100 Y14.99900 Z-0.10000 I-0.20800 J0.00000
G2 X-10.76100 Y14.99900 Z-0.20000 I-0.20800 J0.00000
G2 X-10.76100 Y14.99900 Z-0.30000 I-0.20800 J0.00000
G2 X-10.76100 Y14.99900 Z-0.40000 I-0.20800 J0.00000
G2 X-10.76100 Y14.99900 Z-0.50000 I-0.20800 J0.00000
G2 X-10.76100 Y14.99900 Z-0.60000 I-0.20800 J0.00000
G2 X-10.76100 Y14.99900 Z-0.70000 I-0.20800 J0.00000
G2 X-10.76100 Y14.99900 Z-0.80000 I-0.20800 J0.00000
G2 X-10.76100 Y14.99900 Z-0.90000 I-0.20800 J0.00000
G2 X-10.76100 Y14.99900 Z-1.00000 I-0.20800 J0.00000
G2 X-10.76100 Y14.99900 Z-1.10000 I-0.20800 J0.00000
G2 X-10.76100 Y14.99900 Z-1.20000 I-0.20800 J0.00000
G2 X-10.76100 Y14.99900 Z-1.30000 I-0.20800 J0.00000
G2 X-10.76100 Y14.99900 Z-1.40000 I-0.20800 J0.00000
G2 X-10.76100 Y14.99900 Z-1.50000 I-0.20800 J0.00000
G2 X-10.76100 Y14.99900 Z-1.60000 I-0.20800 J0.00000
G2 X-10.76100 Y14.99900 Z-1.70000 I-0.20800 J0.00000
G2 X-10.76100 Y14.99900 Z-1.80000 I-0.20800 J0.00000
G2 X-10.76100 Y14.99900 I-0.20800 J0.00000
G1 Z1.20000 F128.00000

G0 X-12.55700 Y13.20300
G1 Z0.10000 F128.00000
G1 F250.00000
G2 X-12.55700 Y13.20300 Z-0.00000 I-0.20800 J0.00000
G2 X-12.55700 Y13.20300 Z-0.10000 I-0.20800 J0.00000
G2 X-12.55700 Y13.20300 Z-0.20000 I-0.20800 J0.00000
G2 X-12.55700 Y13.20300 Z-0.30000 I-0.20800 J0.00000
G2 X-12.55700 Y13.20300 Z-0.40000 I-0.20800 J0.00000
G2 X-12.55700 Y13.20300 Z-0.50000 I-0.20800 J0.00000
G2 X-12.55700 Y13.20300 Z-0.60000 I-0.20800 J0.00000
G2 X-12.55700 Y13.20300 Z-0.70000 I-0.20800 J0.00000
G2 X-12.55700 Y13.20300 Z-0.80000 I-0.20800 J0.00000
G2 X-12.55700 Y13.20300 Z-0.90000 I-0.20800 J0.00000
G2 X-12.55700 Y13.20300 Z-1.00000 I-0.20800 J0.00000
G2 X-12.55700 Y13.20300 Z-1.10000 I-0.20800 J0.00000
G2 X-12.55700 Y13.20300 Z-1.20000 I-0.20800 J0.00000
G2 X-12.55700 Y13.20300 Z-1.30000 I-0.20800 J0.00000
G2 X-12.55700 Y13.20300 Z-1.40000 I-0.20800 J0.00000
G2 X-12.55700 Y13.20300 Z-1.50000 I-0.20800 J0.00000
G2 X-12.55700 Y13.20300 Z-1.60000 I-0.20800 J0.00000
G2 X-12.55700 Y13.20300 Z-1.70000 I-0.20800 J0.00000
G2 X-12.55700 Y13.20300 Z-1.80000 I-0.20800 J0.00000
G2 X-12.55700 Y13.20300 I-0.20800 J0.00000
G1 Z1.20000 F128.00000

G0 X-17.04800 Y1.52900
G1 Z0.10000 F128.00000
G1 F250.00000
G2 X-17.04800 Y1.52900 Z-0.00000 I-0.20800 J0.00000
G2 X-17.04800 Y1.52900 Z-0.10000 I-0.20800 J0.00000
G2 X-17.04800 Y1.52900 Z-0.20000 I-0.20800 J0.00000
G2 X-17.04800 Y1.52900 Z-0.30000 I-0.20800 J0.00000
G2 X-17.04800 Y1.52900 Z-0.40000 I-0.20800 J0.00000
G2 X-17.04800 Y1.52900 Z-0.50000 I-0.20800 J0.00000
G2 X-17.04800 Y1.52900 Z-0.60000 I-0.20800 J0.00000
G2 X-17.04800 Y1.52900 Z-0.70000 I-0.20800 J0.00000
G2 X-17.04800 Y1.52900 Z-0.80000 I-0.20800 J0.00000
G2 X-17.04800 Y1.52900 Z-0.90000 I-0.20800 J0.00000
G2 X-17.04800 Y1.52900 Z-1.00000 I-0.20800 J0.00000
G2 X-17.04800 Y1.52900 Z-1.10000 I-0.20800 J0.00000
G2 X-17.04800 Y1.52900 Z-1.20000 I-0.20800 J0.00000
G2 X-17.04800 Y1.52900 Z-1.30000 I-0.20800 J0.00000
G2 X-17.04800 Y1.52900 Z-1.40000 I-0.20800 J0.00000
G2 X-17.04800 Y1.52900 Z-1.50000 I-0.20800 J0.00000
G2 X-17.04800 Y1.52900 Z-1.60000 I-0.20800 J0.00000
G2 X-17.04800 Y1.52900 Z-1.70000 I-0.20800 J0.00000
G2 X-17.04800 Y1.52900 Z-1.80000 I-0.20800 J0.00000
G2 X-17.04800 Y1.52900 I-0.20800 J0.00000
G1 Z1.20000 F128.00000

G0 X-14.87500 Y15.53800
G1 Z0.10000 F128.00000
G1 F250.00000
G2 X-14.87500 Y15.53800 Z-0.00000 I-0.22500 J0.00000
G2 X-14.87500 Y15.53800 Z-0.10000 I-0.22500 J0.00000
G2 X-14.87500 Y15.53800 Z-0.20000 I-0.22500 J0.00000
G2 X-14.87500 Y15.53800 Z-0.30000 I-0.22500 J0.00000
G2 X-14.87500 Y15.53800 Z-0.40000 I-0.22500 J0.00000
G2 X-14.87500 Y15.53800 Z-0.50000 I-0.22500 J0.00000
G2 X-14.87500 Y15.53800 Z-0.60000 I-0.22500 J0.00000
G2 X-14.87500 Y15.53800 Z-0.70000 I-0.22500 J0.00000
G2 X-14.87500 Y15.53800 Z-0.80000 I-0.22500 J0.00000
G2 X-14.87500 Y15.53800 Z-0.90000 I-0.22500 J0.00000
G2 X-14.87500 Y15.53800 Z-1.00000 I-0.22500 J0.00000
G2 X-14.87500 Y15.53800 Z-1.10000 I-0.22500 J0.00000
G2 X-14.87500 Y15.53800 Z-1.20000 I-0.22500 J0.00000
G2 X-14.87500 Y15.53800 Z-1.30000 I-0.22500 J0.00000
G2 X-14.87500 Y15.53800 Z-1.40000 I-0.22500 J0.00000
G2 X-14.87500 Y15.53800 Z-1.50000 I-0.22500 J0.00000
G2 X-14.87500 Y15.53800 Z-1.60000 I-0.22500 J0.00000
G2 X-14.87500 Y15.53800 Z-1.70000 I-0.22500 J0.00000
G2 X-14.87500 Y15.53800 Z-1.80000 I-0.22500 J0.00000
G2 X-14.87500 Y15.53800 I-0.22500 J0.00000
G1 Z1.20000 F128.00000

G0 X-13.07900 Y17.33400
G1 Z0.10000 F128.00000
G1 F250.00000
G2 X-13.07900 Y17.33400 Z-0.00000 I-0.22500 J0.00000
G2 X-13.07900 Y17.33400 Z-0.10000 I-0.22500 J0.00000
G2 X-13.07900 Y17.33400 Z-0.20000 I-0.22500 J0.00000
G2 X-13.07900 Y17.33400 Z-0.30000 I-0.22500 J0.00000
G2 X-13.07900 Y17.33400 Z-0.40000 I-0.22500 J0.00000
G2 X-13.07900 Y17.33400 Z-0.50000 I-0.22500 J0.00000
G2 X-13.07900 Y17.33400 Z-0.60000 I-0.22500 J0.00000
G2 X-13.07900 Y17.33400 Z-0.70000 I-0.22500 J0.00000
G2 X-13.07900 Y17.33400 Z-0.80000 I-0.22500 J0.00000
G2 X-13.07900 Y17.33400 Z-0.90000 I-0.22500 J0.00000
G2 X-13.07900 Y17.33400 Z-1.00000 I-0.22500 J0.00000
G2 X-13.07900 Y17.33400 Z-1.10000 I-0.22500 J0.00000
G2 X-13.07900 Y17.33400 Z-1.20000 I-0.22500 J0.00000
G2 X-13.07900 Y17.33400 Z-1.30000 I-0.22500 J0.00000
G2 X-13.07900 Y17.33400 Z-1.40000 I-0.22500 J0.00000
G2 X-13.07900 Y17.33400 Z-1.50000 I-0.22500 J0.00000
G2 X-13.07900 Y17.33400 Z-1.60000 I-0.22500 J0.00000
G2 X-13.07900 Y17.33400 Z-1.70000 I-0.22500 J0.00000
G2 X-13.07900 Y17.33400 Z-1.80000 I-0.22500 J0.00000
G2 X-13.07900 Y17.33400 I-0.22500 J0.00000
G1 Z1.20000 F128.00000

G0 X-16.67100 Y13.74200
G1 Z0.10000 F128.00000
G1 F250.00000
G2 X-16.67100 Y13.74200 Z-0.00000 I-0.22500 J0.00000
G2 X-16.67100 Y13.74200 Z-0.10000 I-0.22500 J0.00000
G2 X-16.67100 Y13.74200 Z-0.20000 I-0.22500 J0.00000
G2 X-16.67100 Y13.74200 Z-0.30000 I-0.22500 J0.00000
G2 X-16.67100 Y13.74200 Z-0.40000 I-0.22500 J0.00000
G2 X-16.67100 Y13.74200 Z-0.50000 I-0.22500 J0.00000
G2 X-16.67100 Y13.74200 Z-0.60000 I-0.22500 J0.00000
G2 X-16.67100 Y13.74200 Z-0.70000 I-0.22500 J0.00000
G2 X-16.67100 Y13.74200 Z-0.80000 I-0.22500 J0.00000
G2 X-16.67100 Y13.74200 Z-0.90000 I-0.22500 J0.00000
G2 X-16.67100 Y13.74200 Z-1.00000 I-0.22500 J0.00000
G2 X-16.67100 Y13.74200 Z-1.10000 I-0.22500 J0.00000
G2 X-16.67100 Y13.74200 Z-1.20000 I-0.22500 J0.00000
G2 X-16.67100 Y13.74200 Z-1.30000 I-0.22500 J0.00000
G2 X-16.67100 Y13.74200 Z-1.40000 I-0.22500 J0.00000
G2 X-16.67100 Y13.74200 Z-1.50000 I-0.22500 J0.00000
G2 X-16.67100 Y13.74200 Z-1.60000 I-0.22500 J0.00000
G2 X-16.67100 Y13.74200 Z-1.70000 I-0.22500 J0.00000
G2 X-16.67100 Y13.74200 Z-1.80000 I-0.22500 J0.00000
G2 X-16.67100 Y13.74200 I-0.22500 J0.00000
G1 Z1.20000 F128.00000

G0 X-18.46700 Y11.94600
G1 Z0.10000 F128.00000
G1 F250.00000
G2 X-18.46700 Y11.94600 Z-0.00000 I-0.22500 J0.00000
G2 X-18.46700 Y11.94600 Z-0.10000 I-0.22500 J0.00000
G2 X-18.46700 Y11.94600 Z-0.20000 I-0.22500 J0.00000
G2 X-18.46700 Y11.94600 Z-0.30000 I-0.22500 J0.00000
G2 X-18.46700 Y11.94600 Z-0.40000 I-0.22500 J0.00000
G2 X-18.46700 Y11.94600 Z-0.50000 I-0.22500 J0.00000
G2 X-18.46700 Y11.94600 Z-0.60000 I-0.22500 J0.00000
G2 X-18.46700 Y11.94600 Z-0.70000 I-0.22500 J0.00000
G2 X-18.46700 Y11.94600 Z-0.80000 I-0.22500 J0.00000
G2 X-18.46700 Y11.94600 Z-0.90000 I-0.22500 J0.00000
G2 X-18.46700 Y11.94600 Z-1.00000 I-0.22500 J0.00000
G2 X-18.46700 Y11.94600 Z-1.10000 I-0.22500 J0.00000
G2 X-18.46700 Y11.94600 Z-1.20000 I-0.22500 J0.00000
G2 X-18.46700 Y11.94600 Z-1.30000 I-0.22500 J0.00000
G2 X-18.46700 Y11.94600 Z-1.40000 I-0.22500 J0.00000
G2 X-18.46700 Y11.94600 Z-1.50000 I-0.22500 J0.00000
G2 X-18.46700 Y11.94600 Z-1.60000 I-0.22500 J0.00000
G2 X-18.46700 Y11.94600 Z-1.70000 I-0.22500 J0.00000
G2 X-18.46700 Y11.94600 Z-1.80000 I-0.22500 J0.00000
G2 X-18.46700 Y11.94600 I-0.22500 J0.00000
G1 Z1.20000 F128.00000

G0 X-20.26300 Y10.15000
G1 Z0.10000 F128.00000
G1 F250.00000
G2 X-20.26300 Y10.15000 Z-0.00000 I-0.22500 J0.00000
G2 X-20.26300 Y10.15000 Z-0.10000 I-0.22500 J0.00000
G2 X-20.26300 Y10.15000 Z-0.20000 I-0.22500 J0.00000
G2 X-20.26300 Y10.15000 Z-0.30000 I-0.22500 J0.00000
G2 X-20.26300 Y10.15000 Z-0.40000 I-0.22500 J0.00000
G2 X-20.26300 Y10.15000 Z-0.50000 I-0.22500 J0.00000
G2 X-20.26300 Y10.15000 Z-0.60000 I-0.22500 J0.00000
G2 X-20.26300 Y10.15000 Z-0.70000 I-0.22500 J0.00000
G2 X-20.26300 Y10.15000 Z-0.80000 I-0.22500 J0.00000
G2 X-20.26300 Y10.15000 Z-0.90000 I-0.22500 J0.00000
G2 X-20.26300 Y10.15000 Z-1.00000 I-0.22500 J0.00000
G2 X-20.26300 Y10.15000 Z-1.10000 I-0.22500 J0.00000
G2 X-20.26300 Y10.15000 Z-1.20000 I-0.22500 J0.00000
G2 X-20.26300 Y10.15000 Z-1.30000 I-0.22500 J0.00000
G2 X-20.26300 Y10.15000 Z-1.40000 I-0.22500 J0.00000
G2 X-20.26300 Y10.15000 Z-1.50000 I-0.22500 J0.00000
G2 X-20.26300 Y10.15000 Z-1.60000 I-0.22500 J0.00000
G2 X-20.26300 Y10.15000 Z-1.70000 I-0.22500 J0.00000
G2 X-20.26300 Y10.15000 Z-1.80000 I-0.22500 J0.00000
G2 X-20.26300 Y10.15000 I-0.22500 J0.00000
G1 Z1.20000 F128.00000

G0 X-22.05900 Y8.35400
G1 Z0.10000 F128.00000
G1 F250.00000
G2 X-22.05900 Y8.35400 Z-0.00000 I-0.22500 J0.00000
G2 X-22.05900 Y8.35400 Z-0.10000 I-0.22500 J0.00000
G2 X-22.05900 Y8.35400 Z-0.20000 I-0.22500 J0.00000
G2 X-22.05900 Y8.35400 Z-0.30000 I-0.22500 J0.00000
G2 X-22.05900 Y8.35400 Z-0.40000 I-0.22500 J0.00000
G2 X-22.05900 Y8.35400 Z-0.50000 I-0.22500 J0.00000
G2 X-22.05900 Y8.35400 Z-0.60000 I-0.22500 J0.00000
G2 X-22.05900 Y8.35400 Z-0.70000 I-0.22500 J0.00000
G2 X-22.05900 Y8.35400 Z-0.80000 I-0.22500 J0.00000
G2 X-22.05900 Y8.35400 Z-0.90000 I-0.22500 J0.00000
G2 X-22.05900 Y8.35400 Z-1.00000 I-0.22500 J0.00000
G2 X-22.05900 Y8.35400 Z-1.10000 I-0.22500 J0.00000
G2 X-22.05900 Y8.35400 Z-1.20000 I-0.22500 J0.00000
G2 X-22.05900 Y8.35400 Z-1.30000 I-0.22500 J0.00000
G2 X-22.05900 Y8.35400 Z-1.40000 I-0.22500 J0.00000
G2 X-22.05900 Y8.35400 Z-1.50000 I-0.22500 J0.00000
G2 X-22.05900 Y8.35400 Z-1.60000 I-0.22500 J0.00000
G2 X-22.05900 Y8.35400 Z-1.70000 I-0.22500 J0.00000
G2 X-22.05900 Y8.35400 Z-1.80000 I-0.22500 J0.00000
G2 X-22.05900 Y8.35400 I-0.22500 J0.00000
G1 Z1.20000 F128.00000

G0 X-26.35700 Y-6.54000
G1 Z0.10000 F128.00000
G1 F250.00000
G2 X-26.35700 Y-6.54000 Z-0.00000 I-0.22500 J0.00000
G2 X-26.35700 Y-6.54000 Z-0.10000 I-0.22500 J0.00000
G2 X-26.35700 Y-6.54000 Z-0.20000 I-0.22500 J0.00000
G2 X-26.35700 Y-6.54000 Z-0.30000 I-0.22500 J0.00000
G2 X-26.35700 Y-6.54000 Z-0.40000 I-0.22500 J0.00000
G2 X-26.35700 Y-6.54000 Z-0.50000 I-0.22500 J0.00000
G2 X-26.35700 Y-6.54000 Z-0.60000 I-0.22500 J0.00000
G2 X-26.35700 Y-6.54000 Z-0.70000 I-0.22500 J0.00000
G2 X-26.35700 Y-6.54000 Z-0.80000 I-0.22500 J0.00000
G2 X-26.35700 Y-6.54000 Z-0.90000 I-0.22500 J0.00000
G2 X-26.35700 Y-6.54000 Z-1.00000 I-0.22500 J0.00000
G2 X-26.35700 Y-6.54000 Z-1.10000 I-0.22500 J0.00000
G2 X-26.35700 Y-6.54000 Z-1.20000 I-0.22500 J0.00000
G2 X-26.35700 Y-6.54000 Z-1.30000 I-0.22500 J0.00000
G2 X-26.35700 Y-6.54000 Z-1.40000 I-0.22500 J0.00000
G2 X-26.35700 Y-6.54000 Z-1.50000 I-0.22500 J0.00000
G2 X-26.35700 Y-6.54000 Z-1.60000 I-0.22500 J0.00000
G2 X-26.35700 Y-6.54000 Z-1.70000 I-0.22500 J0.00000
G2 X-26.35700 Y-6.54000 Z-1.80000 I-0.22500 J0.00000
G2 X-26.35700 Y-6.54000 I-0.22500 J0.00000
G1 Z1.20000 F128.00000

G0 X-24.56100 Y-8.33600
G1 Z0.10000 F128.00000
G1 F250.00000
G2 X-24.56100 Y-8.33600 Z-0.00000 I-0.22500 J0.00000
G2 X-24.56100 Y-8.33600 Z-0.10000 I-0.22500 J0.00000
G2 X-24.56100 Y-8.33600 Z-0.20000 I-0.22500 J0.00000
G2 X-24.56100 Y-8.33600 Z-0.30000 I-0.22500 J0.00000
G2 X-24.56100 Y-8.33600 Z-0.40000 I-0.22500 J0.00000
G2 X-24.56100 Y-8.33600 Z-0.50000 I-0.22500 J0.00000
G2 X-24.56100 Y-8.33600 Z-0.60000 I-0.22500 J0.00000
G2 X-24.56100 Y-8.33600 Z-0.70000 I-0.22500 J0.00000
G2 X-24.56100 Y-8.33600 Z-0.80000 I-0.22500 J0.00000
G2 X-24.56100 Y-8.33600 Z-0.90000 I-0.22500 J0.00000
G2 X-24.56100 Y-8.33600 Z-1.00000 I-0.22500 J0.00000
G2 X-24.56100 Y-8.33600 Z-1.10000 I-0.22500 J0.00000
G2 X-24.56100 Y-8.33600 Z-1.20000 I-0.22500 J0.00000
G2 X-24.56100 Y-8.33600 Z-1.30000 I-0.22500 J0.00000
G2 X-24.56100 Y-8.33600 Z-1.40000 I-0.22500 J0.00000
G2 X-24.56100 Y-8.33600 Z-1.50000 I-0.22500 J0.00000
G2 X-24.56100 Y-8.33600 Z-1.60000 I-0.22500 J0.00000
G2 X-24.56100 Y-8.33600 Z-1.70000 I-0.22500 J0.00000
G2 X-24.56100 Y-8.33600 Z-1.80000 I-0.22500 J0.00000
G2 X-24.56100 Y-8.33600 I-0.22500 J0.00000
G1 Z1.20000 F128.00000

G0 X10.84900 Y2.16600
G1 Z0.10000 F128.00000
G1 F250.00000
G2 X10.84900 Y2.16600 Z-0.00000 I-0.25000 J0.00000
G2 X10.84900 Y2.16600 Z-0.10000 I-0.25000 J0.00000
G2 X10.84900 Y2.16600 Z-0.20000 I-0.25000 J0.00000
G2 X10.84900 Y2.16600 Z-0.30000 I-0.25000 J0.00000
G2 X10.84900 Y2.16600 Z-0.40000 I-0.25000 J0.00000
G2 X10.84900 Y2.16600 Z-0.50000 I-0.25000 J0.00000
G2 X10.84900 Y2.16600 Z-0.60000 I-0.25000 J0.00000
G2 X10.84900 Y2.16600 Z-0.70000 I-0.25000 J0.00000
G2 X10.84900 Y2.16600 Z-0.80000 I-0.25000 J0.00000
G2 X10.84900 Y2.16600 Z-0.90000 I-0.25000 J0.00000
G2 X10.84900 Y2.16600 Z-1.00000 I-0.25000 J0.00000
G2 X10.84900 Y2.16600 Z-1.10000 I-0.25000 J0.00000
G2 X10.84900 Y2.16600 Z-1.20000 I-0.25000 J0.00000
G2 X10.84900 Y2.16600 Z-1.30000 I-0.25000 J0.00000
G2 X10.84900 Y2.16600 Z-1.40000 I-0.25000 J0.00000
G2 X10.84900 Y2.16600 Z-1.50000 I-0.25000 J0.00000
G2 X10.84900 Y2.16600 Z-1.60000 I-0.25000 J0.00000
G2 X10.84900 Y2.16600 Z-1.70000 I-0.25000 J0.00000
G2 X10.84900 Y2.16600 Z-1.80000 I-0.25000 J0.00000
G2 X10.84900 Y2.16600 I-0.25000 J0.00000
G1 Z1.20000 F128.00000

G0 X12.64500 Y0.37000
G1 Z0.10000 F128.00000
G1 F250.00000
G2 X12.64500 Y0.37000 Z-0.00000 I-0.25000 J0.00000
G2 X12.64500 Y0.37000 Z-0.10000 I-0.25000 J0.00000
G2 X12.64500 Y0.37000 Z-0.20000 I-0.25000 J0.00000
G2 X12.64500 Y0.37000 Z-0.30000 I-0.25000 J0.00000
G2 X12.64500 Y0.37000 Z-0.40000 I-0.25000 J0.00000
G2 X12.64500 Y0.37000 Z-0.50000 I-0.25000 J0.00000
G2 X12.64500 Y0.37000 Z-0.60000 I-0.25000 J0.00000
G2 X12.64500 Y0.37000 Z-0.70000 I-0.25000 J0.00000
G2 X12.64500 Y0.37000 Z-0.80000 I-0.25000 J0.00000
G2 X12.64500 Y0.37000 Z-0.90000 I-0.25000 J0.00000
G2 X12.64500 Y0.37000 Z-1.00000 I-0.25000 J0.00000
G2 X12.64500 Y0.37000 Z-1.10000 I-0.25000 J0.00000
G2 X12.64500 Y0.37000 Z-1.20000 I-0.25000 J0.00000
G2 X12.64500 Y0.37000 Z-1.30000 I-0.25000 J0.00000
G2 X12.64500 Y0.37000 Z-1.40000 I-0.25000 J0.00000
G2 X12.64500 Y0.37000 Z-1.50000 I-0.25000 J0.00000
G2 X12.64500 Y0.37000 Z-1.60000 I-0.25000 J0.00000
G2 X12.64500 Y0.37000 Z-1.70000 I-0.25000 J0.00000
G2 X12.64500 Y0.37000 Z-1.80000 I-0.25000 J0.00000
G2 X12.64500 Y0.37000 I-0.25000 J0.00000
G1 Z1.20000 F128.00000

G0 X14.44100 Y-1.42600
G1 Z0.10000 F128.00000
G1 F250.00000
G2 X14.44100 Y-1.42600 Z-0.00000 I-0.25000 J0.00000
G2 X14.44100 Y-1.42600 Z-0.10000 I-0.25000 J0.00000
G2 X14.44100 Y-1.42600 Z-0.20000 I-0.25000 J0.00000
G2 X14.44100 Y-1.42600 Z-0.30000 I-0.25000 J0.00000
G2 X14.44100 Y-1.42600 Z-0.40000 I-0.25000 J0.00000
G2 X14.44100 Y-1.42600 Z-0.50000 I-0.25000 J0.00000
G2 X14.44100 Y-1.42600 Z-0.60000 I-0.25000 J0.00000
G2 X14.44100 Y-1.42600 Z-0.70000 I-0.25000 J0.00000
G2 X14.44100 Y-1.42600 Z-0.80000 I-0.25000 J0.00000
G2 X14.44100 Y-1.42600 Z-0.90000 I-0.25000 J0.00000
G2 X14.44100 Y-1.42600 Z-1.00000 I-0.25000 J0.00000
G2 X14.44100 Y-1.42600 Z-1.10000 I-0.25000 J0.00000
G2 X14.44100 Y-1.42600 Z-1.20000 I-0.25000 J0.00000
G2 X14.44100 Y-1.42600 Z-1.30000 I-0.25000 J0.00000
G2 X14.44100 Y-1.42600 Z-1.40000 I-0.25000 J0.00000
G2 X14.44100 Y-1.42600 Z-1.50000 I-0.25000 J0.00000
G2 X14.44100 Y-1.42600 Z-1.60000 I-0.25000 J0.00000
G2 X14.44100 Y-1.42600 Z-1.70000 I-0.25000 J0.00000
G2 X14.44100 Y-1.42600 Z-1.80000 I-0.25000 J0.00000
G2 X14.44100 Y-1.42600 I-0.25000 J0.00000
G1 Z1.20000 F128.00000

G0 X16.23700 Y-3.22200
G1 Z0.10000 F128.00000
G1 F250.00000
G2 X16.23700 Y-3.22200 Z-0.00000 I-0.25000 J0.00000
G2 X16.23700 Y-3.22200 Z-0.10000 I-0.25000 J0.00000
G2 X16.23700 Y-3.22200 Z-0.20000 I-0.25000 J0.00000
G2 X16.23700 Y-3.22200 Z-0.30000 I-0.25000 J0.00000
G2 X16.23700 Y-3.22200 Z-0.40000 I-0.25000 J0.00000
G2 X16.23700 Y-3.22200 Z-0.50000 I-0.25000 J0.00000
G2 X16.23700 Y-3.22200 Z-0.60000 I-0.25000 J0.00000
G2 X16.23700 Y-3.22200 Z-0.70000 I-0.25000 J0.00000
G2 X16.23700 Y-3.22200 Z-0.80000 I-0.25000 J0.00000
G2 X16.23700 Y-3.22200 Z-0.90000 I-0.25000 J0.00000
G2 X16.23700 Y-3.22200 Z-1.00000 I-0.25000 J0.00000
G2 X16.23700 Y-3.22200 Z-1.10000 I-0.25000 J0.00000
G2 X16.23700 Y-3.22200 Z-1.20000 I-0.25000 J0.00000
G2 X16.23700 Y-3.22200 Z-1.30000 I-0.25000 J0.00000
G2 X16.23700 Y-3.22200 Z-1.40000 I-0.25000 J0.00000
G2 X16.23700 Y-3.22200 Z-1.50000 I-0.25000 J0.00000
G2 X16.23700 Y-3.22200 Z-1.60000 I-0.25000 J0.00000
G2 X16.23700 Y-3.22200 Z-1.70000 I-0.25000 J0.00000
G2 X16.23700 Y-3.22200 Z-1.80000 I-0.25000 J0.00000
G2 X16.23700 Y-3.22200 I-0.25000 J0.00000
G1 Z1.20000 F128.00000

G0 X8.33200 Y-19.47100
G1 Z0.10000 F128.00000
G1 F250.00000
G2 X8.33200 Y-19.47100 Z-0.00000 I-0.25000 J0.00000
G2 X8.33200 Y-19.47100 Z-0.10000 I-0.25000 J0.00000
G2 X8.33200 Y-19.47100 Z-0.20000 I-0.25000 J0.00000
G2 X8.33200 Y-19.47100 Z-0.30000 I-0.25000 J0.00000
G2 X8.33200 Y-19.47100 Z-0.40000 I-0.25000 J0.00000
G2 X8.33200 Y-19.47100 Z-0.50000 I-0.25000 J0.00000
G2 X8.33200 Y-19.47100 Z-0.60000 I-0.25000 J0.00000
G2 X8.33200 Y-19.47100 Z-0.70000 I-0.25000 J0.00000
G2 X8.33200 Y-19.47100 Z-0.80000 I-0.25000 J0.00000
G2 X8.33200 Y-19.47100 Z-0.90000 I-0.25000 J0.00000
G2 X8.33200 Y-19.47100 Z-1.00000 I-0.25000 J0.00000
G2 X8.33200 Y-19.47100 Z-1.10000 I-0.25000 J0.00000
G2 X8.33200 Y-19.47100 Z-1.20000 I-0.25000 J0.00000
G2 X8.33200 Y-19.47100 Z-1.30000 I-0.25000 J0.00000
G2 X8.33200 Y-19.47100 Z-1.40000 I-0.25000 J0.00000
G2 X8.33200 Y-19.47100 Z-1.50000 I-0.25000 J0.00000
G2 X8.33200 Y-19.47100 Z-1.60000 I-0.25000 J0.00000
G2 X8.33200 Y-19.47100 Z-1.70000 I-0.25000 J0.00000
G2 X8.33200 Y-19.47100 Z-1.80000 I-0.25000 J0.00000
G2 X8.33200 Y-19.47100 I-0.25000 J0.00000
G1 Z1.20000 F128.00000

G0 X10.12800 Y-21.26700
G1 Z0.10000 F128.00000
G1 F250.00000
G2 X10.12800 Y-21.26700 Z-0.00000 I-0.25000 J0.00000
G2 X10.12800 Y-21.26700 Z-0.10000 I-0.25000 J0.00000
G2 X10.12800 Y-21.26700 Z-0.20000 I-0.25000 J0.00000
G2 X10.12800 Y-21.26700 Z-0.30000 I-0.25000 J0.00000
G2 X10.12800 Y-21.26700 Z-0.40000 I-0.25000 J0.00000
G2 X10.12800 Y-21.26700 Z-0.50000 I-0.25000 J0.00000
G2 X10.12800 Y-21.26700 Z-0.60000 I-0.25000 J0.00000
G2 X10.12800 Y-21.26700 Z-0.70000 I-0.25000 J0.00000
G2 X10.12800 Y-21.26700 Z-0.80000 I-0.25000 J0.00000
G2 X10.12800 Y-21.26700 Z-0.90000 I-0.25000 J0.00000
G2 X10.12800 Y-21.26700 Z-1.00000 I-0.25000 J0.00000
G2 X10.12800 Y-21.26700 Z-1.10000 I-0.25000 J0.00000
G2 X10.12800 Y-21.26700 Z-1.20000 I-0.25000 J0.00000
G2 X10.12800 Y-21.26700 Z-1.30000 I-0.25000 J0.00000
G2 X10.12800 Y-21.26700 Z-1.40000 I-0.25000 J0.00000
G2 X10.12800 Y-21.26700 Z-1.50000 I-0.25000 J0.00000
G2 X10.12800 Y-21.26700 Z-1.60000 I-0.25000 J0.00000
G2 X10.12800 Y-21.26700 Z-1.70000 I-0.25000 J0.00000
G2 X10.12800 Y-21.26700 Z-1.80000 I-0.25000 J0.00000
G2 X10.12800 Y-21.26700 I-0.25000 J0.00000
G1 Z1.20000 F128.00000

G0 X11.92400 Y-23.06300
G1 Z0.10000 F128.00000
G1 F250.00000
G2 X11.92400 Y-23.06300 Z-0.00000 I-0.25000 J0.00000
G2 X11.92400 Y-23.06300 Z-0.10000 I-0.25000 J0.00000
G2 X11.92400 Y-23.06300 Z-0.20000 I-0.25000 J0.00000
G2 X11.92400 Y-23.06300 Z-0.30000 I-0.25000 J0.00000
G2 X11.92400 Y-23.06300 Z-0.40000 I-0.25000 J0.00000
G2 X11.92400 Y-23.06300 Z-0.50000 I-0.25000 J0.00000
G2 X11.92400 Y-23.06300 Z-0.60000 I-0.25000 J0.00000
G2 X11.92400 Y-23.06300 Z-0.70000 I-0.25000 J0.00000
G2 X11.92400 Y-23.06300 Z-0.80000 I-0.25000 J0.00000
G2 X11.92400 Y-23.06300 Z-0.90000 I-0.25000 J0.00000
G2 X11.92400 Y-23.06300 Z-1.00000 I-0.25000 J0.00000
G2 X11.92400 Y-23.06300 Z-1.10000 I-0.25000 J0.00000
G2 X11.92400 Y-23.06300 Z-1.20000 I-0.25000 J0.00000
G2 X11.92400 Y-23.06300 Z-1.30000 I-0.25000 J0.00000
G2 X11.92400 Y-23.06300 Z-1.40000 I-0.25000 J0.00000
G2 X11.92400 Y-23.06300 Z-1.50000 I-0.25000 J0.00000
G2 X11.92400 Y-23.06300 Z-1.60000 I-0.25000 J0.00000
G2 X11.92400 Y-23.06300 Z-1.70000 I-0.25000 J0.00000
G2 X11.92400 Y-23.06300 Z-1.80000 I-0.25000 J0.00000
G2 X11.92400 Y-23.06300 I-0.25000 J0.00000
G1 Z1.20000 F128.00000

G0 X13.72000 Y-24.85900
G1 Z0.10000 F128.00000
G1 F250.00000
G2 X13.72000 Y-24.85900 Z-0.00000 I-0.25000 J0.00000
G2 X13.72000 Y-24.85900 Z-0.10000 I-0.25000 J0.00000
G2 X13.72000 Y-24.85900 Z-0.20000 I-0.25000 J0.00000
G2 X13.72000 Y-24.85900 Z-0.30000 I-0.25000 J0.00000
G2 X13.72000 Y-24.85900 Z-0.40000 I-0.25000 J0.00000
G2 X13.72000 Y-24.85900 Z-0.50000 I-0.25000 J0.00000
G2 X13.72000 Y-24.85900 Z-0.60000 I-0.25000 J0.00000
G2 X13.72000 Y-24.85900 Z-0.70000 I-0.25000 J0.00000
G2 X13.72000 Y-24.85900 Z-0.80000 I-0.25000 J0.00000
G2 X13.72000 Y-24.85900 Z-0.90000 I-0.25000 J0.00000
G2 X13.72000 Y-24.85900 Z-1.00000 I-0.25000 J0.00000
G2 X13.72000 Y-24.85900 Z-1.10000 I-0.25000 J0.00000
G2 X13.72000 Y-24.85900 Z-1.20000 I-0.25000 J0.00000
G2 X13.72000 Y-24.85900 Z-1.30000 I-0.25000 J0.00000
G2 X13.72000 Y-24.85900 Z-1.40000 I-0.25000 J0.00000
G2 X13.72000 Y-24.85900 Z-1.50000 I-0.25000 J0.00000
G2 X13.72000 Y-24.85900 Z-1.60000 I-0.25000 J0.00000
G2 X13.72000 Y-24.85900 Z-1.70000 I-0.25000 J0.00000
G2 X13.72000 Y-24.85900 Z-1.80000 I-0.25000 J0.00000
G2 X13.72000 Y-24.85900 I-0.25000 J0.00000
G1 Z1.20000 F128.00000

G0 X11.92400 Y-26.65500
G1 Z0.10000 F128.00000
G1 F250.00000
G2 X11.92400 Y-26.65500 Z-0.00000 I-0.25000 J0.00000
G2 X11.92400 Y-26.65500 Z-0.10000 I-0.25000 J0.00000
G2 X11.92400 Y-26.65500 Z-0.20000 I-0.25000 J0.00000
G2 X11.92400 Y-26.65500 Z-0.30000 I-0.25000 J0.00000
G2 X11.92400 Y-26.65500 Z-0.40000 I-0.25000 J0.00000
G2 X11.92400 Y-26.65500 Z-0.50000 I-0.25000 J0.00000
G2 X11.92400 Y-26.65500 Z-0.60000 I-0.25000 J0.00000
G2 X11.92400 Y-26.65500 Z-0.70000 I-0.25000 J0.00000
G2 X11.92400 Y-26.65500 Z-0.80000 I-0.25000 J0.00000
G2 X11.92400 Y-26.65500 Z-0.90000 I-0.25000 J0.00000
G2 X11.92400 Y-26.65500 Z-1.00000 I-0.25000 J0.00000
G2 X11.92400 Y-26.65500 Z-1.10000 I-0.25000 J0.00000
G2 X11.92400 Y-26.65500 Z-1.20000 I-0.25000 J0.00000
G2 X11.92400 Y-26.65500 Z-1.30000 I-0.25000 J0.00000
G2 X11.92400 Y-26.65500 Z-1.40000 I-0.25000 J0.00000
G2 X11.92400 Y-26.65500 Z-1.50000 I-0.25000 J0.00000
G2 X11.92400 Y-26.65500 Z-1.60000 I-0.25000 J0.00000
G2 X11.92400 Y-26.65500 Z-1.70000 I-0.25000 J0.00000
G2 X11.92400 Y-26.65500 Z-1.80000 I-0.25000 J0.00000
G2 X11.92400 Y-26.65500 I-0.25000 J0.00000
G1 Z1.20000 F128.00000

G0 X10.12800 Y-24.85900
G1 Z0.10000 F128.00000
G1 F250.00000
G2 X10.12800 Y-24.85900 Z-0.00000 I-0.25000 J0.00000
G2 X10.12800 Y-24.85900 Z-0.10000 I-0.25000 J0.00000
G2 X10.12800 Y-24.85900 Z-0.20000 I-0.25000 J0.00000
G2 X10.12800 Y-24.85900 Z-0.30000 I-0.25000 J0.00000
G2 X10.12800 Y-24.85900 Z-0.40000 I-0.25000 J0.00000
G2 X10.12800 Y-24.85900 Z-0.50000 I-0.25000 J0.00000
G2 X10.12800 Y-24.85900 Z-0.60000 I-0.25000 J0.00000
G2 X10.12800 Y-24.85900 Z-0.70000 I-0.25000 J0.00000
G2 X10.12800 Y-24.85900 Z-0.80000 I-0.25000 J0.00000
G2 X10.12800 Y-24.85900 Z-0.90000 I-0.25000 J0.00000
G2 X10.12800 Y-24.85900 Z-1.00000 I-0.25000 J0.00000
G2 X10.12800 Y-24.85900 Z-1.10000 I-0.25000 J0.00000
G2 X10.12800 Y-24.85900 Z-1.20000 I-0.25000 J0.00000
G2 X10.12800 Y-24.85900 Z-1.30000 I-0.25000 J0.00000
G2 X10.12800 Y-24.85900 Z-1.40000 I-0.25000 J0.00000
G2 X10.12800 Y-24.85900 Z-1.50000 I-0.25000 J0.00000
G2 X10.12800 Y-24.85900 Z-1.60000 I-0.25000 J0.00000
G2 X10.12800 Y-24.85900 Z-1.70000 I-0.25000 J0.00000
G2 X10.12800 Y-24.85900 Z-1.80000 I-0.25000 J0.00000
G2 X10.12800 Y-24.85900 I-0.25000 J0.00000
G1 Z1.20000 F128.00000

G0 X8.33200 Y-23.06300
G1 Z0.10000 F128.00000
G1 F250.00000
G2 X8.33200 Y-23.06300 Z-0.00000 I-0.25000 J0.00000
G2 X8.33200 Y-23.06300 Z-0.10000 I-0.25000 J0.00000
G2 X8.33200 Y-23.06300 Z-0.20000 I-0.25000 J0.00000
G2 X8.33200 Y-23.06300 Z-0.30000 I-0.25000 J0.00000
G2 X8.33200 Y-23.06300 Z-0.40000 I-0.25000 J0.00000
G2 X8.33200 Y-23.06300 Z-0.50000 I-0.25000 J0.00000
G2 X8.33200 Y-23.06300 Z-0.60000 I-0.25000 J0.00000
G2 X8.33200 Y-23.06300 Z-0.70000 I-0.25000 J0.00000
G2 X8.33200 Y-23.06300 Z-0.80000 I-0.25000 J0.00000
G2 X8.33200 Y-23.06300 Z-0.90000 I-0.25000 J0.00000
G2 X8.33200 Y-23.06300 Z-1.00000 I-0.25000 J0.00000
G2 X8.33200 Y-23.06300 Z-1.10000 I-0.25000 J0.00000
G2 X8.33200 Y-23.06300 Z-1.20000 I-0.25000 J0.00000
G2 X8.33200 Y-23.06300 Z-1.30000 I-0.25000 J0.00000
G2 X8.33200 Y-23.06300 Z-1.40000 I-0.25000 J0.00000
G2 X8.33200 Y-23.06300 Z-1.50000 I-0.25000 J0.00000
G2 X8.33200 Y-23.06300 Z-1.60000 I-0.25000 J0.00000
G2 X8.33200 Y-23.06300 Z-1.70000 I-0.25000 J0.00000
G2 X8.33200 Y-23.06300 Z-1.80000 I-0.25000 J0.00000
G2 X8.33200 Y-23.06300 I-0.25000 J0.00000
G1 Z1.20000 F128.00000

G0 X6.53600 Y-21.26700
G1 Z0.10000 F128.00000
G1 F250.00000
G2 X6.53600 Y-21.26700 Z-0.00000 I-0.25000 J0.00000
G2 X6.53600 Y-21.26700 Z-0.10000 I-0.25000 J0.00000
G2 X6.53600 Y-21.26700 Z-0.20000 I-0.25000 J0.00000
G2 X6.53600 Y-21.26700 Z-0.30000 I-0.25000 J0.00000
G2 X6.53600 Y-21.26700 Z-0.40000 I-0.25000 J0.00000
G2 X6.53600 Y-21.26700 Z-0.50000 I-0.25000 J0.00000
G2 X6.53600 Y-21.26700 Z-0.60000 I-0.25000 J0.00000
G2 X6.53600 Y-21.26700 Z-0.70000 I-0.25000 J0.00000
G2 X6.53600 Y-21.26700 Z-0.80000 I-0.25000 J0.00000
G2 X6.53600 Y-21.26700 Z-0.90000 I-0.25000 J0.00000
G2 X6.53600 Y-21.26700 Z-1.00000 I-0.25000 J0.00000
G2 X6.53600 Y-21.26700 Z-1.10000 I-0.25000 J0.00000
G2 X6.53600 Y-21.26700 Z-1.20000 I-0.25000 J0.00000
G2 X6.53600 Y-21.26700 Z-1.30000 I-0.25000 J0.00000
G2 X6.53600 Y-21.26700 Z-1.40000 I-0.25000 J0.00000
G2 X6.53600 Y-21.26700 Z-1.50000 I-0.25000 J0.00000
G2 X6.53600 Y-21.26700 Z-1.60000 I-0.25000 J0.00000
G2 X6.53600 Y-21.26700 Z-1.70000 I-0.25000 J0.00000
G2 X6.53600 Y-21.26700 Z-1.80000 I-0.25000 J0.00000
G2 X6.53600 Y-21.26700 I-0.25000 J0.00000
G1 Z1.20000 F128.00000

G0 X2.49500 Y-21.89600
G1 Z0.10000 F128.00000
G1 F250.00000
G2 X2.49500 Y-21.89600 Z-0.00000 I-0.25000 J0.00000
G2 X2.49500 Y-21.89600 Z-0.10000 I-0.25000 J0.00000
G2 X2.49500 Y-21.89600 Z-0.20000 I-0.25000 J0.00000
G2 X2.49500 Y-21.89600 Z-0.30000 I-0.25000 J0.00000
G2 X2.49500 Y-21.89600 Z-0.40000 I-0.25000 J0.00000
G2 X2.49500 Y-21.89600 Z-0.50000 I-0.25000 J0.00000
G2 X2.49500 Y-21.89600 Z-0.60000 I-0.25000 J0.00000
G2 X2.49500 Y-21.89600 Z-0.70000 I-0.25000 J0.00000
G2 X2.49500 Y-21.89600 Z-0.80000 I-0.25000 J0.00000
G2 X2.49500 Y-21.89600 Z-0.90000 I-0.25000 J0.00000
G2 X2.49500 Y-21.89600 Z-1.00000 I-0.25000 J0.00000
G2 X2.49500 Y-21.89600 Z-1.10000 I-0.25000 J0.00000
G2 X2.49500 Y-21.89600 Z-1.20000 I-0.25000 J0.00000
G2 X2.49500 Y-21.89600 Z-1.30000 I-0.25000 J0.00000
G2 X2.49500 Y-21.89600 Z-1.40000 I-0.25000 J0.00000
G2 X2.49500 Y-21.89600 Z-1.50000 I-0.25000 J0.00000
G2 X2.49500 Y-21.89600 Z-1.60000 I-0.25000 J0.00000
G2 X2.49500 Y-21.89600 Z-1.70000 I-0.25000 J0.00000
G2 X2.49500 Y-21.89600 Z-1.80000 I-0.25000 J0.00000
G2 X2.49500 Y-21.89600 I-0.25000 J0.00000
G1 Z1.20000 F128.00000

G0 X-4.68900 Y-14.71200
G1 Z0.10000 F128.00000
G1 F250.00000
G2 X-4.68900 Y-14.71200 Z-0.00000 I-0.25000 J0.00000
G2 X-4.68900 Y-14.71200 Z-0.10000 I-0.25000 J0.00000
G2 X-4.68900 Y-14.71200 Z-0.20000 I-0.25000 J0.00000
G2 X-4.68900 Y-14.71200 Z-0.30000 I-0.25000 J0.00000
G2 X-4.68900 Y-14.71200 Z-0.40000 I-0.25000 J0.00000
G2 X-4.68900 Y-14.71200 Z-0.50000 I-0.25000 J0.00000
G2 X-4.68900 Y-14.71200 Z-0.60000 I-0.25000 J0.00000
G2 X-4.68900 Y-14.71200 Z-0.70000 I-0.25000 J0.00000
G2 X-4.68900 Y-14.71200 Z-0.80000 I-0.25000 J0.00000
G2 X-4.68900 Y-14.71200 Z-0.90000 I-0.25000 J0.00000
G2 X-4.68900 Y-14.71200 Z-1.00000 I-0.25000 J0.00000
G2 X-4.68900 Y-14.71200 Z-1.10000 I-0.25000 J0.00000
G2 X-4.68900 Y-14.71200 Z-1.20000 I-0.25000 J0.00000
G2 X-4.68900 Y-14.71200 Z-1.30000 I-0.25000 J0.00000
G2 X-4.68900 Y-14.71200 Z-1.40000 I-0.25000 J0.00000
G2 X-4.68900 Y-14.71200 Z-1.50000 I-0.25000 J0.00000
G2 X-4.68900 Y-14.71200 Z-1.60000 I-0.25000 J0.00000
G2 X-4.68900 Y-14.71200 Z-1.70000 I-0.25000 J0.00000
G2 X-4.68900 Y-14.71200 Z-1.80000 I-0.25000 J0.00000
G2 X-4.68900 Y-14.71200 I-0.25000 J0.00000
G1 Z1.20000 F128.00000

G0 X-8.61600 Y-31.37000
G1 Z0.10000 F128.00000
G1 F250.00000
G2 X-8.61600 Y-31.37000 Z-0.00000 I-0.35000 J0.00000
G2 X-8.61600 Y-31.37000 Z-0.10000 I-0.35000 J0.00000
G2 X-8.61600 Y-31.37000 Z-0.20000 I-0.35000 J0.00000
G2 X-8.61600 Y-31.37000 Z-0.30000 I-0.35000 J0.00000
G2 X-8.61600 Y-31.37000 Z-0.40000 I-0.35000 J0.00000
G2 X-8.61600 Y-31.37000 Z-0.50000 I-0.35000 J0.00000
G2 X-8.61600 Y-31.37000 Z-0.60000 I-0.35000 J0.00000
G2 X-8.61600 Y-31.37000 Z-0.70000 I-0.35000 J0.00000
G2 X-8.61600 Y-31.37000 Z-0.80000 I-0.35000 J0.00000
G2 X-8.61600 Y-31.37000 Z-0.90000 I-0.35000 J0.00000
G2 X-8.61600 Y-31.37000 Z-1.00000 I-0.35000 J0.00000
G2 X-8.61600 Y-31.37000 Z-1.10000 I-0.35000 J0.00000
G2 X-8.61600 Y-31.37000 Z-1.20000 I-0.35000 J0.00000
G2 X-8.61600 Y-31.37000 Z-1.30000 I-0.35000 J0.00000
G2 X-8.61600 Y-31.37000 Z-1.40000 I-0.35000 J0.00000
G2 X-8.61600 Y-31.37000 Z-1.50000 I-0.35000 J0.00000
G2 X-8.61600 Y-31.37000 Z-1.60000 I-0.35000 J0.00000
G2 X-8.61600 Y-31.37000 Z-1.70000 I-0.35000 J0.00000
G2 X-8.61600 Y-31.37000 Z-1.80000 I-0.35000 J0.00000
G2 X-8.61600 Y-31.37000 I-0.35000 J0.00000
G1 Z1.20000 F128.00000

G0 X-8.61600 Y-37.87000
G1 Z0.10000 F128.00000
G1 F250.00000
G2 X-8.61600 Y-37.87000 Z-0.00000 I-0.35000 J0.00000
G2 X-8.61600 Y-37.87000 Z-0.10000 I-0.35000 J0.00000
G2 X-8.61600 Y-37.87000 Z-0.20000 I-0.35000 J0.00000
G2 X-8.61600 Y-37.87000 Z-0.30000 I-0.35000 J0.00000
G2 X-8.61600 Y-37.87000 Z-0.40000 I-0.35000 J0.00000
G2 X-8.61600 Y-37.87000 Z-0.50000 I-0.35000 J0.00000
G2 X-8.61600 Y-37.87000 Z-0.60000 I-0.35000 J0.00000
G2 X-8.61600 Y-37.87000 Z-0.70000 I-0.35000 J0.00000
G2 X-8.61600 Y-37.87000 Z-0.80000 I-0.35000 J0.00000
G2 X-8.61600 Y-37.87000 Z-0.90000 I-0.35000 J0.00000
G2 X-8.61600 Y-37.87000 Z-1.00000 I-0.35000 J0.00000
G2 X-8.61600 Y-37.87000 Z-1.10000 I-0.35000 J0.00000
G2 X-8.61600 Y-37.87000 Z-1.20000 I-0.35000 J0.00000
G2 X-8.61600 Y-37.87000 Z-1.30000 I-0.35000 J0.00000
G2 X-8.61600 Y-37.87000 Z-1.40000 I-0.35000 J0.00000
G2 X-8.61600 Y-37.87000 Z-1.50000 I-0.35000 J0.00000
G2 X-8.61600 Y-37.87000 Z-1.60000 I-0.35000 J0.00000
G2 X-8.61600 Y-37.87000 Z-1.70000 I-0.35000 J0.00000
G2 X-8.61600 Y-37.87000 Z-1.80000 I-0.35000 J0.00000
G2 X-8.61600 Y-37.87000 I-0.35000 J0.00000
G1 Z1.20000 F128.00000

G0 X11.81100 Y-34.68100
G1 Z0.10000 F128.00000
G1 F250.00000
G2 X11.81100 Y-34.68100 Z-0.00000 I-1.25000 J0.00000
G2 X11.81100 Y-34.68100 Z-0.10000 I-1.25000 J0.00000
G2 X11.81100 Y-34.68100 Z-0.20000 I-1.25000 J0.00000
G2 X11.81100 Y-34.68100 Z-0.30000 I-1.25000 J0.00000
G2 X11.81100 Y-34.68100 Z-0.40000 I-1.25000 J0.00000
G2 X11.81100 Y-34.68100 Z-0.50000 I-1.25000 J0.00000
G2 X11.81100 Y-34.68100 Z-0.60000 I-1.25000 J0.00000
G2 X11.81100 Y-34.68100 Z-0.70000 I-1.25000 J0.00000
G2 X11.81100 Y-34.68100 Z-0.80000 I-1.25000 J0.00000
G2 X11.81100 Y-34.68100 Z-0.90000 I-1.25000 J0.00000
G2 X11.81100 Y-34.68100 Z-1.00000 I-1.25000 J0.00000
G2 X11.81100 Y-34.68100 Z-1.10000 I-1.25000 J0.00000
G2 X11.81100 Y-34.68100 Z-1.20000 I-1.25000 J0.00000
G2 X11.81100 Y-34.68100 Z-1.30000 I-1.25000 J0.00000
G2 X11.81100 Y-34.68100 Z-1.40000 I-1.25000 J0.00000
G2 X11.81100 Y-34.68100 Z-1.50000 I-1.25000 J0.00000
G2 X11.81100 Y-34.68100 Z-1.60000 I-1.25000 J0.00000
G2 X11.81100 Y-34.68100 Z-1.70000 I-1.25000 J0.00000
G2 X11.81100 Y-34.68100 Z-1.80000 I-1.25000 J0.00000
G2 X11.81100 Y-34.68100 I-1.25000 J0.00000
G1 Z1.20000 F128.00000

G0 X22.85300 Y-16.95700
G1 Z0.10000 F128.00000
G1 F250.00000
G2 X22.85300 Y-16.95700 Z-0.00000 I-1.30000 J0.00000
G2 X22.85300 Y-16.95700 Z-0.10000 I-1.30000 J0.00000
G2 X22.85300 Y-16.95700 Z-0.20000 I-1.30000 J0.00000
G2 X22.85300 Y-16.95700 Z-0.30000 I-1.30000 J0.00000
G2 X22.85300 Y-16.95700 Z-0.40000 I-1.30000 J0.00000
G2 X22.85300 Y-16.95700 Z-0.50000 I-1.30000 J0.00000
G2 X22.85300 Y-16.95700 Z-0.60000 I-1.30000 J0.00000
G2 X22.85300 Y-16.95700 Z-0.70000 I-1.30000 J0.00000
G2 X22.85300 Y-16.95700 Z-0.80000 I-1.30000 J0.00000
G2 X22.85300 Y-16.95700 Z-0.90000 I-1.30000 J0.00000
G2 X22.85300 Y-16.95700 Z-1.00000 I-1.30000 J0.00000
G2 X22.85300 Y-16.95700 Z-1.10000 I-1.30000 J0.00000
G2 X22.85300 Y-16.95700 Z-1.20000 I-1.30000 J0.00000
G2 X22.85300 Y-16.95700 Z-1.30000 I-1.30000 J0.00000
G2 X22.85300 Y-16.95700 Z-1.40000 I-1.30000 J0.00000
G2 X22.85300 Y-16.95700 Z-1.50000 I-1.30000 J0.00000
G2 X22.85300 Y-16.95700 Z-1.60000 I-1.30000 J0.00000
G2 X22.85300 Y-16.95700 Z-1.70000 I-1.30000 J0.00000
G2 X22.85300 Y-16.95700 Z-1.80000 I-1.30000 J0.00000
G2 X22.85300 Y-16.95700 I-1.30000 J0.00000
G1 Z1.20000 F128.00000

G00 Z2.000000 ( All done -- retract )

M5      (Spindle off.)
G04 P1.000000
M9      (Coolant off.)
M2      (Program end.)

( pcb2gcode 2.4.0 )
( Software-independent Gcode )

G94 ( Millimeters per minute feed rate. )
G21 ( Units == Millimeters. )

G90 ( Absolute coordinates. )
G00 S2 ( RPM spindle speed. )
